;FLAVOR:Marlin
;TIME:5818
;Filament used: 3.66871m, 0.638884m
;Layer height: 0.2
;MINX:14.616
;MINY:14.616
;MINZ:0.3
;MAXX:212.41
;MAXY:42.213
;MAXZ:8.4
;Generated with Cura_SteamEngine mb-master-20191116
T0
M140 S70
M105
M190 S70
M104 S220
M104 T1 S175
M105
M109 S220
M105
M109 T1 S175
M82 ;absolute extrusion mode
;Sliced at: Tue 01-09-2020 20:37:23
G21 ;metric values
M107
G28
M420 S1
G90 ;absolute positioning
G92 E0; reset extruder distance
G1 X0 Y0 Z5 F5000 ;move nozzle up 5mm for safe homing
G29;ABL
M500
M82 ;set extruder to absolute mode
M107 ;start with the fan off
G1 X0 Y0 Z15.0 F5000 ;move the platform down 15mm
G92 E0 ;zero the extruded length
G1 F200 E3 ;extrude 3mm of feed stock
G1 F200 E0 ;Retract
G4 S2 ;Wait for material to fall
G1 F200 E3
G92 E0 ;zero the extruded length again
M117 Printing...
G92 E0
T0;WIPE
G91
G1 Z-0.5
G1 X -20 F3000
G1 X40
G1 X-20
G1 Z0.5
G90

G92 E0
G1 F2400 E-1
;LAYER_COUNT:39
;LAYER:0
M107
G1 F600 Z0.8
G0 F4800 X49.771 Y25.043 Z0.8
;TYPE:SKIRT
G1 F600 Z0.3
G1 F2400 E0.02495
G1 F1080 X50.158 Y24.346 E0.06074
G1 X50.233 Y24.224 E0.06717
G1 X50.675 Y23.559 E0.10303
G1 X50.759 Y23.442 E0.10949
G1 X51.252 Y22.815 E0.14531
G1 X51.348 Y22.703 E0.15193
G1 X51.891 Y22.118 E0.18777
G1 X51.99 Y22.019 E0.19405
G1 X52.577 Y21.478 E0.2299
G1 X52.684 Y21.388 E0.23618
G1 X53.309 Y20.896 E0.27189
G1 X53.43 Y20.808 E0.27861
G1 X54.098 Y20.367 E0.31455
G1 X54.217 Y20.295 E0.3208
G1 X54.913 Y19.909 E0.35653
G1 X55.044 Y19.843 E0.36312
G1 X55.771 Y19.514 E0.39895
G1 X55.905 Y19.46 E0.40543
G1 X56.657 Y19.19 E0.44131
G1 X56.791 Y19.148 E0.44762
G1 X57.56 Y18.938 E0.48341
G1 X57.703 Y18.905 E0.49
G1 X58.488 Y18.758 E0.52586
G1 X58.629 Y18.737 E0.53226
G1 X59.422 Y18.653 E0.56807
G1 X59.612 Y18.643 E0.57661
G1 X196.316 Y18.639 E6.71478
G1 X201.643 Y18.639 E6.95397
G1 X202.02 Y18.679 E6.97099
G1 X202.355 Y18.786 E6.98678
G1 X202.933 Y19.035 E7.01504
G1 X203.209 Y19.183 E7.0291
G1 X203.8 Y19.571 E7.06085
G1 X204.007 Y19.73 E7.07257
G1 X204.589 Y20.247 E7.10752
G1 X204.737 Y20.395 E7.11692
G1 X205.317 Y21.045 E7.15603
G1 X205.426 Y21.179 E7.16379
G1 X206.001 Y21.964 E7.20748
G1 X206.057 Y22.045 E7.2119
G1 X206.344 Y22.485 E7.23549
G1 X206.379 Y22.542 E7.2385
G1 X206.664 Y23.017 E7.26337
G1 X206.691 Y23.063 E7.26576
G1 X206.975 Y23.57 E7.29186
G1 X206.999 Y23.614 E7.29411
G1 X207.282 Y24.154 E7.32148
G1 X207.303 Y24.195 E7.32355
G1 X207.585 Y24.768 E7.35222
G1 X207.603 Y24.807 E7.35415
G1 X207.884 Y25.414 E7.38419
G1 X207.899 Y25.445 E7.38573
G1 X208.18 Y26.084 E7.41708
G1 X208.196 Y26.122 E7.41893
G1 X208.474 Y26.795 E7.45162
G1 X208.485 Y26.822 E7.45293
G1 X208.763 Y27.527 E7.48696
G1 X208.773 Y27.555 E7.4883
G1 X209.05 Y28.294 E7.52373
G1 X209.06 Y28.321 E7.52502
G1 X209.335 Y29.092 E7.56178
G1 X209.344 Y29.116 E7.56293
G1 X209.619 Y29.922 E7.60117
G1 X209.626 Y29.945 E7.60225
G1 X209.899 Y30.783 E7.64182
G1 X209.906 Y30.804 E7.64282
G1 X210.178 Y31.674 E7.68374
G1 X210.184 Y31.694 E7.68468
G1 X210.455 Y32.598 E7.72706
G1 X210.461 Y32.617 E7.72795
G1 X210.731 Y33.554 E7.77174
G1 X210.735 Y33.57 E7.77248
G1 X211.005 Y34.541 E7.81773
G1 X211.01 Y34.56 E7.81861
G1 X211.277 Y35.563 E7.86522
G1 X211.281 Y35.577 E7.86587
G1 X211.548 Y36.613 E7.91391
G1 X211.552 Y36.628 E7.91461
G1 X211.818 Y37.698 E7.96411
G1 X211.821 Y37.711 E7.96471
G1 X212.086 Y38.813 E8.0156
G1 X212.089 Y38.826 E8.0162
G1 X212.346 Y39.932 E8.06719
G1 X212.357 Y39.976 E8.06922
G1 X212.41 Y40.352 E8.08627
G1 X212.383 Y40.73 E8.10329
G1 X212.277 Y41.094 E8.12031
G1 X212.098 Y41.427 E8.13729
G1 X211.853 Y41.716 E8.1543
G1 X211.552 Y41.947 E8.17133
G1 X211.21 Y42.11 E8.18835
G1 X210.842 Y42.198 E8.20533
G1 X210.611 Y42.213 E8.21573
G1 X66.236 Y42.213 E14.69834
G1 X59.813 Y42.208 E14.98674
G1 X59.661 Y42.201 E14.99357
G1 X58.865 Y42.133 E15.02944
G1 X58.722 Y42.116 E15.03591
G1 X57.965 Y41.99 E15.07037
G1 X57.827 Y41.961 E15.0767
G1 X57.054 Y41.769 E15.11246
G1 X56.92 Y41.73 E15.11873
G1 X56.162 Y41.478 E15.15459
G1 X56.025 Y41.426 E15.16117
G1 X55.292 Y41.114 E15.19694
G1 X55.162 Y41.052 E15.20341
G1 X54.454 Y40.681 E15.2393
G1 X54.329 Y40.61 E15.24575
G1 X53.655 Y40.185 E15.28153
G1 X53.539 Y40.105 E15.28786
G1 X52.899 Y39.628 E15.3237
G1 X52.786 Y39.536 E15.33024
G1 X52.187 Y39.009 E15.36607
G1 X52.083 Y38.91 E15.37251
G1 X51.528 Y38.337 E15.40833
G1 X51.432 Y38.23 E15.41479
G1 X50.924 Y37.614 E15.45064
G1 X50.839 Y37.502 E15.45695
G1 X50.382 Y36.85 E15.4927
G1 X50.302 Y36.725 E15.49937
G1 X49.9 Y36.037 E15.53514
G1 X49.832 Y35.91 E15.54161
G1 X49.485 Y35.19 E15.5775
G1 X49.43 Y35.062 E15.58376
G1 X49.141 Y34.32 E15.61951
G1 X49.093 Y34.182 E15.62607
G1 X48.865 Y33.419 E15.66183
G1 X48.83 Y33.282 E15.66818
G1 X48.662 Y32.5 E15.70409
G1 X48.637 Y32.357 E15.71061
G1 X48.533 Y31.566 E15.74643
G1 X48.521 Y31.426 E15.75274
G1 X48.479 Y30.632 E15.78844
G1 X48.477 Y30.49 E15.79482
G1 X48.498 Y29.692 E15.83066
G1 X48.507 Y29.545 E15.83727
G1 X48.593 Y28.752 E15.87309
G1 X48.615 Y28.609 E15.87959
G1 X48.765 Y27.823 E15.91552
G1 X48.797 Y27.685 E15.92188
G1 X49.007 Y26.918 E15.95758
G1 X49.05 Y26.781 E15.96403
G1 X49.322 Y26.029 E15.99994
G1 X49.377 Y25.894 E16.00648
G1 X49.707 Y25.17 E16.04221
G1 X49.771 Y25.043 E16.04859
G0 F4800 X50.121 Y25.237
G1 F1080 X50.508 Y24.54 E16.08439
G1 X50.566 Y24.445 E16.08939
G1 X51.008 Y23.78 E16.12524
G1 X51.073 Y23.69 E16.13023
G1 X51.566 Y23.063 E16.16604
G1 X51.641 Y22.976 E16.1712
G1 X52.184 Y22.391 E16.20704
G1 X52.261 Y22.314 E16.21193
G1 X52.848 Y21.773 E16.24777
G1 X52.931 Y21.702 E16.25267
G1 X53.556 Y21.21 E16.28839
G1 X53.651 Y21.142 E16.29363
G1 X54.319 Y20.701 E16.32958
G1 X54.411 Y20.645 E16.33441
G1 X55.107 Y20.259 E16.37015
G1 X55.209 Y20.208 E16.37527
G1 X55.936 Y19.879 E16.4111
G1 X56.04 Y19.836 E16.41615
G1 X56.792 Y19.566 E16.45203
G1 X56.896 Y19.533 E16.45693
G1 X57.665 Y19.323 E16.49272
G1 X57.776 Y19.298 E16.49783
G1 X58.561 Y19.151 E16.53369
G1 X58.672 Y19.135 E16.53872
G1 X59.465 Y19.051 E16.57453
G1 X59.612 Y19.043 E16.58114
G1 X196.316 Y19.039 E22.71931
G1 X201.643 Y19.039 E22.9585
G1 X201.975 Y19.079 E22.97352
G1 X202.197 Y19.153 E22.98402
G1 X202.775 Y19.402 E23.01228
G1 X202.989 Y19.518 E23.02321
G1 X203.58 Y19.906 E23.05496
G1 X203.742 Y20.029 E23.06409
G1 X204.324 Y20.546 E23.09904
G1 X204.439 Y20.661 E23.10634
G1 X205.019 Y21.311 E23.14546
G1 X205.103 Y21.416 E23.1515
G1 X205.678 Y22.201 E23.19519
G1 X205.722 Y22.263 E23.1986
G1 X206.009 Y22.703 E23.22219
G1 X206.321 Y23.223 E23.24942
G1 X206.342 Y23.259 E23.25129
G1 X206.626 Y23.766 E23.27738
G1 X206.645 Y23.8 E23.27913
G1 X206.928 Y24.34 E23.30651
G1 X206.944 Y24.372 E23.30811
G1 X207.226 Y24.945 E23.33679
G1 X207.24 Y24.975 E23.33828
G1 X207.521 Y25.582 E23.36831
G1 X207.533 Y25.606 E23.36952
G1 X207.814 Y26.245 E23.40086
G1 X207.826 Y26.275 E23.40231
G1 X208.104 Y26.948 E23.435
G1 X208.112 Y26.968 E23.43597
G1 X208.39 Y27.673 E23.47
G1 X208.399 Y27.696 E23.47111
G1 X208.676 Y28.435 E23.50654
G1 X208.684 Y28.456 E23.50755
G1 X208.959 Y29.227 E23.54431
G1 X208.965 Y29.245 E23.54516
G1 X209.24 Y30.051 E23.5834
G1 X209.246 Y30.069 E23.58425
G1 X209.519 Y30.907 E23.62382
G1 X209.524 Y30.923 E23.62458
G1 X209.796 Y31.793 E23.66551
G1 X209.801 Y31.809 E23.66626
G1 X210.072 Y32.713 E23.70863
G1 X210.076 Y32.727 E23.70929
G1 X210.346 Y33.664 E23.75307
G1 X210.35 Y33.677 E23.75368
G1 X210.62 Y34.648 E23.79894
G1 X210.624 Y34.663 E23.79963
G1 X210.891 Y35.666 E23.84624
G1 X210.894 Y35.677 E23.84675
G1 X211.161 Y36.713 E23.89479
G1 X211.164 Y36.724 E23.8953
G1 X211.43 Y37.794 E23.94481
G1 X211.432 Y37.805 E23.94531
G1 X211.697 Y38.907 E23.9962
G1 X211.7 Y38.917 E23.99667
G1 X211.964 Y40.052 E24.04899
G1 X211.969 Y40.073 E24.04996
G1 X212.011 Y40.405 E24.06499
G1 X211.973 Y40.737 E24.07999
G1 X211.858 Y41.05 E24.09496
G1 X211.671 Y41.327 E24.10997
G1 X211.424 Y41.553 E24.125
G1 X211.131 Y41.713 E24.13999
G1 X210.808 Y41.799 E24.155
G1 X210.611 Y41.813 E24.16387
G1 X66.236 Y41.813 E30.64648
G1 X59.813 Y41.808 E30.93488
G1 X59.695 Y41.803 E30.94018
G1 X58.899 Y41.735 E30.97605
G1 X58.788 Y41.721 E30.98108
G1 X58.031 Y41.595 E31.01553
G1 X57.924 Y41.573 E31.02044
G1 X57.151 Y41.381 E31.0562
G1 X57.046 Y41.351 E31.06111
G1 X56.288 Y41.099 E31.09697
G1 X56.182 Y41.058 E31.10207
G1 X55.449 Y40.746 E31.13784
G1 X55.347 Y40.698 E31.14291
G1 X54.639 Y40.327 E31.1788
G1 X54.542 Y40.271 E31.18383
G1 X53.868 Y39.846 E31.2196
G1 X53.778 Y39.785 E31.22449
G1 X53.138 Y39.308 E31.26033
G1 X53.05 Y39.236 E31.26543
G1 X52.451 Y38.709 E31.30125
G1 X52.37 Y38.632 E31.30627
G1 X51.815 Y38.059 E31.34209
G1 X51.741 Y37.976 E31.34708
G1 X51.233 Y37.36 E31.38294
G1 X51.167 Y37.273 E31.38784
G1 X50.71 Y36.621 E31.42359
G1 X50.647 Y36.523 E31.42882
G1 X50.245 Y35.835 E31.4646
G1 X50.193 Y35.737 E31.46958
G1 X49.846 Y35.017 E31.50547
G1 X49.802 Y34.917 E31.51037
G1 X49.513 Y34.175 E31.54613
G1 X49.477 Y34.068 E31.5512
G1 X49.249 Y33.305 E31.58695
G1 X49.221 Y33.198 E31.59192
G1 X49.053 Y32.416 E31.62783
G1 X49.034 Y32.305 E31.63289
G1 X48.93 Y31.514 E31.66871
G1 X48.92 Y31.405 E31.67363
G1 X48.878 Y30.611 E31.70933
G1 X48.876 Y30.5 E31.71431
G1 X48.897 Y29.702 E31.75016
G1 X48.905 Y29.588 E31.75529
G1 X48.991 Y28.795 E31.7911
G1 X49.008 Y28.684 E31.79615
G1 X49.158 Y27.898 E31.83208
G1 X49.183 Y27.79 E31.83705
G1 X49.393 Y27.023 E31.87276
G1 X49.426 Y26.917 E31.87774
G1 X49.698 Y26.165 E31.91365
G1 X49.741 Y26.06 E31.91875
G1 X50.071 Y25.336 E31.95447
G1 X50.121 Y25.237 E31.95945
G0 F4800 X50.471 Y25.432
G1 F1080 X50.858 Y24.735 E31.99525
G1 X50.899 Y24.666 E31.99885
G1 X51.341 Y24.001 E32.03471
G1 X51.388 Y23.937 E32.03827
G1 X51.881 Y23.31 E32.07408
G1 X51.934 Y23.248 E32.07775
G1 X52.477 Y22.663 E32.11359
G1 X52.532 Y22.608 E32.11708
G1 X53.119 Y22.067 E32.15292
G1 X53.178 Y22.016 E32.15642
G1 X53.803 Y21.524 E32.19214
G1 X53.871 Y21.475 E32.1959
G1 X54.539 Y21.034 E32.23184
G1 X54.605 Y20.994 E32.23531
G1 X55.301 Y20.608 E32.27104
G1 X55.374 Y20.572 E32.2747
G1 X56.101 Y20.243 E32.31053
G1 X56.175 Y20.213 E32.31411
G1 X56.927 Y19.943 E32.34999
G1 X57.002 Y19.919 E32.35353
G1 X57.771 Y19.709 E32.38932
G1 X57.85 Y19.691 E32.39296
G1 X58.635 Y19.544 E32.42882
G1 X58.714 Y19.533 E32.4324
G1 X59.507 Y19.449 E32.4682
G1 X59.612 Y19.443 E32.47293
G1 X196.316 Y19.439 E38.6111
G1 X201.643 Y19.439 E38.85029
G1 X202.039 Y19.521 E38.86845
G1 X202.617 Y19.77 E38.8967
G1 X202.77 Y19.852 E38.9045
G1 X203.361 Y20.24 E38.93624
G1 X203.476 Y20.328 E38.94274
G1 X204.058 Y20.845 E38.9777
G1 X204.14 Y20.927 E38.98291
G1 X204.72 Y21.577 E39.02202
G1 X204.781 Y21.652 E39.02636
G1 X205.356 Y22.437 E39.07005
G1 X205.387 Y22.482 E39.07251
G1 X205.674 Y22.922 E39.0961
G1 X205.693 Y22.954 E39.09777
G1 X205.993 Y23.454 E39.12395
G1 X206.277 Y23.961 E39.15004
G1 X206.291 Y23.986 E39.15133
G1 X206.574 Y24.526 E39.1787
G1 X206.585 Y24.548 E39.17981
G1 X206.867 Y25.121 E39.20848
G1 X206.877 Y25.143 E39.20957
G1 X207.158 Y25.75 E39.2396
G1 X207.166 Y25.767 E39.24044
G1 X207.447 Y26.406 E39.27179
G1 X207.456 Y26.427 E39.27281
G1 X207.734 Y27.1 E39.30551
G1 X207.74 Y27.115 E39.30623
G1 X208.018 Y27.82 E39.34026
G1 X208.024 Y27.836 E39.34103
G1 X208.301 Y28.575 E39.37647
G1 X208.307 Y28.59 E39.37719
G1 X208.582 Y29.361 E39.41395
G1 X208.586 Y29.374 E39.41456
G1 X208.861 Y30.18 E39.4528
G1 X208.866 Y30.193 E39.45342
G1 X209.139 Y31.031 E39.49299
G1 X209.142 Y31.043 E39.49355
G1 X209.414 Y31.913 E39.53448
G1 X209.418 Y31.924 E39.535
G1 X209.689 Y32.828 E39.57738
G1 X209.692 Y32.838 E39.57785
G1 X209.962 Y33.775 E39.62163
G1 X209.964 Y33.784 E39.62205
G1 X210.234 Y34.755 E39.6673
G1 X210.237 Y34.766 E39.66781
G1 X210.504 Y35.769 E39.71442
G1 X210.506 Y35.776 E39.71474
G1 X210.773 Y36.812 E39.76278
G1 X210.775 Y36.821 E39.76319
G1 X211.041 Y37.891 E39.8127
G1 X211.043 Y37.898 E39.81303
G1 X211.308 Y39 E39.86392
G1 X211.31 Y39.007 E39.86425
G1 X211.57 Y40.126 E39.91583
G1 X211.581 Y40.17 E39.91787
G1 X211.61 Y40.451 E39.93055
G1 X211.56 Y40.729 E39.94323
G1 X211.434 Y40.981 E39.95588
G1 X211.242 Y41.188 E39.96856
G1 X211.001 Y41.334 E39.98121
G1 X210.611 Y41.413 E39.99908
G1 X66.237 Y41.413 E46.48164
G1 X59.814 Y41.408 E46.77004
G1 X59.729 Y41.404 E46.77386
G1 X58.933 Y41.336 E46.80974
G1 X58.854 Y41.326 E46.81331
G1 X58.097 Y41.2 E46.84777
G1 X58.02 Y41.185 E46.85129
G1 X57.247 Y40.993 E46.88705
G1 X57.173 Y40.971 E46.89052
G1 X56.415 Y40.719 E46.92639
G1 X56.338 Y40.69 E46.93008
G1 X55.605 Y40.378 E46.96585
G1 X55.533 Y40.344 E46.96943
G1 X54.825 Y39.973 E47.00532
G1 X54.756 Y39.933 E47.0089
G1 X54.082 Y39.508 E47.04468
G1 X54.017 Y39.464 E47.0482
G1 X53.377 Y38.987 E47.08404
G1 X53.314 Y38.936 E47.08768
G1 X52.715 Y38.409 E47.1235
G1 X52.658 Y38.354 E47.12706
G1 X52.103 Y37.781 E47.16288
G1 X52.05 Y37.721 E47.16647
G1 X51.542 Y37.105 E47.20233
G1 X51.494 Y37.043 E47.20585
G1 X51.037 Y36.391 E47.2416
G1 X50.993 Y36.321 E47.24531
G1 X50.591 Y35.633 E47.28109
G1 X50.553 Y35.563 E47.28466
G1 X50.206 Y34.843 E47.32055
G1 X50.175 Y34.772 E47.32403
G1 X49.886 Y34.03 E47.35978
G1 X49.86 Y33.953 E47.36343
G1 X49.632 Y33.19 E47.39919
G1 X49.612 Y33.114 E47.40272
G1 X49.444 Y32.332 E47.43863
G1 X49.431 Y32.252 E47.44227
G1 X49.327 Y31.461 E47.47809
G1 X49.319 Y31.384 E47.48157
G1 X49.277 Y30.59 E47.51727
G1 X49.276 Y30.511 E47.52082
G1 X49.297 Y29.713 E47.55666
G1 X49.303 Y29.631 E47.56035
G1 X49.389 Y28.838 E47.59617
G1 X49.401 Y28.759 E47.59976
G1 X49.551 Y27.973 E47.63569
G1 X49.568 Y27.896 E47.63923
G1 X49.778 Y27.129 E47.67493
G1 X49.803 Y27.053 E47.67853
G1 X50.075 Y26.301 E47.71443
G1 X50.105 Y26.226 E47.71806
G1 X50.435 Y25.502 E47.75379
G1 X50.471 Y25.432 E47.75732
G0 F4800 X50.82 Y25.626
G1 F1080 X51.207 Y24.929 E47.79312
G1 X51.232 Y24.888 E47.79527
G1 X51.674 Y24.223 E47.83113
G1 X51.702 Y24.184 E47.83328
G1 X52.195 Y23.557 E47.8691
G1 X52.227 Y23.52 E47.87129
G1 X52.77 Y22.935 E47.90713
G1 X52.803 Y22.902 E47.90923
G1 X53.39 Y22.361 E47.94507
G1 X53.426 Y22.331 E47.94718
G1 X54.051 Y21.839 E47.98289
G1 X54.091 Y21.809 E47.98514
G1 X54.759 Y21.368 E48.02108
G1 X54.799 Y21.344 E48.02317
G1 X55.495 Y20.958 E48.05891
G1 X55.539 Y20.936 E48.06112
G1 X56.266 Y20.607 E48.09695
G1 X56.31 Y20.589 E48.09908
G1 X57.062 Y20.319 E48.13496
G1 X57.107 Y20.305 E48.13707
G1 X57.876 Y20.095 E48.17287
G1 X57.924 Y20.084 E48.17508
G1 X58.709 Y19.937 E48.21094
G1 X58.756 Y19.93 E48.21307
G1 X59.549 Y19.846 E48.24888
G1 X59.612 Y19.843 E48.25171
G1 X196.316 Y19.839 E54.38988
G1 X201.643 Y19.839 E54.62907
G1 X201.88 Y19.888 E54.63993
G1 X202.458 Y20.137 E54.66819
G1 X202.55 Y20.186 E54.67287
G1 X203.141 Y20.574 E54.70462
G1 X203.21 Y20.627 E54.70852
G1 X203.792 Y21.144 E54.74348
G1 X203.842 Y21.194 E54.74665
G1 X204.422 Y21.844 E54.78577
G1 X204.458 Y21.888 E54.78832
G1 X205.033 Y22.673 E54.83201
G1 X205.052 Y22.7 E54.8335
G1 X205.339 Y23.14 E54.85708
G1 X205.35 Y23.159 E54.85807
G1 X205.635 Y23.634 E54.88294
G1 X205.644 Y23.65 E54.88377
G1 X205.928 Y24.157 E54.90986
G1 X205.936 Y24.171 E54.91058
G1 X206.219 Y24.711 E54.93796
G1 X206.226 Y24.725 E54.93866
G1 X206.508 Y25.298 E54.96734
G1 X206.514 Y25.311 E54.96798
G1 X206.795 Y25.918 E54.99801
G1 X206.8 Y25.928 E54.99852
G1 X207.081 Y26.567 E55.02986
G1 X207.087 Y26.58 E55.0305
G1 X207.365 Y27.253 E55.0632
G1 X207.368 Y27.262 E55.06362
G1 X207.646 Y27.967 E55.09765
G1 X207.65 Y27.976 E55.09809
G1 X207.927 Y28.715 E55.13353
G1 X207.93 Y28.724 E55.13395
G1 X208.205 Y29.495 E55.17071
G1 X208.208 Y29.503 E55.17109
G1 X208.483 Y30.309 E55.20933
G1 X208.485 Y30.317 E55.2097
G1 X208.758 Y31.155 E55.24928
G1 X208.761 Y31.162 E55.24962
G1 X209.033 Y32.032 E55.29055
G1 X209.035 Y32.039 E55.29087
G1 X209.306 Y32.943 E55.33325
G1 X209.308 Y32.949 E55.33353
G1 X209.578 Y33.886 E55.37732
G1 X209.579 Y33.891 E55.37755
G1 X209.849 Y34.862 E55.4228
G1 X209.851 Y34.869 E55.42313
G1 X210.118 Y35.872 E55.46973
G1 X210.386 Y36.912 E55.51795
G1 X210.387 Y36.917 E55.51818
G1 X210.653 Y37.987 E55.56769
G1 X210.654 Y37.992 E55.56792
G1 X210.919 Y39.094 E55.61881
G1 X211.182 Y40.223 E55.67086
G1 X211.193 Y40.267 E55.6729
G1 X211.207 Y40.485 E55.68271
