;FLAVOR:Marlin
;TIME:1006
;Filament used: 0.618101m, 0.152891m
;Layer height: 0.2
;MINX:13.92
;MINY:13.92
;MINZ:0.3
;MAXX:82.902
;MAXY:53.074
;MAXZ:3
;Generated with Cura_SteamEngine mb-master-20191116
T0
M140 S70
M105
M190 S70
M104 S220
M104 T1 S175
M105
M109 S220
M105
M109 T1 S175
M82 ;absolute extrusion mode
;Sliced at: Tue 01-09-2020 21:02:24
G21 ;metric values
M107
G28
M420 S1
G90 ;absolute positioning
G92 E0; reset extruder distance
G1 X0 Y0 Z5 F5000 ;move nozzle up 5mm for safe homing
G29;ABL
M500
M82 ;set extruder to absolute mode
M107 ;start with the fan off
G1 X0 Y0 Z15.0 F5000 ;move the platform down 15mm
G92 E0 ;zero the extruded length
G1 F200 E3 ;extrude 3mm of feed stock
G1 F200 E0 ;Retract
G4 S2 ;Wait for material to fall
G1 F200 E3
G92 E0 ;zero the extruded length again
M117 Printing...
G92 E0
T0;WIPE
G91
G1 Z-0.5
G1 X -20 F3000
G1 X40
G1 X-20
G1 Z0.5
G90

G92 E0
G1 F2400 E-1
;LAYER_COUNT:12
;LAYER:0
M107
G1 F600 Z0.8
G0 F4800 X48.53 Y20.167 Z0.8
;TYPE:SKIRT
G1 F600 Z0.3
G1 F2400 E0.02495
G1 F1080 X48.695 Y19.869 E0.04024
G1 X48.915 Y19.547 E0.05775
G1 X49.16 Y19.258 E0.07476
G1 X49.411 Y19.059 E0.08914
G1 X49.736 Y18.845 E0.10662
G1 X50.073 Y18.671 E0.12365
G1 X50.38 Y18.582 E0.138
G1 X50.758 Y18.508 E0.15529
G1 X51.104 Y18.474 E0.1709
G1 X80.1 Y18.474 E1.47286
G1 X80.456 Y18.509 E1.48892
G1 X80.848 Y18.588 E1.50688
G1 X81.209 Y18.702 E1.52387
G1 X81.507 Y18.867 E1.53917
G1 X81.829 Y19.087 E1.55668
G1 X82.118 Y19.332 E1.57369
G1 X82.316 Y19.581 E1.58798
G1 X82.53 Y19.905 E1.60541
G1 X82.704 Y20.241 E1.6224
G1 X82.795 Y20.552 E1.63695
G1 X82.869 Y20.931 E1.65429
G1 X82.902 Y21.276 E1.66985
G1 X82.902 Y50.272 E2.97181
G1 X82.866 Y50.628 E2.98787
G1 X82.787 Y51.019 E3.00578
G1 X82.674 Y51.381 E3.02281
G1 X82.511 Y51.676 E3.03794
G1 X82.291 Y51.999 E3.05549
G1 X82.046 Y52.288 E3.0725
G1 X81.795 Y52.488 E3.08691
G1 X81.471 Y52.702 E3.10435
G1 X81.135 Y52.876 E3.12134
G1 X80.824 Y52.967 E3.13589
G1 X80.445 Y53.041 E3.15323
G1 X80.1 Y53.074 E3.16879
G1 X51.104 Y53.074 E4.47074
G1 X50.748 Y53.038 E4.48681
G1 X50.357 Y52.959 E4.50472
G1 X49.995 Y52.846 E4.52175
G1 X49.7 Y52.683 E4.53688
G1 X49.377 Y52.463 E4.55443
G1 X49.088 Y52.218 E4.57144
G1 X48.887 Y51.965 E4.58595
G1 X48.673 Y51.64 E4.60342
G1 X48.499 Y51.303 E4.62045
G1 X48.41 Y50.996 E4.6348
G1 X48.336 Y50.618 E4.6521
G1 X48.302 Y50.272 E4.66771
G1 X48.302 Y21.276 E5.96966
G1 X48.337 Y20.92 E5.98573
G1 X48.416 Y20.528 E6.00368
G1 X48.53 Y20.167 E6.02068
G0 F4800 X48.913 Y20.29
G1 F1080 X49.025 Y20.094 E6.03082
G1 X49.245 Y19.772 E6.04833
G1 X49.465 Y19.521 E6.06331
G1 X49.631 Y19.393 E6.07273
G1 X49.956 Y19.179 E6.0902
G1 X50.255 Y19.03 E6.1052
G1 X50.457 Y18.974 E6.11461
G1 X50.835 Y18.9 E6.1319
G1 X51.104 Y18.874 E6.14404
G1 X80.1 Y18.874 E7.44599
G1 X80.377 Y18.902 E7.4585
G1 X80.769 Y18.981 E7.47645
G1 X81.086 Y19.085 E7.49143
G1 X81.282 Y19.197 E7.50157
G1 X81.604 Y19.417 E7.51908
G1 X81.855 Y19.637 E7.53406
G1 X81.982 Y19.801 E7.54338
G1 X82.196 Y20.125 E7.56081
G1 X82.346 Y20.424 E7.57583
G1 X82.402 Y20.629 E7.58537
G1 X82.476 Y21.008 E7.60271
G1 X82.502 Y21.276 E7.6148
G1 X82.502 Y50.272 E8.91676
G1 X82.474 Y50.549 E8.92926
G1 X82.395 Y50.94 E8.94717
G1 X82.291 Y51.257 E8.96215
G1 X82.18 Y51.451 E8.97219
G1 X81.96 Y51.774 E8.98973
G1 X81.74 Y52.026 E9.00475
G1 X81.575 Y52.154 E9.01413
G1 X81.251 Y52.368 E9.03157
G1 X80.952 Y52.518 E9.04659
G1 X80.747 Y52.574 E9.05613
G1 X80.368 Y52.648 E9.07347
G1 X80.1 Y52.674 E9.08556
G1 X51.104 Y52.674 E10.38751
G1 X50.827 Y52.646 E10.40001
G1 X50.436 Y52.567 E10.41792
G1 X50.119 Y52.463 E10.4329
G1 X49.925 Y52.352 E10.44294
G1 X49.602 Y52.132 E10.46049
G1 X49.35 Y51.912 E10.47551
G1 X49.221 Y51.745 E10.48498
G1 X49.007 Y51.42 E10.50246
G1 X48.858 Y51.121 E10.51746
G1 X48.802 Y50.919 E10.52687
G1 X48.728 Y50.541 E10.54416
G1 X48.702 Y50.272 E10.5563
G1 X48.702 Y21.276 E11.85825
G1 X48.73 Y20.999 E11.87075
G1 X48.809 Y20.607 E11.88871
G1 X48.913 Y20.29 E11.90369
G0 F4800 X49.355 Y20.32
G1 F1080 X49.575 Y19.998 E11.9212
G1 X49.851 Y19.727 E11.93857
G1 X50.176 Y19.513 E11.95604
G1 X50.534 Y19.367 E11.9734
G1 X50.912 Y19.293 E11.99069
G1 X51.104 Y19.274 E11.99936
G1 X80.1 Y19.274 E13.30131
G1 X80.298 Y19.294 E13.31025
G1 X80.69 Y19.373 E13.3282
G1 X81.056 Y19.527 E13.34603
G1 X81.378 Y19.747 E13.36354
G1 X81.648 Y20.022 E13.38085
G1 X81.862 Y20.346 E13.39828
G1 X82.009 Y20.705 E13.4157
G1 X82.083 Y21.084 E13.43304
G1 X82.102 Y21.276 E13.4417
G1 X82.102 Y50.272 E14.74366
G1 X82.082 Y50.47 E14.75259
G1 X82.003 Y50.861 E14.7705
G1 X81.849 Y51.226 E14.78829
G1 X81.629 Y51.549 E14.80584
G1 X81.354 Y51.82 E14.82317
G1 X81.03 Y52.034 E14.84061
G1 X80.671 Y52.181 E14.85803
G1 X80.292 Y52.255 E14.87537
G1 X80.1 Y52.274 E14.88403
G1 X51.104 Y52.274 E16.18598
G1 X50.906 Y52.254 E16.19492
G1 X50.515 Y52.175 E16.21283
G1 X50.15 Y52.021 E16.23062
G1 X49.827 Y51.801 E16.24817
G1 X49.555 Y51.525 E16.26557
G1 X49.341 Y51.2 E16.28304
G1 X49.195 Y50.842 E16.3004
G1 X49.121 Y50.464 E16.31769
G1 X49.102 Y50.272 E16.32636
G1 X49.102 Y21.276 E17.62831
G1 X49.122 Y21.078 E17.63725
G1 X49.201 Y20.686 E17.6552
G1 X49.355 Y20.32 E17.67303
G0 F4800 X49.686 Y20.546
G1 F1080 X49.906 Y20.224 E17.69054
G1 X50.071 Y20.061 E17.70096
G1 X50.396 Y19.847 E17.71843
G1 X50.611 Y19.759 E17.72886
G1 X50.989 Y19.685 E17.74615
G1 X51.104 Y19.674 E17.75134
G1 X80.1 Y19.674 E19.0533
G1 X80.219 Y19.686 E19.05867
G1 X80.611 Y19.765 E19.07662
G1 X80.83 Y19.858 E19.08731
G1 X81.152 Y20.078 E19.10482
G1 X81.315 Y20.242 E19.1152
G1 X81.529 Y20.566 E19.13263
G1 X81.617 Y20.782 E19.14311
G1 X81.691 Y21.161 E19.16044
G1 X81.702 Y21.276 E19.16563
G1 X81.702 Y50.272 E20.46759
G1 X81.69 Y50.391 E20.47296
G1 X81.611 Y50.782 E20.49087
G1 X81.519 Y51.001 E20.50153
G1 X81.299 Y51.324 E20.51908
G1 X81.134 Y51.487 E20.5295
G1 X80.81 Y51.701 E20.54693
G1 X80.594 Y51.789 E20.5574
G1 X80.215 Y51.863 E20.57474
G1 X80.1 Y51.874 E20.57993
G1 X51.104 Y51.874 E21.88188
G1 X50.985 Y51.862 E21.88725
G1 X50.594 Y51.783 E21.90517
G1 X50.375 Y51.691 E21.91583
G1 X50.052 Y51.471 E21.93338
G1 X49.889 Y51.305 E21.94382
G1 X49.675 Y50.98 E21.9613
G1 X49.587 Y50.765 E21.97173
G1 X49.513 Y50.387 E21.98902
G1 X49.502 Y50.272 E21.99421
G1 X49.502 Y21.276 E23.29616
G1 X49.514 Y21.157 E23.30154
G1 X49.593 Y20.765 E23.31949
G1 X49.686 Y20.546 E23.33017
G0 F4800 X50.016 Y20.771
G1 F1080 X50.236 Y20.449 E23.34768
G1 X50.291 Y20.395 E23.35115
G1 X50.616 Y20.181 E23.36862
G1 X50.688 Y20.152 E23.3721
G1 X51.066 Y20.078 E23.3894
G1 X51.104 Y20.074 E23.39111
G1 X80.1 Y20.074 E24.69307
G1 X80.14 Y20.078 E24.69487
G1 X80.532 Y20.157 E24.71283
G1 X80.605 Y20.188 E24.71639
G1 X80.927 Y20.408 E24.7339
G1 X80.981 Y20.463 E24.73736
G1 X81.195 Y20.787 E24.7548
G1 X81.224 Y20.859 E24.75828
G1 X81.298 Y21.238 E24.77562
G1 X81.302 Y21.276 E24.77734
G1 X81.302 Y50.272 E26.07929
G1 X81.298 Y50.312 E26.08109
G1 X81.219 Y50.703 E26.09901
G1 X81.188 Y50.776 E26.10257
G1 X80.968 Y51.099 E26.12011
G1 X80.913 Y51.153 E26.12358
G1 X80.589 Y51.367 E26.14101
G1 X80.517 Y51.396 E26.1445
G1 X80.138 Y51.47 E26.16183
G1 X80.1 Y51.474 E26.16355
G1 X51.104 Y51.474 E27.46551
G1 X51.064 Y51.47 E27.46731
G1 X50.673 Y51.391 E27.48522
G1 X50.6 Y51.36 E27.48878
G1 X50.277 Y51.14 E27.50633
G1 X50.223 Y51.085 E27.50979
G1 X50.009 Y50.76 E27.52726
G1 X49.98 Y50.688 E27.53075
G1 X49.906 Y50.31 E27.54804
G1 X49.902 Y50.272 E27.54976
G1 X49.902 Y21.276 E28.85171
G1 X49.906 Y21.236 E28.85352
G1 X49.985 Y20.844 E28.87147
G1 X50.016 Y20.771 E28.87503
G1 F2400 E27.87503
G1 F600 Z0.8
G0 F4800 X38.961 Y23.651 Z0.8
G1 F600 Z0.3
G1 F2400 E28.89998
G1 F1080 X39.53 Y25.527 E28.988
G1 X39.598 Y25.872 E29.00379
G1 X39.791 Y27.823 E29.09182
G1 X39.791 Y28.177 E29.10772
G1 X39.598 Y30.127 E29.1957
G1 X39.53 Y30.472 E29.21149
G1 X38.961 Y32.348 E29.29952
G1 X38.826 Y32.674 E29.31536
G1 X37.902 Y34.403 E29.40338
G1 X37.706 Y34.696 E29.41921
G1 X36.463 Y36.212 E29.50724
G1 X36.212 Y36.463 E29.52318
G1 X34.696 Y37.706 E29.6112
G1 X34.403 Y37.902 E29.62703
G1 X32.674 Y38.826 E29.71506
G1 X32.348 Y38.961 E29.7309
G1 X30.472 Y39.53 E29.81892
G1 X30.127 Y39.598 E29.83471
G1 X28.177 Y39.791 E29.9227
G1 X27.823 Y39.791 E29.93859
G1 X25.872 Y39.598 E30.02662
G1 X25.527 Y39.53 E30.04241
G1 X23.651 Y38.961 E30.13043
G1 X23.325 Y38.826 E30.14628
G1 X21.596 Y37.902 E30.2343
G1 X21.303 Y37.706 E30.25013
G1 X19.787 Y36.463 E30.33816
G1 X19.536 Y36.212 E30.35409
G1 X18.293 Y34.696 E30.44212
G1 X18.097 Y34.403 E30.45795
G1 X17.173 Y32.674 E30.54597
G1 X17.038 Y32.348 E30.56182
G1 X16.469 Y30.472 E30.64984
G1 X16.401 Y30.126 E30.66567
G1 X16.209 Y28.176 E30.75365
G1 X16.209 Y27.824 E30.76946
G1 X16.401 Y25.873 E30.85749
G1 X16.469 Y25.527 E30.87332
G1 X17.038 Y23.651 E30.96134
G1 X17.173 Y23.325 E30.97719
G1 X18.097 Y21.596 E31.06521
G1 X18.293 Y21.303 E31.08104
G1 X19.536 Y19.787 E31.16906
G1 X19.787 Y19.536 E31.185
G1 X21.303 Y18.293 E31.27303
G1 X21.596 Y18.097 E31.28886
G1 X23.325 Y17.173 E31.37688
G1 X23.651 Y17.038 E31.39272
G1 X25.527 Y16.469 E31.48075
G1 X25.873 Y16.401 E31.49658
G1 X27.823 Y16.209 E31.58456
G1 X28.175 Y16.209 E31.60037
G1 X30.126 Y16.401 E31.68839
G1 X30.472 Y16.469 E31.70423
G1 X32.348 Y17.038 E31.79225
G1 X32.674 Y17.173 E31.80809
G1 X34.403 Y18.097 E31.89612
G1 X34.696 Y18.293 E31.91195
G1 X36.212 Y19.536 E31.99997
G1 X36.463 Y19.787 E32.01591
G1 X37.706 Y21.303 E32.10394
G1 X37.902 Y21.596 E32.11976
G1 X38.826 Y23.325 E32.20779
G1 X38.961 Y23.651 E32.22363
G0 F4800 X38.578 Y23.767
G1 F1080 X39.147 Y25.643 E32.31166
G1 X39.2 Y25.911 E32.32392
G1 X39.393 Y27.862 E32.41195
G1 X39.393 Y28.138 E32.42435
G1 X39.2 Y30.088 E32.51233
G1 X39.147 Y30.356 E32.5246
G1 X38.578 Y32.232 E32.61262
G1 X38.473 Y32.486 E32.62496
G1 X37.549 Y34.215 E32.71299
G1 X37.397 Y34.443 E32.72529
G1 X36.154 Y35.959 E32.81332
G1 X35.959 Y36.154 E32.8257
G1 X34.443 Y37.397 E32.91373
G1 X34.215 Y37.549 E32.92603
G1 X32.486 Y38.473 E33.01405
G1 X32.232 Y38.578 E33.02639
G1 X30.356 Y39.147 E33.11442
G1 X30.088 Y39.2 E33.12669
G1 X28.138 Y39.393 E33.21467
G1 X27.862 Y39.393 E33.22706
G1 X25.911 Y39.2 E33.31509
G1 X25.643 Y39.147 E33.32736
G1 X23.767 Y38.578 E33.41538
G1 X23.513 Y38.473 E33.42772
G1 X21.784 Y37.549 E33.51575
G1 X21.556 Y37.397 E33.52805
G1 X20.04 Y36.154 E33.61608
G1 X19.845 Y35.959 E33.62846
G1 X18.602 Y34.443 E33.71649
G1 X18.45 Y34.215 E33.72879
G1 X17.526 Y32.486 E33.81682
G1 X17.421 Y32.232 E33.82916
G1 X16.852 Y30.356 E33.91718
G1 X16.799 Y30.087 E33.92949
G1 X16.607 Y28.137 E34.01747
G1 X16.607 Y27.863 E34.02978
G1 X16.799 Y25.912 E34.1178
G1 X16.852 Y25.643 E34.13011
G1 X17.421 Y23.767 E34.21814
G1 X17.526 Y23.513 E34.23048
G1 X18.45 Y21.784 E34.3185
G1 X18.602 Y21.556 E34.3308
G1 X19.845 Y20.04 E34.41883
G1 X20.04 Y19.845 E34.43121
G1 X21.556 Y18.602 E34.51924
G1 X21.784 Y18.45 E34.53154
G1 X23.513 Y17.526 E34.61957
G1 X23.767 Y17.421 E34.63191
G1 X25.643 Y16.852 E34.71993
G1 X25.912 Y16.799 E34.73224
G1 X27.862 Y16.607 E34.82022
G1 X28.136 Y16.607 E34.83253
G1 X30.087 Y16.799 E34.92055
G1 X30.356 Y16.852 E34.93286
G1 X32.232 Y17.421 E35.02089
G1 X32.486 Y17.526 E35.03323
G1 X34.215 Y18.45 E35.12125
G1 X34.443 Y18.602 E35.13356
G1 X35.959 Y19.845 E35.22158
G1 X36.154 Y20.04 E35.23396
G1 X37.397 Y21.556 E35.32199
G1 X37.549 Y21.784 E35.33429
G1 X38.473 Y23.513 E35.42232
G1 X38.578 Y23.767 E35.43466
G0 F4800 X38.195 Y23.883
G1 F1080 X38.764 Y25.759 E35.52268
G1 X38.802 Y25.951 E35.53147
G1 X38.995 Y27.902 E35.6195
G1 X38.995 Y28.098 E35.6283
G1 X38.802 Y30.048 E35.71629
G1 X38.764 Y30.24 E35.72508
G1 X38.195 Y32.116 E35.8131
G1 X38.12 Y32.297 E35.8219
G1 X37.196 Y34.026 E35.90992
G1 X37.087 Y34.189 E35.91873
G1 X35.844 Y35.705 E36.00675
G1 X35.705 Y35.844 E36.01558
G1 X34.189 Y37.087 E36.10361
G1 X34.026 Y37.196 E36.11241
G1 X32.297 Y38.12 E36.20043
G1 X32.116 Y38.195 E36.20923
G1 X30.24 Y38.764 E36.29726
G1 X30.048 Y38.802 E36.30604
G1 X28.098 Y38.995 E36.39403
G1 X27.902 Y38.995 E36.40283
G1 X25.951 Y38.802 E36.49086
G1 X25.759 Y38.764 E36.49965
G1 X23.883 Y38.195 E36.58767
G1 X23.702 Y38.12 E36.59647
G1 X21.973 Y37.196 E36.68449
G1 X21.81 Y37.087 E36.6933
G1 X20.294 Y35.844 E36.78132
G1 X20.155 Y35.705 E36.79015
G1 X18.912 Y34.189 E36.87818
G1 X18.803 Y34.026 E36.88698
G1 X17.879 Y32.297 E36.97501
G1 X17.804 Y32.116 E36.9838
G1 X17.235 Y30.24 E37.07183
G1 X17.197 Y30.048 E37.08061
G1 X17.005 Y28.098 E37.1686
G1 X17.005 Y27.902 E37.1774
G1 X17.197 Y25.951 E37.26542
G1 X17.235 Y25.759 E37.27421
G1 X17.804 Y23.883 E37.36223
G1 X17.879 Y23.702 E37.37103
G1 X18.803 Y21.973 E37.45906
G1 X18.912 Y21.81 E37.46786
G1 X20.155 Y20.294 E37.55589
G1 X20.294 Y20.155 E37.56471
G1 X21.81 Y18.912 E37.65274
G1 X21.973 Y18.803 E37.66154
G1 X23.702 Y17.879 E37.74957
G1 X23.883 Y17.804 E37.75837
G1 X25.759 Y17.235 E37.84639
G1 X25.951 Y17.197 E37.85518
G1 X27.901 Y17.005 E37.94316
G1 X28.097 Y17.005 E37.95196
G1 X30.048 Y17.197 E38.03998
G1 X30.24 Y17.235 E38.04877
G1 X32.116 Y17.804 E38.1368
G1 X32.297 Y17.879 E38.14559
G1 X34.026 Y18.803 E38.23362
G1 X34.189 Y18.912 E38.24242
G1 X35.705 Y20.155 E38.33045
G1 X35.844 Y20.294 E38.33928
G1 X37.087 Y21.81 E38.4273
G1 X37.196 Y21.973 E38.43611
G1 X38.12 Y23.702 E38.52413
G1 X38.195 Y23.883 E38.53293
G0 F4800 X37.812 Y23.999
G1 F1080 X38.381 Y25.875 E38.62095
G1 X38.404 Y25.99 E38.62622
G1 X38.597 Y27.941 E38.71425
G1 X38.597 Y28.059 E38.71955
G1 X38.404 Y30.009 E38.80753
G1 X38.381 Y30.124 E38.8128
G1 X37.812 Y32 E38.90082
G1 X37.767 Y32.109 E38.90612
G1 X36.843 Y33.838 E38.99414
G1 X36.778 Y33.935 E38.99938
G1 X35.535 Y35.451 E39.08741
G1 X35.451 Y35.535 E39.09274
G1 X33.935 Y36.778 E39.18077
G1 X33.838 Y36.843 E39.18601
G1 X32.109 Y37.767 E39.27404
G1 X32 Y37.812 E39.27933
G1 X30.124 Y38.381 E39.36736
G1 X30.009 Y38.404 E39.37262
G1 X28.059 Y38.597 E39.46061
G1 X27.941 Y38.597 E39.4659
G1 X25.99 Y38.404 E39.55393
G1 X25.875 Y38.381 E39.5592
G1 X23.999 Y37.812 E39.64722
G1 X23.89 Y37.767 E39.65252
G1 X22.161 Y36.843 E39.74054
G1 X22.064 Y36.778 E39.74579
G1 X20.548 Y35.535 E39.83381
G1 X20.464 Y35.451 E39.83915
G1 X19.221 Y33.935 E39.92717
G1 X19.156 Y33.838 E39.93242
G1 X18.232 Y32.109 E40.02044
G1 X18.187 Y32 E40.02574
G1 X17.618 Y30.124 E40.11376
G1 X17.595 Y30.009 E40.11902
G1 X17.403 Y28.059 E40.20701
G1 X17.403 Y27.941 E40.2123
G1 X17.595 Y25.99 E40.30033
G1 X17.618 Y25.875 E40.3056
G1 X18.187 Y23.999 E40.39362
G1 X18.232 Y23.89 E40.39891
G1 X19.156 Y22.161 E40.48694
G1 X19.221 Y22.064 E40.49218
G1 X20.464 Y20.548 E40.58021
G1 X20.548 Y20.464 E40.58554
G1 X22.064 Y19.221 E40.67357
G1 X22.161 Y19.156 E40.67881
G1 X23.89 Y18.232 E40.76684
G1 X23.999 Y18.187 E40.77213
G1 X25.875 Y17.618 E40.86015
G1 X25.99 Y17.595 E40.86542
G1 X27.94 Y17.403 E40.9534
G1 X28.058 Y17.403 E40.9587
G1 X30.009 Y17.595 E41.04672
G1 X30.124 Y17.618 E41.05199
G1 X32 Y18.187 E41.14001
G1 X32.109 Y18.232 E41.14531
G1 X33.838 Y19.156 E41.23333
G1 X33.935 Y19.221 E41.23858
G1 X35.451 Y20.464 E41.3266
G1 X35.535 Y20.548 E41.33194
G1 X36.778 Y22.064 E41.41996
G1 X36.843 Y22.161 E41.42521
G1 X37.767 Y23.89 E41.51323
G1 X37.812 Y23.999 E41.51853
G0 F4800 X37.429 Y24.115
G1 F1080 X37.998 Y25.991 E41.60655
G1 X38.006 Y26.029 E41.60829
G1 X38.199 Y27.98 E41.69632
G1 X38.199 Y28.02 E41.69812
G1 X38.006 Y29.97 E41.7861
G1 X37.998 Y30.008 E41.78785
G1 X37.429 Y31.884 E41.87587
G1 X37.414 Y31.92 E41.87762
G1 X36.49 Y33.649 E41.96565
G1 X36.469 Y33.682 E41.9674
G1 X35.226 Y35.198 E42.05543
G1 X35.198 Y35.226 E42.05721
G1 X33.682 Y36.469 E42.14523
G1 X33.649 Y36.49 E42.14699
G1 X31.92 Y37.414 E42.23501
G1 X31.884 Y37.429 E42.23677
G1 X30.008 Y37.998 E42.32479
G1 X29.97 Y38.006 E42.32653
G1 X28.02 Y38.199 E42.41452
G1 X27.98 Y38.199 E42.41631
G1 X26.029 Y38.006 E42.50434
G1 X25.991 Y37.998 E42.50609
G1 X24.115 Y37.429 E42.59411
G1 X24.079 Y37.414 E42.59586
G1 X22.35 Y36.49 E42.68389
G1 X22.317 Y36.469 E42.68564
G1 X20.801 Y35.226 E42.77367
G1 X20.773 Y35.198 E42.77545
G1 X19.53 Y33.682 E42.86347
G1 X19.509 Y33.649 E42.86523
G1 X18.585 Y31.92 E42.95325
G1 X18.57 Y31.884 E42.95501
G1 X18.001 Y30.008 E43.04303
G1 X17.993 Y29.97 E43.04477
