;FLAVOR:Marlin
;TIME:3776
;Filament used: 2.93963m, 0m
;Layer height: 0.2
;MINX:3.2
;MINY:3.2
;MINZ:0.3
;MAXX:396.8
;MAXY:396.8
;MAXZ:0.8
;Generated with Cura_SteamEngine mb-master-20191116
T0
M140 S70
M105
M190 S70
M104 S220
M105
M109 S220
M82 ;absolute extrusion mode
;Sliced at: Tue 01-09-2020 21:06:00
G21 ;metric values
M107
G28
M420 S1
G90 ;absolute positioning
G92 E0; reset extruder distance
G1 X0 Y0 Z5 F5000 ;move nozzle up 5mm for safe homing
G29;ABL
M500
M82 ;set extruder to absolute mode
M107 ;start with the fan off
G1 X0 Y0 Z15.0 F5000 ;move the platform down 15mm
G92 E0 ;zero the extruded length
G1 F200 E3 ;extrude 3mm of feed stock
G1 F200 E0 ;Retract
G4 S2 ;Wait for material to fall
G1 F200 E3
G92 E0 ;zero the extruded length again
M117 Printing...
G92 E0
T0;WIPE
G91
G1 Z-0.5
G1 X -20 F3000
G1 X40
G1 X-20
G1 Z0.5
G90

G92 E0
G1 F2400 E-1
;LAYER_COUNT:1
;LAYER:0
M107
G1 F600 Z0.8
G0 F4800 X8.678 Y8.53 Z0.8
;TYPE:SKIRT
G1 F600 Z0.3
G1 F2400 E0.02495
G1 F1080 X8.987 Y8.31 E0.04198
G1 X9.334 Y8.158 E0.05899
G1 X9.875 Y8.075 E0.08356
G1 X48.875 Y8.075 E1.83471
G1 X49.252 Y8.115 E1.85173
G1 X49.612 Y8.233 E1.86874
G1 X49.939 Y8.423 E1.88572
G1 X50.22 Y8.678 E1.90276
G1 X50.44 Y8.987 E1.91979
G1 X50.592 Y9.334 E1.9368
G1 X50.675 Y9.875 E1.96138
G1 X50.675 Y48.875 E3.71252
G1 X50.635 Y49.252 E3.72955
G1 X50.517 Y49.612 E3.74656
G1 X50.327 Y49.939 E3.76354
G1 X50.072 Y50.22 E3.78058
G1 X49.763 Y50.44 E3.79761
G1 X49.416 Y50.592 E3.81462
G1 X48.875 Y50.675 E3.83919
G1 X9.875 Y50.675 E5.59034
G1 X9.498 Y50.635 E5.60736
G1 X9.138 Y50.517 E5.62437
G1 X8.811 Y50.327 E5.64136
G1 X8.53 Y50.072 E5.65839
G1 X8.31 Y49.763 E5.67543
G1 X8.158 Y49.416 E5.69244
G1 X8.075 Y48.875 E5.71701
G1 X8.075 Y9.875 E7.46816
G1 X8.115 Y9.498 E7.48518
G1 X8.233 Y9.138 E7.50219
G1 X8.423 Y8.811 E7.51917
G1 X8.678 Y8.53 E7.53621
G0 F4800 X9.068 Y8.731
G1 F1080 X9.362 Y8.572 E7.55122
G1 X9.686 Y8.488 E7.56625
G1 X9.875 Y8.475 E7.57475
G1 X48.875 Y8.475 E9.3259
G1 X49.207 Y8.515 E9.34091
G1 X49.519 Y8.632 E9.35588
G1 X49.796 Y8.82 E9.37091
G1 X50.019 Y9.068 E9.38588
G1 X50.178 Y9.362 E9.40089
G1 X50.262 Y9.686 E9.41592
G1 X50.275 Y9.875 E9.42443
G1 X50.275 Y48.875 E11.17557
G1 X50.235 Y49.207 E11.19059
G1 X50.118 Y49.519 E11.20555
G1 X49.93 Y49.796 E11.22058
G1 X49.682 Y50.019 E11.23556
G1 X49.388 Y50.178 E11.25056
G1 X49.064 Y50.262 E11.26559
G1 X48.875 Y50.275 E11.2741
G1 X9.875 Y50.275 E13.02525
G1 X9.543 Y50.235 E13.04026
G1 X9.231 Y50.118 E13.05522
G1 X8.954 Y49.93 E13.07025
G1 X8.731 Y49.682 E13.08523
G1 X8.572 Y49.388 E13.10024
G1 X8.488 Y49.064 E13.11527
G1 X8.475 Y48.875 E13.12377
G1 X8.475 Y9.875 E14.87492
G1 X8.515 Y9.543 E14.88993
G1 X8.632 Y9.231 E14.9049
G1 X8.82 Y8.954 E14.91993
G1 X9.068 Y8.731 E14.9349
G0 F4800 X9.214 Y9.124
G1 F1080 X9.45 Y8.97 E14.94756
G1 X9.72 Y8.887 E14.96024
G1 X9.875 Y8.875 E14.96722
G1 X48.875 Y8.875 E16.71837
G1 X49.154 Y8.915 E16.73102
G1 X49.411 Y9.031 E16.74368
G1 X49.626 Y9.214 E16.75636
G1 X49.78 Y9.45 E16.76901
G1 X49.863 Y9.72 E16.78169
G1 X49.875 Y9.875 E16.78868
G1 X49.875 Y48.875 E18.53982
G1 X49.835 Y49.154 E18.55248
G1 X49.719 Y49.411 E18.56514
G1 X49.536 Y49.626 E18.57781
G1 X49.3 Y49.78 E18.59047
G1 X49.03 Y49.863 E18.60315
G1 X48.875 Y49.875 E18.61013
G1 X9.875 Y49.875 E20.36128
G1 X9.596 Y49.835 E20.37393
G1 X9.339 Y49.719 E20.38659
G1 X9.124 Y49.536 E20.39927
G1 X8.97 Y49.3 E20.41192
G1 X8.887 Y49.03 E20.42461
G1 X8.875 Y48.875 E20.43159
G1 X8.875 Y9.875 E22.18273
G1 X8.915 Y9.596 E22.19539
G1 X9.031 Y9.339 E22.20805
G1 X9.214 Y9.124 E22.22073
G0 F4800 X9.428 Y9.474
G1 F1080 X9.601 Y9.341 E22.23053
G1 X9.875 Y9.275 E22.24318
G1 X48.875 Y9.275 E23.99433
G1 X49.09 Y9.315 E24.00415
G1 X49.276 Y9.428 E24.01392
G1 X49.409 Y9.601 E24.02372
G1 X49.475 Y9.875 E24.03637
G1 X49.475 Y48.875 E25.78752
G1 X49.435 Y49.09 E25.79734
G1 X49.322 Y49.276 E25.80711
G1 X49.149 Y49.409 E25.81691
G1 X48.875 Y49.475 E25.82956
G1 X9.875 Y49.475 E27.58071
G1 X9.66 Y49.435 E27.59053
G1 X9.474 Y49.322 E27.6003
G1 X9.341 Y49.149 E27.6101
G1 X9.275 Y48.875 E27.62275
G1 X9.275 Y9.875 E29.3739
G1 X9.315 Y9.66 E29.38372
G1 X9.428 Y9.474 E29.39349
G0 F4800 X9.714 Y9.756
G1 F1080 X9.875 Y9.675 E29.40158
G1 X48.875 Y9.675 E31.15273
G1 X48.994 Y9.714 E31.15835
G1 X49.075 Y9.875 E31.16644
G1 X49.075 Y48.875 E32.91759
G1 X49.036 Y48.994 E32.92321
G1 X48.875 Y49.075 E32.93131
G1 X9.875 Y49.075 E34.68245
G1 X9.756 Y49.036 E34.68807
G1 X9.675 Y48.875 E34.69617
G1 X9.675 Y9.875 E36.44731
G1 X9.714 Y9.756 E36.45294
G1 F2400 E35.45294
G1 F600 Z0.8
G0 F4800 X8.019 Y8.019 Z0.8
G1 F600 Z0.3
G1 F2400 E36.47788
G1 F1080 X8.019 Y50.731 E38.3957
G1 X50.731 Y50.731 E40.31352
G1 X50.731 Y8.019 E42.23134
G1 X8.019 Y8.019 E44.14916
G0 F4800 X7.619 Y7.619
G1 F1080 X7.619 Y51.131 E46.1029
G1 X51.131 Y51.131 E48.05664
G1 X51.131 Y7.619 E50.01038
G1 X7.619 Y7.619 E51.96412
G0 F4800 X7.219 Y7.219
G1 F1080 X7.219 Y51.531 E53.95378
G1 X51.531 Y51.531 E55.94344
G1 X51.531 Y7.219 E57.9331
G1 X7.219 Y7.219 E59.92276
G0 F4800 X6.819 Y6.819
G1 F1080 X6.819 Y51.931 E61.94835
G1 X51.931 Y51.931 E63.97393
G1 X51.931 Y6.819 E65.99951
G1 X6.819 Y6.819 E68.02509
G0 F4800 X6.419 Y6.419
G1 F1080 X6.419 Y52.331 E70.0866
G1 X52.331 Y52.331 E72.1481
G1 X52.331 Y6.419 E74.2096
G1 X6.419 Y6.419 E76.2711
G1 F2400 E75.2711
G1 F600 Z0.8
G0 F4800 X5 Y4.8 Z0.8
G1 F600 Z0.3
G1 F2400 E76.29605
G1 F1080 X53.75 Y4.8 E78.48498
G1 X53.869 Y4.839 E78.49061
G1 X53.95 Y5 E78.4987
G1 X53.95 Y53.75 E80.68763
G1 X53.911 Y53.869 E80.69325
G1 X53.75 Y53.95 E80.70135
G1 X5 Y53.95 E82.89028
G1 X4.881 Y53.911 E82.8959
G1 X4.8 Y53.75 E82.90399
G1 X4.8 Y5 E85.09293
G1 X4.839 Y4.881 E85.09855
G1 X5 Y4.8 E85.10664
G0 F4800 X5 Y4.4
G1 F1080 X53.75 Y4.4 E87.29557
G1 X53.965 Y4.44 E87.30539
G1 X54.151 Y4.553 E87.31517
G1 X54.284 Y4.726 E87.32496
G1 X54.35 Y5 E87.33762
G1 X54.35 Y53.75 E89.52655
G1 X54.31 Y53.965 E89.53637
G1 X54.197 Y54.151 E89.54614
G1 X54.024 Y54.284 E89.55594
G1 X53.75 Y54.35 E89.5686
G1 X5 Y54.35 E91.75753
G1 X4.785 Y54.31 E91.76735
G1 X4.599 Y54.197 E91.77712
G1 X4.466 Y54.024 E91.78692
G1 X4.4 Y53.75 E91.79957
G1 X4.4 Y5 E93.98851
G1 X4.44 Y4.785 E93.99832
G1 X4.553 Y4.599 E94.0081
G1 X4.726 Y4.466 E94.01789
G1 X5 Y4.4 E94.03055
G0 F4800 X5 Y4
G1 F1080 X53.75 Y4 E96.21948
G1 X54.029 Y4.04 E96.23214
G1 X54.286 Y4.156 E96.2448
G1 X54.501 Y4.339 E96.25748
G1 X54.655 Y4.575 E96.27013
G1 X54.738 Y4.845 E96.28281
G1 X54.75 Y5 E96.28979
G1 X54.75 Y53.75 E98.47873
G1 X54.71 Y54.029 E98.49138
G1 X54.594 Y54.286 E98.50404
G1 X54.411 Y54.501 E98.51672
G1 X54.175 Y54.655 E98.52937
G1 X53.905 Y54.738 E98.54206
G1 X53.75 Y54.75 E98.54904
G1 X5 Y54.75 E100.73797
G1 X4.721 Y54.71 E100.75062
G1 X4.464 Y54.594 E100.76328
G1 X4.249 Y54.411 E100.77596
G1 X4.095 Y54.175 E100.78861
G1 X4.012 Y53.905 E100.8013
G1 X4 Y53.75 E100.80828
G1 X4 Y5 E102.99721
G1 X4.04 Y4.721 E103.00987
G1 X4.156 Y4.464 E103.02253
G1 X4.339 Y4.249 E103.0352
G1 X4.575 Y4.095 E103.04786
G1 X4.845 Y4.012 E103.06054
G1 X5 Y4 E103.06752
G0 F4800 X5 Y3.6
G1 F1080 X53.75 Y3.6 E105.25645
G1 X54.082 Y3.64 E105.27147
G1 X54.394 Y3.757 E105.28643
G1 X54.671 Y3.945 E105.30146
G1 X54.894 Y4.193 E105.31644
G1 X55.053 Y4.487 E105.33145
G1 X55.137 Y4.811 E105.34647
G1 X55.15 Y5 E105.35498
G1 X55.15 Y53.75 E107.54391
G1 X55.11 Y54.082 E107.55893
G1 X54.993 Y54.394 E107.57389
G1 X54.805 Y54.671 E107.58892
G1 X54.557 Y54.894 E107.6039
G1 X54.263 Y55.053 E107.61891
G1 X53.939 Y55.137 E107.63393
G1 X53.75 Y55.15 E107.64244
G1 X5 Y55.15 E109.83137
G1 X4.668 Y55.11 E109.84639
G1 X4.356 Y54.993 E109.86135
G1 X4.079 Y54.805 E109.87638
G1 X3.856 Y54.557 E109.89136
G1 X3.697 Y54.263 E109.90636
G1 X3.613 Y53.939 E109.92139
G1 X3.6 Y53.75 E109.9299
G1 X3.6 Y5 E112.11883
G1 X3.64 Y4.668 E112.13385
G1 X3.757 Y4.356 E112.14881
G1 X3.945 Y4.079 E112.16384
G1 X4.193 Y3.856 E112.17882
G1 X4.487 Y3.697 E112.19382
G1 X4.811 Y3.613 E112.20885
G1 X5 Y3.6 E112.21736
G0 F4800 X5 Y3.2
G1 F1080 X53.75 Y3.2 E114.40629
G1 X54.127 Y3.24 E114.42332
G1 X54.487 Y3.358 E114.44033
G1 X54.814 Y3.548 E114.45731
G1 X55.095 Y3.803 E114.47434
G1 X55.315 Y4.112 E114.49138
G1 X55.467 Y4.459 E114.50839
G1 X55.55 Y5 E114.53296
G1 X55.55 Y53.75 E116.7219
G1 X55.51 Y54.127 E116.73892
G1 X55.392 Y54.487 E116.75593
G1 X55.202 Y54.814 E116.77291
G1 X54.947 Y55.095 E116.78995
G1 X54.638 Y55.315 E116.80698
G1 X54.291 Y55.467 E116.82399
G1 X53.75 Y55.55 E116.84857
G1 X5 Y55.55 E119.0375
G1 X4.623 Y55.51 E119.05452
G1 X4.263 Y55.392 E119.07153
G1 X3.936 Y55.202 E119.08851
G1 X3.655 Y54.947 E119.10555
G1 X3.435 Y54.638 E119.12258
G1 X3.283 Y54.291 E119.13959
G1 X3.2 Y53.75 E119.16417
G1 X3.2 Y5 E121.3531
G1 X3.24 Y4.623 E121.37012
G1 X3.358 Y4.263 E121.38713
G1 X3.548 Y3.936 E121.40412
G1 X3.803 Y3.655 E121.42115
G1 X4.112 Y3.435 E121.43818
G1 X4.459 Y3.283 E121.45519
G1 X5 Y3.2 E121.47977
G1 F2400 E120.47977
G1 F600 Z0.8
G0 F4800 X173.825 Y5 Z0.8
G1 F600 Z0.3
G1 F2400 E121.50472
G1 F1080 X173.865 Y4.623 E121.52174
G1 X173.983 Y4.263 E121.53875
G1 X174.173 Y3.936 E121.55573
G1 X174.428 Y3.655 E121.57277
G1 X174.737 Y3.435 E121.5898
G1 X175.084 Y3.283 E121.60681
G1 X175.625 Y3.2 E121.63139
G1 X224.375 Y3.2 E123.82032
G1 X224.752 Y3.24 E123.83734
G1 X225.112 Y3.358 E123.85435
G1 X225.439 Y3.548 E123.87133
G1 X225.72 Y3.803 E123.88837
G1 X225.94 Y4.112 E123.9054
G1 X226.092 Y4.459 E123.92241
G1 X226.175 Y5 E123.94699
G1 X226.175 Y53.75 E126.13592
G1 X226.135 Y54.127 E126.15294
G1 X226.017 Y54.487 E126.16995
G1 X225.827 Y54.814 E126.18694
G1 X225.572 Y55.095 E126.20397
G1 X225.263 Y55.315 E126.22101
G1 X224.916 Y55.467 E126.23802
G1 X224.375 Y55.55 E126.26259
G1 X175.625 Y55.55 E128.45152
G1 X175.248 Y55.51 E128.46855
G1 X174.888 Y55.392 E128.48556
G1 X174.561 Y55.202 E128.50254
G1 X174.28 Y54.947 E128.51958
G1 X174.06 Y54.638 E128.53661
G1 X173.908 Y54.291 E128.55362
G1 X173.825 Y53.75 E128.57819
G1 X173.825 Y5 E130.76713
G0 F4800 X174.225 Y5
G1 F1080 X174.265 Y4.668 E130.78214
G1 X174.382 Y4.356 E130.7971
G1 X174.57 Y4.079 E130.81214
G1 X174.818 Y3.856 E130.82711
G1 X175.112 Y3.697 E130.84212
G1 X175.436 Y3.613 E130.85715
G1 X175.625 Y3.6 E130.86565
G1 X224.375 Y3.6 E133.05459
G1 X224.707 Y3.64 E133.0696
G1 X225.019 Y3.757 E133.08456
G1 X225.296 Y3.945 E133.09959
G1 X225.519 Y4.193 E133.11457
G1 X225.678 Y4.487 E133.12958
G1 X225.762 Y4.811 E133.14461
G1 X225.775 Y5 E133.15311
G1 X225.775 Y53.75 E135.34205
G1 X225.735 Y54.082 E135.35706
G1 X225.618 Y54.394 E135.37202
G1 X225.43 Y54.671 E135.38705
G1 X225.182 Y54.894 E135.40203
G1 X224.888 Y55.053 E135.41704
G1 X224.564 Y55.137 E135.43207
G1 X224.375 Y55.15 E135.44057
G1 X175.625 Y55.15 E137.62951
G1 X175.293 Y55.11 E137.64452
G1 X174.981 Y54.993 E137.65948
G1 X174.704 Y54.805 E137.67451
G1 X174.481 Y54.557 E137.68949
G1 X174.322 Y54.263 E137.7045
G1 X174.238 Y53.939 E137.71953
G1 X174.225 Y53.75 E137.72803
G1 X174.225 Y5 E139.91696
G0 F4800 X174.625 Y5
G1 F1080 X174.665 Y4.721 E139.92962
G1 X174.781 Y4.464 E139.94228
G1 X174.964 Y4.249 E139.95496
G1 X175.2 Y4.095 E139.96761
G1 X175.47 Y4.012 E139.98029
G1 X175.625 Y4 E139.98728
G1 X224.375 Y4 E142.17621
G1 X224.654 Y4.04 E142.18886
G1 X224.911 Y4.156 E142.20152
G1 X225.126 Y4.339 E142.2142
G1 X225.28 Y4.575 E142.22685
G1 X225.363 Y4.845 E142.23954
G1 X225.375 Y5 E142.24652
G1 X225.375 Y53.75 E144.43545
G1 X225.335 Y54.029 E144.44811
G1 X225.219 Y54.286 E144.46077
G1 X225.036 Y54.501 E144.47344
G1 X224.8 Y54.655 E144.4861
G1 X224.53 Y54.738 E144.49878
G1 X224.375 Y54.75 E144.50576
G1 X175.625 Y54.75 E146.69469
G1 X175.346 Y54.71 E146.70735
G1 X175.089 Y54.594 E146.72001
G1 X174.874 Y54.411 E146.73269
G1 X174.72 Y54.175 E146.74534
G1 X174.637 Y53.905 E146.75802
G1 X174.625 Y53.75 E146.765
G1 X174.625 Y5 E148.95394
G0 F4800 X175.025 Y5
G1 F1080 X175.065 Y4.785 E148.96376
G1 X175.178 Y4.599 E148.97353
G1 X175.351 Y4.466 E148.98333
G1 X175.625 Y4.4 E148.99598
G1 X224.375 Y4.4 E151.18491
G1 X224.59 Y4.44 E151.19473
G1 X224.776 Y4.553 E151.20451
G1 X224.909 Y4.726 E151.2143
G1 X224.975 Y5 E151.22696
G1 X224.975 Y53.75 E153.41589
G1 X224.935 Y53.965 E153.42571
G1 X224.822 Y54.151 E153.43548
G1 X224.649 Y54.284 E153.44528
G1 X224.375 Y54.35 E153.45794
G1 X175.625 Y54.35 E155.64687
G1 X175.41 Y54.31 E155.65669
G1 X175.224 Y54.197 E155.66646
G1 X175.091 Y54.024 E155.67626
G1 X175.025 Y53.75 E155.68891
G1 X175.025 Y5 E157.87784
G0 F4800 X175.425 Y5
G1 F1080 X175.464 Y4.881 E157.88347
G1 X175.625 Y4.8 E157.89156
G1 X224.375 Y4.8 E160.08049
G1 X224.494 Y4.839 E160.08612
G1 X224.575 Y5 E160.09421
G1 X224.575 Y53.75 E162.28314
G1 X224.536 Y53.869 E162.28876
G1 X224.375 Y53.95 E162.29686
G1 X175.625 Y53.95 E164.48579
G1 X175.506 Y53.911 E164.49141
G1 X175.425 Y53.75 E164.4995
G1 X175.425 Y5 E166.68844
G1 F2400 E165.68844
G1 F600 Z0.8
G0 F4800 X177.044 Y6.419 Z0.8
G1 F600 Z0.3
G1 F2400 E166.71338
G1 F1080 X177.044 Y52.331 E168.77488
G1 X222.956 Y52.331 E170.83639
G1 X222.956 Y6.419 E172.89789
G1 X177.044 Y6.419 E174.95939
G0 F4800 X177.444 Y6.819
G1 F1080 X177.444 Y51.931 E176.98498
G1 X222.556 Y51.931 E179.01056
G1 X222.556 Y6.819 E181.03614
G1 X177.444 Y6.819 E183.06172
G0 F4800 X177.844 Y7.219
G1 F1080 X177.844 Y51.531 E185.05138
G1 X222.156 Y51.531 E187.04105
G1 X222.156 Y7.219 E189.03071
G1 X177.844 Y7.219 E191.02037
G0 F4800 X178.244 Y7.619
G1 F1080 X178.244 Y51.131 E192.97411
G1 X221.756 Y51.131 E194.92785
G1 X221.756 Y7.619 E196.88159
G1 X178.244 Y7.619 E198.83533
G0 F4800 X178.644 Y8.019
G1 F1080 X178.644 Y50.731 E200.75315
G1 X221.356 Y50.731 E202.67097
G1 X221.356 Y8.019 E204.58879
G1 X178.644 Y8.019 E206.50661
G1 F2400 E205.50661
G1 F600 Z0.8
G0 F4800 X178.7 Y9.875 Z0.8
G1 F600 Z0.3
G1 F2400 E206.53155
G1 F1080 X178.74 Y9.498 E206.54857
G1 X178.858 Y9.138 E206.56558
G1 X179.048 Y8.811 E206.58257
G1 X179.303 Y8.53 E206.5996
G1 X179.612 Y8.31 E206.61664
G1 X179.959 Y8.158 E206.63365
G1 X180.5 Y8.075 E206.65822
G1 X219.5 Y8.075 E208.40937
G1 X219.877 Y8.115 E208.42639
G1 X220.237 Y8.233 E208.4434
G1 X220.564 Y8.423 E208.46038
G1 X220.845 Y8.678 E208.47742
G1 X221.065 Y8.987 E208.49445
G1 X221.217 Y9.334 E208.51146
G1 X221.3 Y9.875 E208.53604
G1 X221.3 Y48.875 E210.28718
G1 X221.26 Y49.252 E210.30421
G1 X221.142 Y49.612 E210.32122
G1 X220.952 Y49.939 E210.3382
G1 X220.697 Y50.22 E210.35524
G1 X220.388 Y50.44 E210.37227
G1 X220.041 Y50.592 E210.38928
G1 X219.5 Y50.675 E210.41385
G1 X180.5 Y50.675 E212.165
G1 X180.123 Y50.635 E212.18202
G1 X179.763 Y50.517 E212.19903
G1 X179.436 Y50.327 E212.21601
G1 X179.155 Y50.072 E212.23305
G1 X178.935 Y49.763 E212.25008
G1 X178.783 Y49.416 E212.26709
G1 X178.7 Y48.875 E212.29167
G1 X178.7 Y9.875 E214.04282
G0 F4800 X179.1 Y9.875
G1 F1080 X179.14 Y9.543 E214.05783
G1 X179.257 Y9.231 E214.07279
G1 X179.445 Y8.954 E214.08782
G1 X179.693 Y8.731 E214.1028
G1 X179.987 Y8.572 E214.11781
G1 X180.311 Y8.488 E214.13284
G1 X180.5 Y8.475 E214.14134
G1 X219.5 Y8.475 E215.89249
G1 X219.832 Y8.515 E215.9075
G1 X220.144 Y8.632 E215.92247
G1 X220.421 Y8.82 E215.9375
G1 X220.644 Y9.068 E215.95247
G1 X220.803 Y9.362 E215.96748
G1 X220.887 Y9.686 E215.98251
G1 X220.9 Y9.875 E215.99102
G1 X220.9 Y48.875 E217.74216
G1 X220.86 Y49.207 E217.75718
G1 X220.743 Y49.519 E217.77214
G1 X220.555 Y49.796 E217.78717
G1 X220.307 Y50.019 E217.80215
G1 X220.013 Y50.178 E217.81715
G1 X219.689 Y50.262 E217.83218
G1 X219.5 Y50.275 E217.84069
G1 X180.5 Y50.275 E219.59183
G1 X180.168 Y50.235 E219.60685
G1 X179.856 Y50.118 E219.62181
G1 X179.579 Y49.93 E219.63684
G1 X179.356 Y49.682 E219.65182
G1 X179.197 Y49.388 E219.66683
G1 X179.113 Y49.064 E219.68186
G1 X179.1 Y48.875 E219.69036
G1 X179.1 Y9.875 E221.44151
G0 F4800 X179.5 Y9.875
G1 F1080 X179.54 Y9.596 E221.45416
G1 X179.656 Y9.339 E221.46682
G1 X179.839 Y9.124 E221.4795
G1 X180.075 Y8.97 E221.49215
G1 X180.345 Y8.887 E221.50484
G1 X180.5 Y8.875 E221.51182
G1 X219.5 Y8.875 E223.26296
G1 X219.779 Y8.915 E223.27562
G1 X220.036 Y9.031 E223.28828
G1 X220.251 Y9.214 E223.30096
G1 X220.405 Y9.45 E223.31361
G1 X220.488 Y9.72 E223.32629
G1 X220.5 Y9.875 E223.33327
G1 X220.5 Y48.875 E225.08442
G1 X220.46 Y49.154 E225.09708
