;FLAVOR:Marlin
;TIME:547
;Filament used: 0.59698m, 0.156667m
;Layer height: 0.3
;MINX:13.221
;MINY:13.221
;MINZ:0.3
;MAXX:83.202
;MAXY:53.374
;MAXZ:2.9
;Generated with Cura_SteamEngine mb-master-20191116
T0
M140 S70
M105
M190 S70
M104 S220
M104 T1 S175
M105
M109 S220
M105
M109 T1 S175
M82 ;absolute extrusion mode
;Sliced at: Tue 01-09-2020 21:02:51
G21 ;metric values
M107
G28
M420 S1
G90 ;absolute positioning
G92 E0; reset extruder distance
G1 X0 Y0 Z5 F5000 ;move nozzle up 5mm for safe homing
G29;ABL
M500
M82 ;set extruder to absolute mode
M107 ;start with the fan off
G1 X0 Y0 Z15.0 F5000 ;move the platform down 15mm
G92 E0 ;zero the extruded length
G1 F200 E3 ;extrude 3mm of feed stock
G1 F200 E0 ;Retract
G4 S2 ;Wait for material to fall
G1 F200 E3
G92 E0 ;zero the extruded length again
M117 Printing...
G92 E0
T0;WIPE
G91
G1 Z-0.5
G1 X -20 F3000
G1 X40
G1 X-20
G1 Z0.5
G90

G92 E0
G1 F2400 E-1
;LAYER_COUNT:8
;LAYER:0
M107
G1 F600 Z0.8
G0 F4800 X48.242 Y20.078 Z0.8
;TYPE:SKIRT
G1 F600 Z0.3
G1 F2400 E0.02495
G1 F1080 X48.447 Y19.699 E0.05397
G1 X48.667 Y19.377 E0.08023
G1 X48.93 Y19.063 E0.10782
G1 X49.246 Y18.808 E0.13517
G1 X49.571 Y18.594 E0.16138
G1 X49.933 Y18.403 E0.18894
G1 X50.323 Y18.287 E0.21635
G1 X50.701 Y18.213 E0.24229
G1 X51.104 Y18.174 E0.26956
G1 X80.1 Y18.174 E2.22249
G1 X80.515 Y18.215 E2.25058
G1 X80.907 Y18.294 E2.27751
G1 X81.298 Y18.414 E2.30506
G1 X81.677 Y18.619 E2.33408
G1 X81.999 Y18.839 E2.36034
G1 X82.313 Y19.102 E2.38793
G1 X82.566 Y19.416 E2.41509
G1 X82.78 Y19.74 E2.44124
G1 X82.972 Y20.102 E2.46884
G1 X83.089 Y20.495 E2.49646
G1 X83.163 Y20.874 E2.52247
G1 X83.202 Y21.276 E2.54967
G1 X83.202 Y50.272 E4.5026
G1 X83.16 Y50.688 E4.53076
G1 X83.081 Y51.079 E4.55763
G1 X82.962 Y51.47 E4.58516
G1 X82.759 Y51.845 E4.61388
G1 X82.539 Y52.168 E4.6402
G1 X82.276 Y52.482 E4.66778
G1 X81.96 Y52.738 E4.69518
G1 X81.636 Y52.952 E4.72133
G1 X81.274 Y53.144 E4.74893
G1 X80.881 Y53.261 E4.77654
G1 X80.502 Y53.335 E4.80255
G1 X80.1 Y53.374 E4.82975
G1 X51.104 Y53.374 E6.78269
G1 X50.688 Y53.332 E6.81085
G1 X50.297 Y53.253 E6.83771
G1 X49.906 Y53.134 E6.86524
G1 X49.531 Y52.931 E6.89396
G1 X49.208 Y52.711 E6.92028
G1 X48.894 Y52.448 E6.94787
G1 X48.636 Y52.13 E6.97545
G1 X48.422 Y51.805 E7.00166
G1 X48.231 Y51.443 E7.02923
G1 X48.115 Y51.053 E7.05663
G1 X48.041 Y50.675 E7.08257
G1 X48.002 Y50.272 E7.10984
G1 X48.002 Y21.276 E9.06277
G1 X48.043 Y20.861 E9.09086
G1 X48.122 Y20.469 E9.11779
G1 X48.242 Y20.078 E9.14534
G0 F4800 X48.818 Y20.259
G1 F1080 X48.942 Y20.038 E9.16241
G1 X49.162 Y19.716 E9.18867
G1 X49.389 Y19.455 E9.21197
G1 X49.576 Y19.309 E9.22795
G1 X49.901 Y19.095 E9.25416
G1 X50.21 Y18.94 E9.27744
G1 X50.438 Y18.876 E9.29339
G1 X50.816 Y18.802 E9.31933
G1 X51.104 Y18.774 E9.33882
G1 X80.1 Y18.774 E11.29175
G1 X80.396 Y18.804 E11.31179
G1 X80.788 Y18.883 E11.33873
G1 X81.117 Y18.99 E11.36203
G1 X81.338 Y19.114 E11.37909
G1 X81.66 Y19.334 E11.40536
G1 X81.921 Y19.561 E11.42866
G1 X82.066 Y19.746 E11.44449
G1 X82.28 Y20.07 E11.47064
G1 X82.436 Y20.379 E11.49395
G1 X82.5 Y20.61 E11.5101
G1 X82.574 Y20.989 E11.53611
G1 X82.602 Y21.276 E11.55553
G1 X82.602 Y50.272 E13.50846
G1 X82.572 Y50.569 E13.52857
G1 X82.493 Y50.96 E13.55543
G1 X82.386 Y51.289 E13.57873
G1 X82.263 Y51.507 E13.59559
G1 X82.043 Y51.83 E13.62191
G1 X81.816 Y52.092 E13.64526
G1 X81.63 Y52.238 E13.66119
G1 X81.306 Y52.452 E13.68734
G1 X80.997 Y52.608 E13.71065
G1 X80.766 Y52.672 E13.7268
G1 X80.387 Y52.746 E13.75281
G1 X80.1 Y52.774 E13.77223
G1 X51.104 Y52.774 E15.72516
G1 X50.807 Y52.744 E15.74527
G1 X50.416 Y52.665 E15.77213
G1 X50.087 Y52.558 E15.79543
G1 X49.869 Y52.435 E15.81229
G1 X49.546 Y52.215 E15.83861
G1 X49.284 Y51.988 E15.86196
G1 X49.137 Y51.8 E15.87803
G1 X48.923 Y51.475 E15.90424
G1 X48.768 Y51.166 E15.92753
G1 X48.704 Y50.938 E15.94348
G1 X48.63 Y50.56 E15.96942
G1 X48.602 Y50.272 E15.98891
G1 X48.602 Y21.276 E17.94184
G1 X48.632 Y20.98 E17.96188
G1 X48.711 Y20.588 E17.98881
G1 X48.818 Y20.259 E18.01211
G0 F4800 X49.299 Y20.706
G1 F1080 X49.438 Y20.376 E18.03623
G1 X49.658 Y20.054 E18.06249
G1 X49.906 Y19.81 E18.08593
G1 X50.231 Y19.596 E18.11214
G1 X50.553 Y19.465 E18.13555
G1 X50.931 Y19.391 E18.16149
G1 X51.104 Y19.374 E18.1732
G1 X80.1 Y19.374 E20.12613
G1 X80.278 Y19.392 E20.13818
G1 X80.67 Y19.471 E20.16511
G1 X81 Y19.61 E20.18923
G1 X81.322 Y19.83 E20.2155
G1 X81.565 Y20.077 E20.23883
G1 X81.779 Y20.401 E20.26499
G1 X81.911 Y20.725 E20.28855
G1 X81.985 Y21.104 E20.31456
G1 X82.002 Y21.276 E20.3262
G1 X82.002 Y50.272 E22.27913
G1 X81.984 Y50.45 E22.29118
G1 X81.905 Y50.841 E22.31805
G1 X81.767 Y51.17 E22.34208
G1 X81.547 Y51.493 E22.3684
G1 X81.299 Y51.737 E22.39183
G1 X80.975 Y51.951 E22.41798
G1 X80.651 Y52.083 E22.44155
G1 X80.272 Y52.157 E22.46755
G1 X80.1 Y52.174 E22.47919
G1 X51.104 Y52.174 E24.43213
G1 X50.926 Y52.156 E24.44418
G1 X50.535 Y52.077 E24.47104
G1 X50.206 Y51.939 E24.49507
G1 X49.883 Y51.719 E24.52139
G1 X49.638 Y51.47 E24.54492
G1 X49.424 Y51.145 E24.57113
G1 X49.293 Y50.823 E24.59454
G1 X49.219 Y50.445 E24.62049
G1 X49.202 Y50.272 E24.63219
G1 X49.202 Y21.276 E26.58513
G1 X49.22 Y21.098 E26.59717
G1 X49.299 Y20.706 E26.62411
G0 F4800 X49.887 Y20.825
G1 F1080 X49.933 Y20.715 E26.63214
G1 X50.153 Y20.393 E26.6584
G1 X50.236 Y20.311 E26.66626
G1 X50.561 Y20.097 E26.69247
G1 X50.668 Y20.054 E26.70024
G1 X51.046 Y19.98 E26.72618
G1 X51.104 Y19.974 E26.73011
G1 X80.1 Y19.974 E28.68304
G1 X80.159 Y19.98 E28.68703
G1 X80.551 Y20.059 E28.71397
G1 X80.661 Y20.105 E28.722
G1 X80.983 Y20.325 E28.74826
G1 X81.064 Y20.408 E28.75607
G1 X81.278 Y20.732 E28.78223
G1 X81.322 Y20.84 E28.79008
G1 X81.396 Y21.219 E28.81609
G1 X81.402 Y21.276 E28.81995
G1 X81.402 Y50.272 E30.77288
G1 X81.396 Y50.331 E30.77687
G1 X81.317 Y50.722 E30.80374
G1 X81.271 Y50.832 E30.81177
G1 X81.051 Y51.155 E30.83809
G1 X80.968 Y51.236 E30.8459
G1 X80.644 Y51.45 E30.87206
G1 X80.536 Y51.494 E30.87991
G1 X80.157 Y51.568 E30.90592
G1 X80.1 Y51.574 E30.90978
G1 X51.104 Y51.574 E32.86271
G1 X51.045 Y51.568 E32.86671
G1 X50.654 Y51.489 E32.89357
G1 X50.544 Y51.443 E32.9016
G1 X50.221 Y51.223 E32.92792
G1 X50.139 Y51.14 E32.93578
G1 X49.925 Y50.815 E32.96199
G1 X49.882 Y50.708 E32.96976
G1 X49.808 Y50.33 E32.9957
G1 X49.802 Y50.272 E32.99963
G1 X49.802 Y21.276 E34.95256
G1 X49.808 Y21.217 E34.95655
G1 X49.887 Y20.825 E34.98349
G1 F2400 E33.98349
G1 F600 Z0.8
G0 F4800 X38.848 Y23.163 Z0.8
G1 F600 Z0.3
G1 F2400 E35.00843
G1 F1080 X39.417 Y25.039 E35.14047
G1 X39.497 Y25.442 E35.16814
G1 X39.69 Y27.393 E35.30018
G1 X39.69 Y27.807 E35.32807
G1 X39.497 Y29.757 E35.46005
G1 X39.417 Y30.16 E35.48772
G1 X38.848 Y32.036 E35.61975
G1 X38.69 Y32.416 E35.64747
G1 X37.766 Y34.145 E35.77951
G1 X37.538 Y34.486 E35.80714
G1 X36.295 Y36.002 E35.93918
G1 X36.002 Y36.295 E35.96708
G1 X34.486 Y37.538 E36.09912
G1 X34.145 Y37.766 E36.12675
G1 X32.416 Y38.69 E36.25879
G1 X32.036 Y38.848 E36.28651
G1 X30.16 Y39.417 E36.41854
G1 X29.757 Y39.497 E36.44621
G1 X27.807 Y39.69 E36.57819
G1 X27.393 Y39.69 E36.60608
G1 X25.442 Y39.497 E36.73812
G1 X25.039 Y39.417 E36.76579
G1 X23.163 Y38.848 E36.89783
G1 X22.783 Y38.69 E36.92555
G1 X21.054 Y37.766 E37.05758
G1 X20.713 Y37.538 E37.08521
G1 X19.197 Y36.295 E37.21725
G1 X18.904 Y36.002 E37.24516
G1 X17.661 Y34.486 E37.3772
G1 X17.433 Y34.145 E37.40482
G1 X16.509 Y32.416 E37.53686
G1 X16.351 Y32.036 E37.56458
G1 X15.782 Y30.16 E37.69662
G1 X15.702 Y29.756 E37.72435
G1 X15.51 Y27.806 E37.85633
G1 X15.51 Y27.394 E37.88407
G1 X15.702 Y25.443 E38.01611
G1 X15.782 Y25.039 E38.04385
G1 X16.351 Y23.163 E38.17589
G1 X16.509 Y22.783 E38.2036
G1 X17.433 Y21.054 E38.33564
G1 X17.661 Y20.713 E38.36327
G1 X18.904 Y19.197 E38.49531
G1 X19.197 Y18.904 E38.52322
G1 X20.713 Y17.661 E38.65526
G1 X21.054 Y17.433 E38.68288
G1 X22.783 Y16.509 E38.81492
G1 X23.163 Y16.351 E38.84264
G1 X25.039 Y15.782 E38.97467
G1 X25.443 Y15.702 E39.00241
G1 X27.393 Y15.51 E39.13438
G1 X27.805 Y15.51 E39.16213
G1 X29.756 Y15.702 E39.29417
G1 X30.16 Y15.782 E39.32191
G1 X32.036 Y16.351 E39.45394
G1 X32.416 Y16.509 E39.48166
G1 X34.145 Y17.433 E39.6137
G1 X34.486 Y17.661 E39.64133
G1 X36.002 Y18.904 E39.77337
G1 X36.295 Y19.197 E39.80127
G1 X37.538 Y20.713 E39.93331
G1 X37.766 Y21.054 E39.96094
G1 X38.69 Y22.783 E40.09298
G1 X38.848 Y23.163 E40.1207
G0 F4800 X38.273 Y23.338
G1 F1080 X38.842 Y25.214 E40.25273
G1 X38.9 Y25.501 E40.27245
G1 X39.093 Y27.452 E40.4045
G1 X39.093 Y27.748 E40.42443
G1 X38.9 Y29.698 E40.55641
G1 X38.842 Y29.985 E40.57613
G1 X38.273 Y31.861 E40.70817
G1 X38.161 Y32.133 E40.72798
G1 X37.237 Y33.862 E40.86002
G1 X37.074 Y34.106 E40.87978
G1 X35.831 Y35.622 E41.01182
G1 X35.622 Y35.831 E41.03173
G1 X34.106 Y37.074 E41.16377
G1 X33.862 Y37.237 E41.18353
G1 X32.133 Y38.161 E41.31557
G1 X31.861 Y38.273 E41.33538
G1 X29.985 Y38.842 E41.46741
G1 X29.698 Y38.9 E41.48713
G1 X27.748 Y39.093 E41.61911
G1 X27.452 Y39.093 E41.63905
G1 X25.501 Y38.9 E41.77109
G1 X25.214 Y38.842 E41.79081
G1 X23.338 Y38.273 E41.92285
G1 X23.066 Y38.161 E41.94266
G1 X21.337 Y37.237 E42.0747
G1 X21.093 Y37.074 E42.09446
G1 X19.577 Y35.831 E42.2265
G1 X19.368 Y35.622 E42.24641
G1 X18.125 Y34.106 E42.37845
G1 X17.962 Y33.862 E42.39821
G1 X17.038 Y32.133 E42.53025
G1 X16.926 Y31.861 E42.55006
G1 X16.357 Y29.985 E42.6821
G1 X16.299 Y29.697 E42.70188
G1 X16.107 Y27.747 E42.83385
G1 X16.107 Y27.453 E42.85366
G1 X16.299 Y25.502 E42.98569
G1 X16.357 Y25.214 E43.00548
G1 X16.926 Y23.338 E43.13752
G1 X17.038 Y23.066 E43.15733
G1 X17.962 Y21.337 E43.28937
G1 X18.125 Y21.093 E43.30913
G1 X19.368 Y19.577 E43.44117
G1 X19.577 Y19.368 E43.46107
G1 X21.093 Y18.125 E43.59311
G1 X21.337 Y17.962 E43.61288
G1 X23.066 Y17.038 E43.74491
G1 X23.338 Y16.926 E43.76473
G1 X25.214 Y16.357 E43.89676
G1 X25.502 Y16.299 E43.91655
G1 X27.452 Y16.107 E44.04852
G1 X27.746 Y16.107 E44.06832
G1 X29.697 Y16.299 E44.20036
G1 X29.985 Y16.357 E44.22015
G1 X31.861 Y16.926 E44.35218
G1 X32.133 Y17.038 E44.37199
G1 X33.862 Y17.962 E44.50403
G1 X34.106 Y18.125 E44.52379
G1 X35.622 Y19.368 E44.65583
G1 X35.831 Y19.577 E44.67574
G1 X37.074 Y21.093 E44.80778
G1 X37.237 Y21.337 E44.82754
G1 X38.161 Y23.066 E44.95958
G1 X38.273 Y23.338 E44.97939
G0 F4800 X37.699 Y23.512
G1 F1080 X38.268 Y25.388 E45.11143
G1 X38.303 Y25.56 E45.12325
G1 X38.496 Y27.511 E45.25529
G1 X38.496 Y27.689 E45.26728
G1 X38.303 Y29.639 E45.39926
G1 X38.268 Y29.811 E45.41108
G1 X37.699 Y31.687 E45.54312
G1 X37.632 Y31.85 E45.55499
G1 X36.708 Y33.579 E45.68703
G1 X36.61 Y33.726 E45.69892
G1 X35.367 Y35.242 E45.83096
G1 X35.242 Y35.367 E45.84287
G1 X33.726 Y36.61 E45.97491
G1 X33.579 Y36.708 E45.98681
G1 X31.85 Y37.632 E46.11884
G1 X31.687 Y37.699 E46.13071
G1 X29.811 Y38.268 E46.26275
G1 X29.639 Y38.303 E46.27457
G1 X27.689 Y38.496 E46.40655
G1 X27.511 Y38.496 E46.41854
G1 X25.56 Y38.303 E46.55058
G1 X25.388 Y38.268 E46.5624
G1 X23.512 Y37.699 E46.69444
G1 X23.349 Y37.632 E46.70631
G1 X21.62 Y36.708 E46.83835
G1 X21.473 Y36.61 E46.85025
G1 X19.957 Y35.367 E46.98229
G1 X19.832 Y35.242 E46.99419
G1 X18.589 Y33.726 E47.12623
G1 X18.491 Y33.579 E47.13813
G1 X17.567 Y31.85 E47.27017
G1 X17.5 Y31.687 E47.28204
G1 X16.931 Y29.811 E47.41407
G1 X16.896 Y29.638 E47.42596
G1 X16.704 Y27.688 E47.55793
G1 X16.704 Y27.512 E47.56979
G1 X16.896 Y25.561 E47.70182
G1 X16.931 Y25.388 E47.71371
G1 X17.5 Y23.512 E47.84575
G1 X17.567 Y23.349 E47.85762
G1 X18.491 Y21.62 E47.98965
G1 X18.589 Y21.473 E48.00155
G1 X19.832 Y19.957 E48.13359
G1 X19.957 Y19.832 E48.1455
G1 X21.473 Y18.589 E48.27754
G1 X21.62 Y18.491 E48.28944
G1 X23.349 Y17.567 E48.42147
G1 X23.512 Y17.5 E48.43334
G1 X25.388 Y16.931 E48.56538
G1 X25.561 Y16.896 E48.57727
G1 X27.511 Y16.704 E48.70924
G1 X27.687 Y16.704 E48.72109
G1 X29.638 Y16.896 E48.85313
G1 X29.811 Y16.931 E48.86502
G1 X31.687 Y17.5 E48.99705
G1 X31.85 Y17.567 E49.00892
G1 X33.579 Y18.491 E49.14096
G1 X33.726 Y18.589 E49.15286
G1 X35.242 Y19.832 E49.2849
G1 X35.367 Y19.957 E49.2968
G1 X36.61 Y21.473 E49.42884
G1 X36.708 Y21.62 E49.44074
G1 X37.632 Y23.349 E49.57278
G1 X37.699 Y23.512 E49.58465
G0 F4800 X37.125 Y23.686
G1 F1080 X37.694 Y25.562 E49.71669
G1 X37.706 Y25.619 E49.72061
G1 X37.899 Y27.57 E49.85265
G1 X37.899 Y27.63 E49.85669
G1 X37.706 Y29.58 E49.98867
G1 X37.694 Y29.637 E49.9926
G1 X37.125 Y31.513 E50.12463
G1 X37.103 Y31.567 E50.12856
G1 X36.179 Y33.296 E50.2606
G1 X36.146 Y33.345 E50.26457
G1 X34.903 Y34.861 E50.39661
G1 X34.861 Y34.903 E50.40061
G1 X33.345 Y36.146 E50.53265
G1 X33.296 Y36.179 E50.53663
G1 X31.567 Y37.103 E50.66867
G1 X31.513 Y37.125 E50.6726
G1 X29.637 Y37.694 E50.80463
G1 X29.58 Y37.706 E50.80856
G1 X27.63 Y37.899 E50.94053
G1 X27.57 Y37.899 E50.94457
G1 X25.619 Y37.706 E51.07662
G1 X25.562 Y37.694 E51.08054
G1 X23.686 Y37.125 E51.21258
G1 X23.632 Y37.103 E51.2165
G1 X21.903 Y36.179 E51.34854
G1 X21.854 Y36.146 E51.35252
G1 X20.338 Y34.903 E51.48456
G1 X20.296 Y34.861 E51.48856
G1 X19.053 Y33.345 E51.6206
G1 X19.02 Y33.296 E51.62458
G1 X18.096 Y31.567 E51.75662
G1 X18.074 Y31.513 E51.76054
G1 X17.505 Y29.637 E51.89258
G1 X17.493 Y29.579 E51.89657
G1 X17.301 Y27.629 E52.02854
G1 X17.301 Y27.571 E52.03244
G1 X17.493 Y25.62 E52.16448
G1 X17.505 Y25.562 E52.16847
G1 X18.074 Y23.686 E52.30051
G1 X18.096 Y23.632 E52.30444
G1 X19.02 Y21.903 E52.43647
G1 X19.053 Y21.854 E52.44045
G1 X20.296 Y20.338 E52.57249
G1 X20.338 Y20.296 E52.57649
G1 X21.854 Y19.053 E52.70853
G1 X21.903 Y19.02 E52.71251
G1 X23.632 Y18.096 E52.84455
G1 X23.686 Y18.074 E52.84847
G1 X25.562 Y17.505 E52.98051
G1 X25.62 Y17.493 E52.9845
G1 X27.57 Y17.301 E53.11647
G1 X27.628 Y17.301 E53.12038
G1 X29.579 Y17.493 E53.25241
G1 X29.637 Y17.505 E53.2564
G1 X31.513 Y18.074 E53.38844
G1 X31.567 Y18.096 E53.39237
G1 X33.296 Y19.02 E53.5244
G1 X33.345 Y19.053 E53.52838
G1 X34.861 Y20.296 E53.66042
G1 X34.903 Y20.338 E53.66442
G1 X36.146 Y21.854 E53.79646
G1 X36.179 Y21.903 E53.80044
G1 X37.103 Y23.632 E53.93248
G1 X37.125 Y23.686 E53.9364
;MESH:Extruder 0.stl
G0 F4800 X36.56 Y23.89
;TYPE:PRIME-TOWER
G1 F1080 X37.111 Y25.705 E54.10674
G1 X37.298 Y27.6 E54.27774
G1 X37.111 Y29.494 E54.44865
G1 X36.56 Y31.309 E54.61899
G1 X35.662 Y32.989 E54.79006
G1 X34.458 Y34.458 E54.96063
G1 X32.989 Y35.662 E55.13119
G1 X31.309 Y36.56 E55.30226
G1 X29.494 Y37.111 E55.4726
G1 X27.6 Y37.298 E55.64351
G1 X25.705 Y37.111 E55.81451
G1 X23.89 Y36.56 E55.98485
G1 X22.21 Y35.662 E56.15592
G1 X20.741 Y34.458 E56.32649
G1 X19.537 Y32.989 E56.49705
G1 X18.639 Y31.309 E56.66812
G1 X18.088 Y29.494 E56.83846
G1 X17.902 Y27.6 E57.00936
G1 X18.088 Y25.705 E57.18035
G1 X18.639 Y23.89 E57.35069
G1 X19.537 Y22.21 E57.52176
G1 X20.741 Y20.741 E57.69233
G1 X22.21 Y19.537 E57.86289
G1 X23.89 Y18.639 E58.03396
G1 X25.705 Y18.088 E58.2043
G1 X27.599 Y17.902 E58.3752
G1 X29.494 Y18.088 E58.5462
G1 X31.309 Y18.639 E58.71653
G1 X32.989 Y19.537 E58.8876
G1 X34.458 Y20.741 E59.05817
G1 X35.662 Y22.21 E59.22874
G1 X36.56 Y23.89 E59.3998
G0 F4800 X36.003 Y24.121
G1 F1080 X36.52 Y25.822 E59.55946
G1 X36.695 Y27.6 E59.7199
G1 X36.52 Y29.377 E59.88025
G1 X36.003 Y31.078 E60.0399
G1 X35.16 Y32.655 E60.20048
G1 X34.032 Y34.032 E60.36034
G1 X32.655 Y35.16 E60.52019
G1 X31.078 Y36.003 E60.68077
G1 X29.377 Y36.52 E60.84042
G1 X27.6 Y36.695 E61.00077
G1 X25.822 Y36.52 E61.16121
G1 X24.121 Y36.003 E61.32087
G1 X22.544 Y35.16 E61.48145
G1 X21.167 Y34.032 E61.6413
G1 X20.039 Y32.655 E61.80115
G1 X19.196 Y31.078 E61.96173
G1 X18.679 Y29.377 E62.12139
G1 X18.505 Y27.6 E62.28173
G1 X18.679 Y25.822 E62.44216
G1 X19.196 Y24.121 E62.60181
G1 X20.039 Y22.544 E62.7624
G1 X21.167 Y21.167 E62.92225
G1 X22.544 Y20.039 E63.0821
G1 X24.121 Y19.196 E63.24268
G1 X25.822 Y18.679 E63.40234
G1 X27.599 Y18.505 E63.56268
G1 X29.377 Y18.679 E63.72311
G1 X31.078 Y19.196 E63.88276
G1 X32.655 Y20.039 E64.04334
G1 X34.032 Y21.167 E64.2032
G1 X35.16 Y22.544 E64.36305
G1 X36.003 Y24.121 E64.52363
G0 F4800 X35.446 Y24.353
G1 F1080 X35.929 Y25.939 E64.67251
G1 X36.092 Y27.6 E64.82239
G1 X35.929 Y29.26 E64.97218
G1 X35.446 Y30.846 E65.12107
G1 X34.658 Y32.321 E65.27124
G1 X33.606 Y33.606 E65.42038
