;FLAVOR:Marlin
;TIME:3447
;Filament used: 4.10694m, 0.736156m
;Layer height: 0.3
;MINX:13.719
;MINY:13.719
;MINZ:0.3
;MAXX:212.708
;MAXY:42.513
;MAXZ:8.3
;Generated with Cura_SteamEngine mb-master-20191116
T0
M140 S70
M105
M190 S70
M104 S220
M104 T1 S175
M105
M109 S220
M105
M109 T1 S175
M82 ;absolute extrusion mode
;Sliced at: Tue 01-09-2020 20:47:46
G21 ;metric values
M107
G28
M420 S1
G90 ;absolute positioning
G92 E0; reset extruder distance
G1 X0 Y0 Z5 F5000 ;move nozzle up 5mm for safe homing
G29;ABL
M500
M82 ;set extruder to absolute mode
M107 ;start with the fan off
G1 X0 Y0 Z15.0 F5000 ;move the platform down 15mm
G92 E0 ;zero the extruded length
G1 F200 E3 ;extrude 3mm of feed stock
G1 F200 E0 ;Retract
G4 S2 ;Wait for material to fall
G1 F200 E3
G92 E0 ;zero the extruded length again
M117 Printing...
G92 E0
T0;WIPE
G91
G1 Z-0.5
G1 X -20 F3000
G1 X40
G1 X-20
G1 Z0.5
G90

G92 E0
G1 F2400 E-1
;LAYER_COUNT:26
;LAYER:0
M107
G1 F600 Z0.8
G0 F4800 X49.434 Y25.046 Z0.8
;TYPE:SKIRT
G1 F600 Z0.3
G1 F2400 E0.02495
G1 F1080 X49.509 Y24.898 E0.03612
G1 X49.896 Y24.201 E0.08981
G1 X49.983 Y24.058 E0.10109
G1 X50.425 Y23.393 E0.15487
G1 X50.523 Y23.257 E0.16616
G1 X51.016 Y22.63 E0.21988
G1 X51.128 Y22.499 E0.23149
G1 X51.671 Y21.914 E0.28525
G1 X51.787 Y21.799 E0.29625
G1 X52.374 Y21.258 E0.35001
G1 X52.498 Y21.152 E0.361
G1 X53.123 Y20.66 E0.41457
G1 X53.265 Y20.557 E0.42639
G1 X53.933 Y20.116 E0.4803
G1 X54.071 Y20.033 E0.49114
G1 X54.767 Y19.647 E0.54475
G1 X54.92 Y19.57 E0.55628
G1 X55.647 Y19.241 E0.61003
G1 X55.803 Y19.178 E0.62136
G1 X56.555 Y18.908 E0.67517
G1 X56.712 Y18.858 E0.68627
G1 X57.481 Y18.648 E0.73996
G1 X57.647 Y18.61 E0.75143
G1 X58.432 Y18.463 E0.80522
G1 X58.598 Y18.439 E0.81652
G1 X59.391 Y18.355 E0.87023
G1 X59.612 Y18.343 E0.88513
G1 X196.316 Y18.339 E10.09239
G1 X201.643 Y18.339 E10.45117
G1 X202.05 Y18.379 E10.47872
G1 X202.474 Y18.51 E10.50861
G1 X203.052 Y18.759 E10.551
G1 X203.374 Y18.933 E10.57565
G1 X203.965 Y19.321 E10.62326
G1 X204.207 Y19.506 E10.64378
G1 X204.789 Y20.023 E10.69621
G1 X204.961 Y20.195 E10.71259
G1 X205.541 Y20.845 E10.77127
G1 X205.668 Y21.002 E10.78487
G1 X206.243 Y21.787 E10.85041
G1 X206.308 Y21.881 E10.8581
G1 X206.595 Y22.321 E10.89348
G1 X206.637 Y22.388 E10.89881
G1 X206.922 Y22.863 E10.93612
G1 X206.953 Y22.917 E10.94031
G1 X207.237 Y23.424 E10.97945
G1 X207.265 Y23.475 E10.98337
G1 X207.548 Y24.015 E11.02443
G1 X207.572 Y24.063 E11.02805
G1 X207.854 Y24.636 E11.07106
G1 X207.876 Y24.681 E11.07443
G1 X208.157 Y25.288 E11.11948
G1 X208.173 Y25.325 E11.1222
G1 X208.454 Y25.964 E11.16922
G1 X208.473 Y26.007 E11.17238
G1 X208.751 Y26.68 E11.22142
G1 X208.764 Y26.712 E11.22375
G1 X209.042 Y27.417 E11.27479
G1 X209.054 Y27.45 E11.27716
G1 X209.331 Y28.189 E11.33031
G1 X209.343 Y28.221 E11.33261
G1 X209.618 Y28.992 E11.38775
G1 X209.628 Y29.019 E11.38968
G1 X209.903 Y29.825 E11.44704
G1 X209.912 Y29.853 E11.44902
G1 X210.185 Y30.691 E11.50838
G1 X210.192 Y30.714 E11.51
G1 X210.464 Y31.584 E11.5714
G1 X210.472 Y31.608 E11.5731
G1 X210.743 Y32.512 E11.63666
G1 X210.749 Y32.534 E11.6382
G1 X211.019 Y33.471 E11.70388
G1 X211.024 Y33.489 E11.70513
G1 X211.294 Y34.46 E11.77301
G1 X211.3 Y34.483 E11.77461
G1 X211.567 Y35.486 E11.84452
G1 X211.572 Y35.502 E11.84565
G1 X211.839 Y36.538 E11.91771
G1 X211.843 Y36.555 E11.91888
G1 X212.109 Y37.625 E11.99314
G1 X212.113 Y37.641 E11.99425
G1 X212.378 Y38.743 E12.07059
G1 X212.381 Y38.758 E12.07162
G1 X212.637 Y39.86 E12.14782
G1 X212.648 Y39.904 E12.15087
G1 X212.708 Y40.309 E12.17845
G1 X212.689 Y40.718 E12.20603
G1 X212.59 Y41.115 E12.23358
G1 X212.416 Y41.486 E12.26118
G1 X212.174 Y41.815 E12.28869
G1 X211.872 Y42.092 E12.31629
G1 X211.522 Y42.305 E12.34389
G1 X211.138 Y42.446 E12.37144
G1 X210.611 Y42.513 E12.40722
G1 X66.235 Y42.513 E22.1312
G1 X59.812 Y42.508 E22.5638
G1 X59.635 Y42.5 E22.57573
G1 X58.839 Y42.432 E22.62954
G1 X58.673 Y42.412 E22.6408
G1 X57.916 Y42.286 E22.69249
G1 X57.755 Y42.252 E22.70357
G1 X56.982 Y42.06 E22.75721
G1 X56.825 Y42.015 E22.76821
G1 X56.067 Y41.763 E22.82201
G1 X55.908 Y41.702 E22.83348
G1 X55.175 Y41.39 E22.88714
G1 X55.022 Y41.318 E22.89853
G1 X54.314 Y40.947 E22.95236
G1 X54.169 Y40.863 E22.96365
G1 X53.495 Y40.438 E23.01732
G1 X53.36 Y40.346 E23.02832
G1 X52.72 Y39.869 E23.08208
G1 X52.588 Y39.762 E23.09352
G1 X51.989 Y39.235 E23.14726
G1 X51.868 Y39.119 E23.15855
G1 X51.313 Y38.546 E23.21228
G1 X51.201 Y38.421 E23.22358
G1 X50.693 Y37.805 E23.27736
G1 X50.593 Y37.674 E23.28846
G1 X50.136 Y37.022 E23.34208
G1 X50.043 Y36.876 E23.35374
G1 X49.641 Y36.188 E23.40741
G1 X49.562 Y36.041 E23.41865
G1 X49.215 Y35.321 E23.47248
G1 X49.15 Y35.171 E23.48349
G1 X48.861 Y34.429 E23.53712
G1 X48.806 Y34.268 E23.54858
G1 X48.578 Y33.505 E23.60222
G1 X48.537 Y33.345 E23.61334
G1 X48.369 Y32.563 E23.66721
G1 X48.34 Y32.396 E23.67863
G1 X48.236 Y31.605 E23.73236
G1 X48.221 Y31.442 E23.74339
G1 X48.179 Y30.648 E23.79694
G1 X48.177 Y30.482 E23.80812
G1 X48.198 Y29.684 E23.86189
G1 X48.209 Y29.513 E23.87343
G1 X48.295 Y28.72 E23.92715
G1 X48.32 Y28.552 E23.93859
G1 X48.47 Y27.766 E23.99248
G1 X48.508 Y27.605 E24.00363
G1 X48.718 Y26.838 E24.05719
G1 X48.768 Y26.679 E24.06841
G1 X49.04 Y25.927 E24.12227
G1 X49.104 Y25.77 E24.13369
G1 X49.434 Y25.046 E24.18728
G0 F4800 X49.98 Y25.295
G1 F1080 X50.034 Y25.189 E24.19529
G1 X50.421 Y24.492 E24.24899
G1 X50.483 Y24.39 E24.25703
G1 X50.925 Y23.725 E24.31081
G1 X50.995 Y23.628 E24.31886
G1 X51.488 Y23.001 E24.37258
G1 X51.568 Y22.908 E24.38085
G1 X52.111 Y22.323 E24.4346
G1 X52.193 Y22.24 E24.44246
G1 X52.78 Y21.699 E24.49623
G1 X52.869 Y21.623 E24.50411
G1 X53.494 Y21.131 E24.55768
G1 X53.596 Y21.058 E24.56613
G1 X54.264 Y20.617 E24.62004
G1 X54.362 Y20.557 E24.62778
G1 X55.058 Y20.171 E24.68138
G1 X55.168 Y20.116 E24.68967
G1 X55.895 Y19.787 E24.74341
G1 X56.006 Y19.742 E24.75148
G1 X56.758 Y19.472 E24.80529
G1 X56.87 Y19.437 E24.8132
G1 X57.639 Y19.227 E24.86689
G1 X57.758 Y19.2 E24.87511
G1 X58.543 Y19.053 E24.9289
G1 X58.661 Y19.035 E24.93694
G1 X59.454 Y18.951 E24.99064
G1 X59.612 Y18.943 E25.0013
G1 X196.316 Y18.939 E34.20856
G1 X201.643 Y18.939 E34.56734
G1 X201.986 Y18.979 E34.5906
G1 X202.236 Y19.061 E34.60832
G1 X202.814 Y19.31 E34.65071
G1 X203.044 Y19.434 E34.6683
G1 X203.635 Y19.822 E34.71592
G1 X203.808 Y19.955 E34.73062
G1 X204.39 Y20.472 E34.78305
G1 X204.513 Y20.594 E34.79472
G1 X205.093 Y21.244 E34.85339
G1 X205.184 Y21.357 E34.86316
G1 X205.759 Y22.142 E34.9287
G1 X205.805 Y22.209 E34.93417
G1 X206.092 Y22.649 E34.96956
G1 X206.122 Y22.696 E34.97331
G1 X206.407 Y23.171 E35.01062
G1 X206.43 Y23.21 E35.01367
G1 X206.714 Y23.717 E35.05281
G1 X206.734 Y23.754 E35.05564
G1 X207.017 Y24.294 E35.0967
G1 X207.034 Y24.328 E35.09926
G1 X207.316 Y24.901 E35.14228
G1 X207.331 Y24.933 E35.14466
G1 X207.612 Y25.54 E35.18971
G1 X207.624 Y25.566 E35.19164
G1 X207.905 Y26.205 E35.23865
G1 X207.918 Y26.236 E35.24092
G1 X208.196 Y26.909 E35.28996
G1 X208.205 Y26.932 E35.29162
G1 X208.483 Y27.637 E35.34266
G1 X208.493 Y27.661 E35.34442
G1 X208.77 Y28.4 E35.39757
G1 X208.778 Y28.422 E35.39915
G1 X209.053 Y29.193 E35.45428
G1 X209.06 Y29.213 E35.45571
G1 X209.335 Y30.019 E35.51306
G1 X209.341 Y30.038 E35.51441
G1 X209.614 Y30.876 E35.57377
G1 X209.62 Y30.893 E35.57498
G1 X209.892 Y31.763 E35.63637
G1 X209.897 Y31.78 E35.63757
G1 X210.168 Y32.684 E35.70113
G1 X210.172 Y32.7 E35.70224
G1 X210.442 Y33.637 E35.76792
G1 X210.446 Y33.65 E35.76883
G1 X210.716 Y34.621 E35.83671
G1 X210.721 Y34.637 E35.83784
G1 X210.988 Y35.64 E35.90775
G1 X210.991 Y35.652 E35.90858
G1 X211.258 Y36.688 E35.98064
G1 X211.261 Y36.7 E35.98147
G1 X211.527 Y37.77 E36.05573
G1 X211.529 Y37.781 E36.05648
G1 X211.794 Y38.883 E36.13282
G1 X211.797 Y38.894 E36.13359
G1 X212.055 Y40.005 E36.21041
G1 X212.066 Y40.049 E36.21346
G1 X212.111 Y40.392 E36.23676
G1 X212.076 Y40.736 E36.26005
G1 X211.963 Y41.063 E36.28335
G1 X211.778 Y41.355 E36.30664
G1 X211.531 Y41.598 E36.32997
G1 X211.235 Y41.777 E36.35327
G1 X210.906 Y41.884 E36.37657
G1 X210.611 Y41.913 E36.39654
G1 X66.236 Y41.913 E46.12045
G1 X59.813 Y41.908 E46.55305
G1 X59.686 Y41.903 E46.56161
G1 X58.89 Y41.835 E46.61542
G1 X58.772 Y41.82 E46.62343
G1 X58.015 Y41.694 E46.67511
G1 X57.899 Y41.67 E46.68309
G1 X57.126 Y41.478 E46.73674
G1 X57.015 Y41.445 E46.74454
G1 X56.257 Y41.193 E46.79834
G1 X56.143 Y41.15 E46.80654
G1 X55.41 Y40.838 E46.8602
G1 X55.301 Y40.787 E46.8683
G1 X54.593 Y40.416 E46.92214
G1 X54.489 Y40.356 E46.93023
G1 X53.815 Y39.931 E46.98389
G1 X53.719 Y39.865 E46.99174
G1 X53.079 Y39.388 E47.0455
G1 X52.984 Y39.311 E47.05374
G1 X52.385 Y38.784 E47.10747
G1 X52.299 Y38.702 E47.11547
G1 X51.744 Y38.129 E47.1692
G1 X51.664 Y38.039 E47.17731
G1 X51.156 Y37.423 E47.23109
G1 X51.085 Y37.33 E47.23897
G1 X50.628 Y36.678 E47.2926
G1 X50.561 Y36.574 E47.30093
G1 X50.159 Y35.886 E47.3546
G1 X50.103 Y35.78 E47.36267
G1 X49.756 Y35.06 E47.4165
G1 X49.709 Y34.953 E47.42437
G1 X49.42 Y34.211 E47.478
G1 X49.381 Y34.096 E47.48618
G1 X49.153 Y33.333 E47.53982
G1 X49.123 Y33.219 E47.54776
G1 X48.955 Y32.437 E47.60163
G1 X48.935 Y32.318 E47.60976
G1 X48.831 Y31.527 E47.66349
G1 X48.82 Y31.41 E47.6714
G1 X48.778 Y30.616 E47.72496
G1 X48.777 Y30.498 E47.7329
G1 X48.798 Y29.7 E47.78667
G1 X48.806 Y29.577 E47.79497
G1 X48.892 Y28.784 E47.84869
G1 X48.91 Y28.665 E47.8568
G1 X49.06 Y27.879 E47.91069
G1 X49.086 Y27.764 E47.91864
G1 X49.296 Y26.997 E47.9722
G1 X49.332 Y26.883 E47.98025
G1 X49.604 Y26.131 E48.03411
G1 X49.65 Y26.019 E48.04226
G1 X49.98 Y25.295 E48.09585
G0 F4800 X50.526 Y25.544
G1 F1080 X50.558 Y25.48 E48.10067
G1 X50.945 Y24.783 E48.15437
G1 X50.982 Y24.722 E48.15917
G1 X51.424 Y24.057 E48.21295
G1 X51.467 Y23.999 E48.21781
G1 X51.96 Y23.372 E48.27153
G1 X52.007 Y23.316 E48.27646
G1 X52.55 Y22.731 E48.33022
G1 X52.6 Y22.681 E48.33498
G1 X53.187 Y22.14 E48.38874
G1 X53.24 Y22.095 E48.39343
G1 X53.865 Y21.603 E48.447
G1 X53.926 Y21.559 E48.45206
G1 X54.594 Y21.118 E48.50598
G1 X54.653 Y21.082 E48.51063
G1 X55.349 Y20.696 E48.56423
G1 X55.415 Y20.663 E48.5692
G1 X56.142 Y20.334 E48.62295
G1 X56.209 Y20.307 E48.62781
G1 X56.961 Y20.037 E48.68163
G1 X57.028 Y20.016 E48.68636
G1 X57.797 Y19.806 E48.74005
G1 X57.868 Y19.789 E48.74497
G1 X58.653 Y19.642 E48.79876
G1 X58.724 Y19.632 E48.80358
G1 X59.517 Y19.548 E48.85729
G1 X59.612 Y19.543 E48.8637
G1 X196.316 Y19.539 E58.07096
G1 X201.643 Y19.539 E58.42974
G1 X201.999 Y19.612 E58.45422
G1 X202.577 Y19.861 E58.4966
G1 X202.715 Y19.936 E58.50718
G1 X203.306 Y20.324 E58.5548
G1 X203.41 Y20.403 E58.5636
G1 X203.992 Y20.92 E58.61603
G1 X204.066 Y20.994 E58.62308
G1 X204.646 Y21.644 E58.68175
G1 X204.7 Y21.711 E58.68754
G1 X205.275 Y22.496 E58.75308
G1 X205.303 Y22.536 E58.75637
G1 X205.59 Y22.976 E58.79175
G1 X205.608 Y23.005 E58.79405
G1 X205.893 Y23.48 E58.83136
G1 X205.906 Y23.503 E58.83314
G1 X206.19 Y24.01 E58.87228
G1 X206.202 Y24.032 E58.87397
G1 X206.485 Y24.572 E58.91503
G1 X206.496 Y24.593 E58.91663
G1 X206.778 Y25.166 E58.95964
G1 X206.787 Y25.185 E58.96105
G1 X207.068 Y25.792 E59.00611
G1 X207.075 Y25.808 E59.00728
G1 X207.356 Y26.447 E59.0543
G1 X207.364 Y26.465 E59.05562
G1 X207.642 Y27.138 E59.10467
G1 X207.647 Y27.152 E59.10567
G1 X207.925 Y27.857 E59.15671
G1 X207.931 Y27.871 E59.15774
G1 X208.208 Y28.61 E59.21089
G1 X208.213 Y28.624 E59.21189
G1 X208.488 Y29.395 E59.26702
G1 X208.492 Y29.406 E59.26781
G1 X208.767 Y30.212 E59.32517
G1 X208.771 Y30.224 E59.32602
G1 X209.044 Y31.062 E59.38538
G1 X209.047 Y31.072 E59.38609
G1 X209.319 Y31.942 E59.44748
G1 X209.322 Y31.953 E59.44825
G1 X209.593 Y32.857 E59.51181
G1 X209.596 Y32.866 E59.51245
G1 X209.866 Y33.803 E59.57812
G1 X209.868 Y33.811 E59.57868
G1 X210.138 Y34.782 E59.64656
G1 X210.141 Y34.791 E59.6472
G1 X210.408 Y35.794 E59.71711
G1 X210.41 Y35.801 E59.7176
G1 X210.677 Y36.837 E59.78965
G1 X210.678 Y36.845 E59.7902
G1 X210.944 Y37.915 E59.86446
G1 X210.946 Y37.922 E59.86495
G1 X211.211 Y39.024 E59.94128
G1 X211.213 Y39.03 E59.94171
G1 X211.477 Y40.165 E60.02019
G1 X211.484 Y40.195 E60.02227
G1 X211.51 Y40.461 E60.04027
G1 X211.456 Y40.723 E60.05829
G1 X211.327 Y40.958 E60.07634
G1 X211.135 Y41.144 E60.09435
G1 X210.897 Y41.266 E60.11236
G1 X210.611 Y41.313 E60.13188
G1 X66.237 Y41.313 E69.85573
G1 X59.814 Y41.308 E70.28833
G1 X59.737 Y41.305 E70.29352
G1 X58.941 Y41.237 E70.34732
G1 X58.87 Y41.228 E70.35214
G1 X58.113 Y41.102 E70.40383
G1 X58.044 Y41.087 E70.40859
G1 X57.271 Y40.895 E70.46223
G1 X57.204 Y40.876 E70.46692
G1 X56.446 Y40.624 E70.52072
G1 X56.378 Y40.598 E70.52562
G1 X55.645 Y40.286 E70.57928
G1 X55.579 Y40.255 E70.58419
G1 X54.871 Y39.884 E70.63803
G1 X54.809 Y39.848 E70.64286
G1 X54.135 Y39.423 E70.69652
G1 X54.077 Y39.384 E70.70123
G1 X53.437 Y38.907 E70.75499
G1 X53.381 Y38.861 E70.75987
G1 X52.782 Y38.334 E70.81361
G1 X52.73 Y38.284 E70.81846
G1 X52.175 Y37.711 E70.87219
G1 X52.127 Y37.658 E70.87701
G1 X51.619 Y37.042 E70.93078
G1 X51.576 Y36.986 E70.93554
G1 X51.119 Y36.334 E70.98917
G1 X51.079 Y36.271 E70.99419
G1 X50.677 Y35.583 E71.04786
G1 X50.643 Y35.52 E71.05268
G1 X50.296 Y34.8 E71.10651
G1 X50.268 Y34.736 E71.11122
G1 X49.979 Y33.994 E71.16485
G1 X49.956 Y33.925 E71.16975
G1 X49.728 Y33.162 E71.22338
G1 X49.71 Y33.093 E71.22819
G1 X49.542 Y32.311 E71.28206
G1 X49.53 Y32.239 E71.28697
G1 X49.426 Y31.448 E71.34071
G1 X49.419 Y31.379 E71.34538
G1 X49.377 Y30.585 E71.39893
G1 X49.376 Y30.513 E71.40378
G1 X49.397 Y29.715 E71.45755
G1 X49.402 Y29.642 E71.46247
G1 X49.488 Y28.849 E71.5162
G1 X49.499 Y28.777 E71.5211
G1 X49.649 Y27.991 E71.575
G1 X49.665 Y27.922 E71.57977
G1 X49.875 Y27.155 E71.63333
G1 X49.897 Y27.087 E71.63814
G1 X50.169 Y26.335 E71.692
G1 X50.196 Y26.268 E71.69687
G1 X50.526 Y25.544 E71.75046
G0 F4800 X51.072 Y25.793
G1 F1080 X51.083 Y25.771 E71.75211
G1 X51.47 Y25.074 E71.80581
G1 X51.482 Y25.054 E71.80738
G1 X51.924 Y24.389 E71.86116
G1 X51.938 Y24.37 E71.86275
G1 X52.431 Y23.743 E71.91647
G1 X52.447 Y23.724 E71.91814
G1 X52.99 Y23.139 E71.9719
G1 X53.007 Y23.122 E71.97352
G1 X53.594 Y22.581 E72.02728
G1 X53.611 Y22.566 E72.02881
G1 X54.236 Y22.074 E72.08238
G1 X54.257 Y22.06 E72.08408
G1 X54.925 Y21.619 E72.13799
G1 X54.944 Y21.607 E72.13951
G1 X55.64 Y21.221 E72.19311
G1 X55.662 Y21.21 E72.19477
G1 X56.389 Y20.881 E72.24851
G1 X56.412 Y20.872 E72.25018
G1 X57.164 Y20.602 E72.30399
G1 X57.186 Y20.595 E72.30555
G1 X57.955 Y20.385 E72.35924
G1 X57.979 Y20.379 E72.3609
G1 X58.764 Y20.232 E72.41469
G1 X58.787 Y20.229 E72.41625
G1 X59.58 Y20.145 E72.46996
G1 X59.612 Y20.143 E72.47212
G1 X196.316 Y20.139 E81.67938
G1 X201.643 Y20.139 E82.03816
G1 X201.762 Y20.163 E82.04634
G1 X202.34 Y20.412 E82.08873
G1 X202.386 Y20.437 E82.09225
G1 X202.977 Y20.825 E82.13987
G1 X203.011 Y20.852 E82.14279
G1 X203.593 Y21.369 E82.19522
G1 X203.618 Y21.393 E82.19756
G1 X204.198 Y22.043 E82.25623
G1 X204.216 Y22.066 E82.2582
G1 X204.791 Y22.851 E82.32374
G1 X204.8 Y22.864 E82.3248
G1 X205.087 Y23.304 E82.36018
G1 X205.378 Y23.789 E82.39828
G1 X205.383 Y23.796 E82.39886
G1 X205.667 Y24.303 E82.438
G1 X205.671 Y24.311 E82.4386
G1 X205.954 Y24.851 E82.47966
G1 X205.957 Y24.858 E82.48017
G1 X206.239 Y25.431 E82.52319
G1 X206.242 Y25.437 E82.52364
G1 X206.523 Y26.044 E82.56869
G1 X206.526 Y26.049 E82.56908
G1 X206.807 Y26.688 E82.6161
G1 X206.809 Y26.694 E82.61652
G1 X207.087 Y27.367 E82.66557
G1 X207.089 Y27.372 E82.66593
G1 X207.367 Y28.077 E82.71697
G1 X207.369 Y28.082 E82.71733
G1 X207.646 Y28.821 E82.77049
G1 X207.923 Y29.596 E82.82592
G1 X208.199 Y30.406 E82.88355
G1 X208.473 Y31.248 E82.94319
G1 X208.746 Y32.121 E83.0048
G1 X209.018 Y33.029 E83.06864
G1 X209.289 Y33.969 E83.13453
G1 X209.56 Y34.943 E83.20262
G1 X209.828 Y35.949 E83.27274
G1 X210.096 Y36.987 E83.34494
G1 X210.362 Y38.06 E83.4194
G1 X210.628 Y39.164 E83.49588
G1 X210.891 Y40.296 E83.57416
G1 X210.902 Y40.34 E83.57721
G1 X210.9 Y40.494 E83.58758
G1 X210.822 Y40.626 E83.59791
G1 X210.689 Y40.703 E83.60826
G1 X210.611 Y40.713 E83.61356
G1 X66.237 Y40.713 E93.3374
G1 X59.814 Y40.708 E93.77
G1 X59.788 Y40.707 E93.77175
