;FLAVOR:Marlin
;TIME:3835
;Filament used: 4.67274m, 0m
;Layer height: 0.3
;MINX:2.9
;MINY:2.9
;MINZ:0.3
;MAXX:397.1
;MAXY:397.1
;MAXZ:1.1
;Generated with Cura_SteamEngine mb-master-20191116
T0
M140 S70
M105
M190 S70
M104 S220
M105
M109 S220
M82 ;absolute extrusion mode
;Sliced at: Tue 01-09-2020 21:07:03
G21 ;metric values
M107
G28
M420 S1
G90 ;absolute positioning
G92 E0; reset extruder distance
G1 X0 Y0 Z5 F5000 ;move nozzle up 5mm for safe homing
G29;ABL
M500
M82 ;set extruder to absolute mode
M107 ;start with the fan off
G1 X0 Y0 Z15.0 F5000 ;move the platform down 15mm
G92 E0 ;zero the extruded length
G1 F200 E3 ;extrude 3mm of feed stock
G1 F200 E0 ;Retract
G4 S2 ;Wait for material to fall
G1 F200 E3
G92 E0 ;zero the extruded length again
M117 Printing...
G92 E0
T0;WIPE
G91
G1 Z-0.5
G1 X -20 F3000
G1 X40
G1 X-20
G1 Z0.5
G90

G92 E0
G1 F2400 E-1
;LAYER_COUNT:2
;LAYER:0
M107
G1 F600 Z0.8
G0 F4800 X344.308 Y174.826 Z0.8
;TYPE:SKIRT
G1 F600 Z0.3
G1 F2400 E0.02495
G1 F1080 X344.5 Y174.464 E0.05254
G1 X344.759 Y174.147 E0.08011
G1 X345.074 Y173.885 E0.10771
G1 X345.434 Y173.69 E0.13528
G1 X345.825 Y173.569 E0.16285
G1 X346.25 Y173.525 E0.19163
G1 X395 Y173.525 E3.47503
G1 X395.407 Y173.565 E3.50257
G1 X395.799 Y173.683 E3.53014
G1 X396.161 Y173.875 E3.55774
G1 X396.478 Y174.134 E3.58531
G1 X396.74 Y174.449 E3.61291
G1 X396.935 Y174.809 E3.64048
G1 X397.056 Y175.2 E3.66805
G1 X397.1 Y175.625 E3.69683
G1 X397.1 Y224.375 E6.98023
G1 X397.06 Y224.782 E7.00777
G1 X396.942 Y225.174 E7.03534
G1 X396.75 Y225.536 E7.06294
G1 X396.491 Y225.853 E7.09051
G1 X396.176 Y226.115 E7.11811
G1 X395.816 Y226.31 E7.14568
G1 X395.425 Y226.431 E7.17325
G1 X395 Y226.475 E7.20203
G1 X346.25 Y226.475 E10.48543
G1 X345.843 Y226.435 E10.51297
G1 X345.451 Y226.317 E10.54054
G1 X345.089 Y226.125 E10.56814
G1 X344.772 Y225.866 E10.59571
G1 X344.51 Y225.551 E10.62331
G1 X344.315 Y225.191 E10.65088
G1 X344.194 Y224.8 E10.67845
G1 X344.15 Y224.375 E10.70723
G1 X344.15 Y175.625 E13.99063
G1 X344.19 Y175.218 E14.01817
G1 X344.308 Y174.826 E14.04574
G0 F4800 X344.907 Y174.956
G1 F1080 X345.096 Y174.666 E14.06906
G1 X345.346 Y174.428 E14.0923
G1 X345.645 Y174.253 E14.11564
G1 X345.975 Y174.15 E14.13892
G1 X346.25 Y174.125 E14.15752
G1 X395 Y174.125 E17.44092
G1 X395.344 Y174.165 E17.46424
G1 X395.669 Y174.282 E17.48751
G1 X395.959 Y174.471 E17.51082
G1 X396.197 Y174.721 E17.53407
G1 X396.372 Y175.02 E17.5574
G1 X396.475 Y175.35 E17.58069
G1 X396.5 Y175.625 E17.59928
G1 X396.5 Y224.375 E20.88268
G1 X396.46 Y224.719 E20.90601
G1 X396.343 Y225.044 E20.92927
G1 X396.154 Y225.334 E20.95259
G1 X395.904 Y225.572 E20.97584
G1 X395.605 Y225.747 E20.99917
G1 X395.275 Y225.85 E21.02245
G1 X395 Y225.875 E21.04105
G1 X346.25 Y225.875 E24.32445
G1 X345.906 Y225.835 E24.34778
G1 X345.581 Y225.718 E24.37104
G1 X345.291 Y225.529 E24.39435
G1 X345.053 Y225.279 E24.4176
G1 X344.878 Y224.98 E24.44094
G1 X344.775 Y224.65 E24.46422
G1 X344.75 Y224.375 E24.48282
G1 X344.75 Y175.625 E27.76622
G1 X344.79 Y175.281 E27.78954
G1 X344.907 Y174.956 E27.81281
G0 F4800 X345.39 Y175.36
G1 F1080 X345.506 Y175.119 E27.83082
G1 X345.687 Y174.923 E27.84879
G1 X345.919 Y174.788 E27.86687
G1 X346.25 Y174.725 E27.88956
G1 X395 Y174.725 E31.17296
G1 X395.265 Y174.765 E31.19101
G1 X395.506 Y174.881 E31.20902
G1 X395.702 Y175.062 E31.22699
G1 X395.837 Y175.294 E31.24507
G1 X395.9 Y175.625 E31.26777
G1 X395.9 Y224.375 E34.55116
G1 X395.86 Y224.64 E34.56921
G1 X395.744 Y224.881 E34.58723
G1 X395.563 Y225.077 E34.6052
G1 X395.331 Y225.212 E34.62328
G1 X395 Y225.275 E34.64597
G1 X346.25 Y225.275 E37.92937
G1 X345.985 Y225.235 E37.94742
G1 X345.744 Y225.119 E37.96543
G1 X345.548 Y224.938 E37.9834
G1 X345.413 Y224.706 E38.00148
G1 X345.35 Y224.375 E38.02417
G1 X345.35 Y175.625 E41.30757
G1 X345.39 Y175.36 E41.32562
G0 F4800 X345.989 Y175.476
G1 F1080 X346.097 Y175.367 E41.33596
G1 X346.25 Y175.325 E41.34664
G1 X395 Y175.325 E44.63004
G1 X395.149 Y175.364 E44.64042
G1 X395.258 Y175.472 E44.65075
G1 X395.3 Y175.625 E44.66144
G1 X395.3 Y224.375 E47.94484
G1 X395.261 Y224.524 E47.95521
G1 X395.153 Y224.633 E47.96554
G1 X395 Y224.675 E47.97623
G1 X346.25 Y224.675 E51.25963
G1 X346.101 Y224.636 E51.27
G1 X345.992 Y224.528 E51.28034
G1 X345.95 Y224.375 E51.29102
G1 X345.95 Y175.625 E54.57442
G1 X345.989 Y175.476 E54.5848
G1 F2400 E53.5848
G1 F600 Z0.8
G0 F4800 X347.769 Y177.144 Z0.8
G1 F600 Z0.3
G1 F2400 E54.60974
G1 F1080 X347.769 Y222.856 E57.68853
G1 X393.481 Y222.856 E60.76731
G1 X393.481 Y177.144 E63.84609
G1 X347.769 Y177.144 E66.92488
G0 F4800 X348.369 Y177.744
G1 F1080 X348.369 Y222.256 E69.92284
G1 X392.881 Y222.256 E72.9208
G1 X392.881 Y177.744 E75.91877
G1 X348.369 Y177.744 E78.91673
G0 F4800 X348.969 Y178.344
G1 F1080 X348.969 Y221.656 E81.83387
G1 X392.281 Y221.656 E84.75101
G1 X392.281 Y178.344 E87.66815
G1 X348.969 Y178.344 E90.58529
G1 F2400 E89.58529
G1 F600 Z0.8
G0 F4800 X349.971 Y179.541 Z0.8
G1 F600 Z0.3
G1 F2400 E90.61023
G1 F1080 X350.221 Y179.303 E90.63348
G1 X350.52 Y179.128 E90.65681
G1 X350.85 Y179.025 E90.6801
G1 X351.125 Y179 E90.6987
G1 X390.125 Y179 E93.32542
G1 X390.469 Y179.04 E93.34874
G1 X390.794 Y179.157 E93.372
G1 X391.084 Y179.346 E93.39532
G1 X391.322 Y179.596 E93.41857
G1 X391.497 Y179.895 E93.4419
G1 X391.6 Y180.225 E93.46518
G1 X391.625 Y180.5 E93.48378
G1 X391.625 Y219.5 E96.1105
G1 X391.585 Y219.844 E96.13383
G1 X391.468 Y220.169 E96.15709
G1 X391.279 Y220.459 E96.1804
G1 X391.029 Y220.697 E96.20365
G1 X390.73 Y220.872 E96.22699
G1 X390.4 Y220.975 E96.25027
G1 X390.125 Y221 E96.26887
G1 X351.125 Y221 E98.89559
G1 X350.781 Y220.96 E98.91891
G1 X350.456 Y220.843 E98.94218
G1 X350.166 Y220.654 E98.96549
G1 X349.928 Y220.404 E98.98874
G1 X349.753 Y220.105 E99.01207
G1 X349.65 Y219.775 E99.03536
G1 X349.625 Y219.5 E99.05395
G1 X349.625 Y180.5 E101.68067
G1 X349.665 Y180.156 E101.704
G1 X349.782 Y179.831 E101.72726
G1 X349.971 Y179.541 E101.75058
G0 F4800 X350.381 Y179.994
G1 F1080 X350.562 Y179.798 E101.76855
G1 X350.794 Y179.663 E101.78662
G1 X351.125 Y179.6 E101.80932
G1 X390.125 Y179.6 E104.43604
G1 X390.39 Y179.64 E104.45409
G1 X390.631 Y179.756 E104.4721
G1 X390.827 Y179.937 E104.49007
G1 X390.962 Y180.169 E104.50815
G1 X391.025 Y180.5 E104.53084
G1 X391.025 Y219.5 E107.15756
G1 X390.985 Y219.765 E107.17561
G1 X390.869 Y220.006 E107.19363
G1 X390.688 Y220.202 E107.2116
G1 X390.456 Y220.337 E107.22967
G1 X390.125 Y220.4 E107.25237
G1 X351.125 Y220.4 E109.87909
G1 X350.86 Y220.36 E109.89714
G1 X350.619 Y220.244 E109.91515
G1 X350.423 Y220.063 E109.93312
G1 X350.288 Y219.831 E109.9512
G1 X350.225 Y219.5 E109.97389
G1 X350.225 Y180.5 E112.60061
G1 X350.265 Y180.235 E112.61866
G1 X350.381 Y179.994 E112.63668
G0 F4800 X350.864 Y180.351
G1 F1080 X350.972 Y180.242 E112.64701
G1 X351.125 Y180.2 E112.6577
G1 X390.125 Y180.2 E115.28442
G1 X390.274 Y180.239 E115.29479
G1 X390.383 Y180.347 E115.30512
G1 X390.425 Y180.5 E115.31581
G1 X390.425 Y219.5 E117.94253
G1 X390.386 Y219.649 E117.9529
G1 X390.278 Y219.758 E117.96324
G1 X390.125 Y219.8 E117.97392
G1 X351.125 Y219.8 E120.60064
G1 X350.976 Y219.761 E120.61102
G1 X350.867 Y219.653 E120.62135
G1 X350.825 Y219.5 E120.63204
G1 X350.825 Y180.5 E123.25876
G1 X350.864 Y180.351 E123.26913
G1 F2400 E122.26913
G1 F600 Z0.8
G0 F4800 X226.475 Y175.625 Z0.8
G1 F600 Z0.3
G1 F2400 E123.29408
G1 F1080 X226.475 Y224.375 E126.57747
G1 X226.435 Y224.782 E126.60502
G1 X226.317 Y225.174 E126.63259
G1 X226.125 Y225.536 E126.66019
G1 X225.866 Y225.853 E126.68776
G1 X225.551 Y226.115 E126.71535
G1 X225.191 Y226.31 E126.74293
G1 X224.8 Y226.431 E126.7705
G1 X224.375 Y226.475 E126.79927
G1 X175.625 Y226.475 E130.08267
G1 X175.218 Y226.435 E130.11022
G1 X174.826 Y226.317 E130.13779
G1 X174.464 Y226.125 E130.16539
G1 X174.147 Y225.866 E130.19296
G1 X173.885 Y225.551 E130.22055
G1 X173.69 Y225.191 E130.24813
G1 X173.569 Y224.8 E130.2757
G1 X173.525 Y224.375 E130.30447
G1 X173.525 Y175.625 E133.58787
G1 X173.565 Y175.218 E133.61542
G1 X173.683 Y174.826 E133.64299
G1 X173.875 Y174.464 E133.67059
G1 X174.134 Y174.147 E133.69816
G1 X174.449 Y173.885 E133.72575
G1 X174.809 Y173.69 E133.75333
G1 X175.2 Y173.569 E133.78089
G1 X175.625 Y173.525 E133.80967
G1 X224.375 Y173.525 E137.09307
G1 X224.782 Y173.565 E137.12062
G1 X225.174 Y173.683 E137.14819
G1 X225.536 Y173.875 E137.17579
G1 X225.853 Y174.134 E137.20336
G1 X226.115 Y174.449 E137.23095
G1 X226.31 Y174.809 E137.25853
G1 X226.431 Y175.2 E137.28609
G1 X226.475 Y175.625 E137.31487
G0 F4800 X225.875 Y175.625
G1 F1080 X225.875 Y224.375 E140.59827
G1 X225.835 Y224.719 E140.6216
G1 X225.718 Y225.044 E140.64486
G1 X225.529 Y225.334 E140.66817
G1 X225.279 Y225.572 E140.69142
G1 X224.98 Y225.747 E140.71476
G1 X224.65 Y225.85 E140.73804
G1 X224.375 Y225.875 E140.75664
G1 X175.625 Y225.875 E144.04004
G1 X175.281 Y225.835 E144.06336
G1 X174.956 Y225.718 E144.08663
G1 X174.666 Y225.529 E144.10994
G1 X174.428 Y225.279 E144.13319
G1 X174.253 Y224.98 E144.15652
G1 X174.15 Y224.65 E144.17981
G1 X174.125 Y224.375 E144.1984
G1 X174.125 Y175.625 E147.4818
G1 X174.165 Y175.281 E147.50513
G1 X174.282 Y174.956 E147.52839
G1 X174.471 Y174.666 E147.55171
G1 X174.721 Y174.428 E147.57495
G1 X175.02 Y174.253 E147.59829
G1 X175.35 Y174.15 E147.62157
G1 X175.625 Y174.125 E147.64017
G1 X224.375 Y174.125 E150.92357
G1 X224.719 Y174.165 E150.94689
G1 X225.044 Y174.282 E150.97016
G1 X225.334 Y174.471 E150.99347
G1 X225.572 Y174.721 E151.01672
G1 X225.747 Y175.02 E151.04005
G1 X225.85 Y175.35 E151.06334
G1 X225.875 Y175.625 E151.08194
G0 F4800 X225.275 Y175.625
G1 F1080 X225.275 Y224.375 E154.36533
G1 X225.235 Y224.64 E154.38339
G1 X225.119 Y224.881 E154.4014
G1 X224.938 Y225.077 E154.41937
G1 X224.706 Y225.212 E154.43745
G1 X224.375 Y225.275 E154.46014
G1 X175.625 Y225.275 E157.74354
G1 X175.36 Y225.235 E157.76159
G1 X175.119 Y225.119 E157.7796
G1 X174.923 Y224.938 E157.79757
G1 X174.788 Y224.706 E157.81565
G1 X174.725 Y224.375 E157.83834
G1 X174.725 Y175.625 E161.12174
G1 X174.765 Y175.36 E161.13979
G1 X174.881 Y175.119 E161.15781
G1 X175.062 Y174.923 E161.17578
G1 X175.294 Y174.788 E161.19386
G1 X175.625 Y174.725 E161.21655
G1 X224.375 Y174.725 E164.49995
G1 X224.64 Y174.765 E164.518
G1 X224.881 Y174.881 E164.53601
G1 X225.077 Y175.062 E164.55398
G1 X225.212 Y175.294 E164.57206
G1 X225.275 Y175.625 E164.59475
G0 F4800 X224.675 Y175.625
G1 F1080 X224.675 Y224.375 E167.87815
G1 X224.636 Y224.524 E167.88853
G1 X224.528 Y224.633 E167.89886
G1 X224.375 Y224.675 E167.90955
G1 X175.625 Y224.675 E171.19295
G1 X175.476 Y224.636 E171.20332
G1 X175.367 Y224.528 E171.21365
G1 X175.325 Y224.375 E171.22434
G1 X175.325 Y175.625 E174.50774
G1 X175.364 Y175.476 E174.51811
G1 X175.472 Y175.367 E174.52845
G1 X175.625 Y175.325 E174.53913
G1 X224.375 Y175.325 E177.82253
G1 X224.524 Y175.364 E177.83291
G1 X224.633 Y175.472 E177.84324
G1 X224.675 Y175.625 E177.85393
G1 F2400 E176.85393
G1 F600 Z0.8
G0 F4800 X222.856 Y177.144 Z0.8
G1 F600 Z0.3
G1 F2400 E177.87887
G1 F1080 X177.144 Y177.144 E180.95766
G1 X177.144 Y222.856 E184.03644
G1 X222.856 Y222.856 E187.11522
G1 X222.856 Y177.144 E190.19401
G0 F4800 X222.256 Y177.744
G1 F1080 X177.744 Y177.744 E193.19197
G1 X177.744 Y222.256 E196.18993
G1 X222.256 Y222.256 E199.1879
G1 X222.256 Y177.744 E202.18586
G0 F4800 X221.656 Y178.344
G1 F1080 X178.344 Y178.344 E205.103
G1 X178.344 Y221.656 E208.02014
G1 X221.656 Y221.656 E210.93728
G1 X221.656 Y178.344 E213.85442
G1 F2400 E212.85442
G1 F600 Z0.8
G0 F4800 X221 Y180.5 Z0.8
G1 F600 Z0.3
G1 F2400 E213.87936
G1 F1080 X221 Y219.5 E216.50608
G1 X220.96 Y219.844 E216.52941
G1 X220.843 Y220.169 E216.55267
G1 X220.654 Y220.459 E216.57599
G1 X220.404 Y220.697 E216.59923
G1 X220.105 Y220.872 E216.62257
G1 X219.775 Y220.975 E216.64585
G1 X219.5 Y221 E216.66445
G1 X180.5 Y221 E219.29117
G1 X180.156 Y220.96 E219.31449
G1 X179.831 Y220.843 E219.33776
G1 X179.541 Y220.654 E219.36107
G1 X179.303 Y220.404 E219.38432
G1 X179.128 Y220.105 E219.40765
G1 X179.025 Y219.775 E219.43094
G1 X179 Y219.5 E219.44953
G1 X179 Y180.5 E222.07625
G1 X179.04 Y180.156 E222.09958
G1 X179.157 Y179.831 E222.12284
G1 X179.346 Y179.541 E222.14616
G1 X179.596 Y179.303 E222.16941
G1 X179.895 Y179.128 E222.19274
G1 X180.225 Y179.025 E222.21602
G1 X180.5 Y179 E222.23462
G1 X219.5 Y179 E224.86134
G1 X219.844 Y179.04 E224.88467
G1 X220.169 Y179.157 E224.90793
G1 X220.459 Y179.346 E224.93124
G1 X220.697 Y179.596 E224.95449
G1 X220.872 Y179.895 E224.97783
G1 X220.975 Y180.225 E225.00111
G1 X221 Y180.5 E225.01971
G0 F4800 X220.4 Y180.5
G1 F1080 X220.4 Y219.5 E227.64643
G1 X220.36 Y219.765 E227.66448
G1 X220.244 Y220.006 E227.68249
G1 X220.063 Y220.202 E227.70046
G1 X219.831 Y220.337 E227.71854
G1 X219.5 Y220.4 E227.74123
G1 X180.5 Y220.4 E230.36795
G1 X180.235 Y220.36 E230.386
G1 X179.994 Y220.244 E230.40402
G1 X179.798 Y220.063 E230.42198
G1 X179.663 Y219.831 E230.44006
G1 X179.6 Y219.5 E230.46276
G1 X179.6 Y180.5 E233.08948
G1 X179.64 Y180.235 E233.10753
G1 X179.756 Y179.994 E233.12554
G1 X179.937 Y179.798 E233.14351
G1 X180.169 Y179.663 E233.16159
G1 X180.5 Y179.6 E233.18428
G1 X219.5 Y179.6 E235.811
G1 X219.765 Y179.64 E235.82905
G1 X220.006 Y179.756 E235.84707
G1 X220.202 Y179.937 E235.86503
G1 X220.337 Y180.169 E235.88311
G1 X220.4 Y180.5 E235.90581
G0 F4800 X219.8 Y180.5
G1 F1080 X219.8 Y219.5 E238.53253
G1 X219.761 Y219.649 E238.5429
G1 X219.653 Y219.758 E238.55323
G1 X219.5 Y219.8 E238.56392
G1 X180.5 Y219.8 E241.19064
G1 X180.351 Y219.761 E241.20101
G1 X180.242 Y219.653 E241.21135
G1 X180.2 Y219.5 E241.22203
G1 X180.2 Y180.5 E243.84875
G1 X180.239 Y180.351 E243.85913
G1 X180.347 Y180.242 E243.86946
G1 X180.5 Y180.2 E243.88015
G1 X219.5 Y180.2 E246.50687
G1 X219.649 Y180.239 E246.51724
G1 X219.758 Y180.347 E246.52757
G1 X219.8 Y180.5 E246.53826
G1 F2400 E245.53826
G1 F600 Z0.8
G0 F4800 X225.866 Y55.228 Z0.8
G1 F600 Z0.3
G1 F2400 E246.56321
G1 F1080 X225.551 Y55.49 E246.5908
G1 X225.191 Y55.685 E246.61838
G1 X224.8 Y55.806 E246.64594
G1 X224.375 Y55.85 E246.67472
G1 X175.625 Y55.85 E249.95812
G1 X175.218 Y55.81 E249.98566
G1 X174.826 Y55.692 E250.01323
G1 X174.464 Y55.5 E250.04083
G1 X174.147 Y55.241 E250.0684
G1 X173.885 Y54.926 E250.096
G1 X173.69 Y54.566 E250.12357
G1 X173.569 Y54.175 E250.15114
G1 X173.525 Y53.75 E250.17992
G1 X173.525 Y5 E253.46332
G1 X173.565 Y4.593 E253.49086
G1 X173.683 Y4.201 E253.51843
G1 X173.875 Y3.839 E253.54603
G1 X174.134 Y3.522 E253.5736
G1 X174.449 Y3.26 E253.6012
G1 X174.809 Y3.065 E253.62877
G1 X175.2 Y2.944 E253.65634
G1 X175.625 Y2.9 E253.68512
G1 X224.375 Y2.9 E256.96852
G1 X224.782 Y2.94 E256.99606
G1 X225.174 Y3.058 E257.02363
G1 X225.536 Y3.25 E257.05123
G1 X225.853 Y3.509 E257.0788
G1 X226.115 Y3.824 E257.1064
G1 X226.31 Y4.184 E257.13397
G1 X226.431 Y4.575 E257.16154
G1 X226.475 Y5 E257.19032
G1 X226.475 Y53.75 E260.47372
G1 X226.435 Y54.157 E260.50126
G1 X226.317 Y54.549 E260.52883
G1 X226.125 Y54.911 E260.55643
G1 X225.866 Y55.228 E260.584
G0 F4800 X225.529 Y54.709
G1 F1080 X225.279 Y54.947 E260.60725
G1 X224.98 Y55.122 E260.63058
G1 X224.65 Y55.225 E260.65387
G1 X224.375 Y55.25 E260.67246
G1 X175.625 Y55.25 E263.95586
G1 X175.281 Y55.21 E263.97919
G1 X174.956 Y55.093 E264.00245
G1 X174.666 Y54.904 E264.02577
G1 X174.428 Y54.654 E264.04902
G1 X174.253 Y54.355 E264.07235
G1 X174.15 Y54.025 E264.09563
G1 X174.125 Y53.75 E264.11423
G1 X174.125 Y5 E267.39763
G1 X174.165 Y4.656 E267.42096
G1 X174.282 Y4.331 E267.44422
G1 X174.471 Y4.041 E267.46753
G1 X174.721 Y3.803 E267.49078
G1 X175.02 Y3.628 E267.51412
G1 X175.35 Y3.525 E267.5374
G1 X175.625 Y3.5 E267.556
G1 X224.375 Y3.5 E270.8394
G1 X224.719 Y3.54 E270.86272
G1 X225.044 Y3.657 E270.88599
G1 X225.334 Y3.846 E270.9093
G1 X225.572 Y4.096 E270.93255
G1 X225.747 Y4.395 E270.95588
G1 X225.85 Y4.725 E270.97917
G1 X225.875 Y5 E270.99776
G1 X225.875 Y53.75 E274.28116
G1 X225.835 Y54.094 E274.30449
G1 X225.718 Y54.419 E274.32775
G1 X225.529 Y54.709 E274.35107
G0 F4800 X224.938 Y54.452
G1 F1080 X224.706 Y54.587 E274.36914
G1 X224.375 Y54.65 E274.39184
G1 X175.625 Y54.65 E277.67524
