;FLAVOR:Marlin
;TIME:406
;Filament used: 0.689697m, 0.141128m
;Layer height: 0.4
;MINX:12.402
;MINY:12.402
;MINZ:0.4
;MAXX:83.102
;MAXY:53.274
;MAXZ:2.9
;Generated with Cura_SteamEngine mb-master-20191116
T0
M140 S70
M105
M190 S70
M104 S220
M104 T1 S175
M105
M109 S220
M105
M109 T1 S175
M82 ;absolute extrusion mode
;Sliced at: Tue 01-09-2020 21:03:18
G21 ;metric values
M107
G28
M420 S1
G90 ;absolute positioning
G92 E0; reset extruder distance
G1 X0 Y0 Z5 F5000 ;move nozzle up 5mm for safe homing
G29;ABL
M500
M82 ;set extruder to absolute mode
M107 ;start with the fan off
G1 X0 Y0 Z15.0 F5000 ;move the platform down 15mm
G92 E0 ;zero the extruded length
G1 F200 E3 ;extrude 3mm of feed stock
G1 F200 E0 ;Retract
G4 S2 ;Wait for material to fall
G1 F200 E3
G92 E0 ;zero the extruded length again
M117 Printing...
G92 E0
T0;WIPE
G91
G1 Z-0.5
G1 X -20 F3000
G1 X40
G1 X-20
G1 Z0.5
G90

G92 E0
G1 F2400 E-1
;LAYER_COUNT:6
;LAYER:0
M107
G1 F600 Z0.9
G0 F4800 X48.342 Y20.098 Z0.9
;TYPE:SKIRT
G1 F600 Z0.4
G1 F2400 E0.02495
G1 F1080 X48.534 Y19.748 E0.07274
G1 X48.753 Y19.429 E0.11908
G1 X49.011 Y19.124 E0.16691
G1 X49.307 Y18.888 E0.21224
G1 X49.634 Y18.674 E0.25903
G1 X49.988 Y18.489 E0.30686
G1 X50.347 Y18.384 E0.35164
G1 X50.722 Y18.311 E0.39739
G1 X51.104 Y18.274 E0.44334
G1 X80.1 Y18.274 E3.91522
G1 X80.501 Y18.315 E3.96348
G1 X80.897 Y18.396 E4.01188
G1 X81.278 Y18.514 E4.05964
G1 X81.628 Y18.706 E4.10744
G1 X81.947 Y18.925 E4.15377
G1 X82.252 Y19.183 E4.2016
G1 X82.487 Y19.476 E4.24657
G1 X82.701 Y19.802 E4.29327
G1 X82.886 Y20.157 E4.3412
G1 X82.992 Y20.519 E4.38636
G1 X83.065 Y20.895 E4.43222
G1 X83.102 Y21.276 E4.47806
G1 X83.102 Y50.272 E7.94994
G1 X83.062 Y50.671 E7.99795
G1 X82.982 Y51.064 E8.04597
G1 X82.863 Y51.445 E8.09377
G1 X82.673 Y51.794 E8.14135
G1 X82.452 Y52.117 E8.18821
G1 X82.194 Y52.423 E8.23613
G1 X81.897 Y52.661 E8.2817
G1 X81.572 Y52.874 E8.32823
G1 X81.218 Y53.058 E8.376
G1 X80.857 Y53.164 E8.42105
G1 X80.481 Y53.237 E8.46691
G1 X80.1 Y53.274 E8.51275
G1 X51.104 Y53.274 E11.98463
G1 X50.705 Y53.234 E12.03264
G1 X50.312 Y53.154 E12.08066
G1 X49.931 Y53.035 E12.12845
G1 X49.582 Y52.845 E12.17603
G1 X49.259 Y52.624 E12.22289
G1 X48.953 Y52.366 E12.27082
G1 X48.715 Y52.069 E12.31639
G1 X48.502 Y51.744 E12.36292
G1 X48.318 Y51.39 E12.41069
G1 X48.212 Y51.029 E12.45574
G1 X48.139 Y50.653 E12.5016
G1 X48.102 Y50.272 E12.54743
G1 X48.102 Y21.276 E16.01931
G1 X48.143 Y20.875 E16.06758
G1 X48.224 Y20.479 E16.11597
G1 X48.342 Y20.098 E16.16373
G0 F4800 X49.108 Y20.347
G1 F1080 X49.194 Y20.201 E16.18402
G1 X49.413 Y19.882 E16.23035
G1 X49.619 Y19.652 E16.26732
G1 X49.745 Y19.557 E16.28622
G1 X50.072 Y19.343 E16.33301
G1 X50.5 Y19.169 E16.38833
G1 X50.875 Y19.096 E16.43407
G1 X51.104 Y19.074 E16.46162
G1 X80.1 Y19.074 E19.9335
G1 X80.34 Y19.098 E19.96238
G1 X80.736 Y19.179 E20.01078
G1 X81.029 Y19.28 E20.04789
G1 X81.175 Y19.366 E20.06817
G1 X81.494 Y19.585 E20.11451
G1 X81.724 Y19.791 E20.15148
G1 X81.818 Y19.915 E20.17011
G1 X82.032 Y20.241 E20.2168
G1 X82.167 Y20.52 E20.25391
G1 X82.207 Y20.671 E20.27262
G1 X82.28 Y21.047 E20.31848
G1 X82.302 Y21.276 E20.34602
G1 X82.302 Y50.272 E23.8179
G1 X82.278 Y50.511 E23.84666
G1 X82.198 Y50.904 E23.89468
G1 X82.098 Y51.197 E23.93175
G1 X82.012 Y51.343 E23.95204
G1 X81.791 Y51.666 E23.9989
G1 X81.585 Y51.896 E24.03587
G1 X81.459 Y51.992 E24.05484
G1 X81.134 Y52.205 E24.10137
G1 X80.855 Y52.339 E24.13843
G1 X80.705 Y52.379 E24.15702
G1 X80.329 Y52.452 E24.20288
G1 X80.1 Y52.474 E24.23042
G1 X51.104 Y52.474 E27.7023
G1 X50.865 Y52.45 E27.73106
G1 X50.472 Y52.37 E27.77909
G1 X50.179 Y52.27 E27.81616
G1 X50.033 Y52.184 E27.83644
G1 X49.71 Y51.963 E27.88331
G1 X49.48 Y51.757 E27.92028
G1 X49.384 Y51.631 E27.93924
G1 X49.171 Y51.306 E27.98577
G1 X49.037 Y51.027 E28.02283
G1 X48.997 Y50.877 E28.04142
G1 X48.924 Y50.501 E28.08728
G1 X48.902 Y50.272 E28.11483
G1 X48.902 Y21.276 E31.5867
G1 X48.926 Y21.036 E31.61558
G1 X49.007 Y20.64 E31.66398
G1 X49.108 Y20.347 E31.70109
G0 F4800 X49.853 Y20.654
G1 F1080 X50.072 Y20.335 E31.74742
G1 X50.183 Y20.226 E31.76605
G1 X50.51 Y20.012 E31.81284
G1 X50.653 Y19.954 E31.83132
G1 X51.028 Y19.881 E31.87706
G1 X51.104 Y19.874 E31.8862
G1 X80.1 Y19.874 E35.35808
G1 X80.18 Y19.882 E35.36771
G1 X80.576 Y19.963 E35.4161
G1 X80.722 Y20.025 E35.4351
G1 X81.041 Y20.244 E35.48143
G1 X81.149 Y20.354 E35.49989
G1 X81.363 Y20.68 E35.54658
G1 X81.422 Y20.824 E35.56521
G1 X81.495 Y21.2 E35.61107
G1 X81.502 Y21.276 E35.62021
G1 X81.502 Y50.272 E39.09209
G1 X81.494 Y50.352 E39.10172
G1 X81.414 Y50.745 E39.14974
G1 X81.352 Y50.891 E39.16873
G1 X81.131 Y51.214 E39.21559
G1 X81.02 Y51.323 E39.23422
G1 X80.695 Y51.536 E39.28075
G1 X80.552 Y51.594 E39.29922
G1 X80.176 Y51.667 E39.34509
G1 X80.1 Y51.674 E39.35422
G1 X51.104 Y51.674 E42.8261
G1 X51.024 Y51.666 E42.83573
G1 X50.631 Y51.586 E42.88375
G1 X50.485 Y51.524 E42.90274
G1 X50.162 Y51.303 E42.94961
G1 X50.053 Y51.192 E42.96823
G1 X49.84 Y50.867 E43.01476
G1 X49.782 Y50.724 E43.03324
G1 X49.709 Y50.348 E43.0791
G1 X49.702 Y50.272 E43.08824
G1 X49.702 Y21.276 E46.56012
G1 X49.71 Y21.196 E46.56974
G1 X49.791 Y20.8 E46.61814
G1 X49.853 Y20.654 E46.63713
G1 F2400 E45.63713
G1 F600 Z0.9
G0 F4800 X39.517 Y22.96 Z0.9
G1 F600 Z0.4
G1 F2400 E46.66208
G1 F1080 X40.086 Y24.836 E46.89681
G1 X40.193 Y25.373 E46.96237
G1 X40.386 Y27.324 E47.19712
G1 X40.386 Y27.876 E47.26321
G1 X40.193 Y29.826 E47.49784
G1 X40.086 Y30.363 E47.5634
G1 X39.517 Y32.239 E47.79813
G1 X39.307 Y32.746 E47.86384
G1 X38.383 Y34.475 E48.09857
G1 X38.079 Y34.93 E48.16409
G1 X36.836 Y36.446 E48.39883
G1 X36.446 Y36.836 E48.46487
G1 X34.93 Y38.079 E48.6996
G1 X34.475 Y38.383 E48.76513
G1 X32.746 Y39.307 E48.99986
G1 X32.239 Y39.517 E49.06557
G1 X30.363 Y40.086 E49.3003
G1 X29.826 Y40.193 E49.36586
G1 X27.876 Y40.386 E49.60049
G1 X27.324 Y40.386 E49.66658
G1 X25.373 Y40.193 E49.90133
G1 X24.836 Y40.086 E49.96689
G1 X22.96 Y39.517 E50.20162
G1 X22.453 Y39.307 E50.26733
G1 X20.724 Y38.383 E50.50206
G1 X20.269 Y38.079 E50.56758
G1 X18.753 Y36.836 E50.80232
G1 X18.363 Y36.446 E50.86836
G1 X17.12 Y34.93 E51.10309
G1 X16.816 Y34.475 E51.16861
G1 X15.892 Y32.746 E51.40335
G1 X15.682 Y32.239 E51.46906
G1 X15.113 Y30.363 E51.70379
G1 X15.005 Y29.824 E51.76961
G1 X14.813 Y27.874 E52.00422
G1 X14.813 Y27.326 E52.06984
G1 X15.005 Y25.375 E52.30457
G1 X15.113 Y24.836 E52.37039
G1 X15.682 Y22.96 E52.60512
G1 X15.892 Y22.453 E52.67083
G1 X16.816 Y20.724 E52.90556
G1 X17.12 Y20.269 E52.97109
G1 X18.363 Y18.753 E53.20582
G1 X18.753 Y18.363 E53.27186
G1 X20.269 Y17.12 E53.5066
G1 X20.724 Y16.816 E53.57212
G1 X22.453 Y15.892 E53.80685
G1 X22.96 Y15.682 E53.87256
G1 X24.836 Y15.113 E54.10729
G1 X25.375 Y15.005 E54.17311
G1 X27.325 Y14.813 E54.40772
G1 X27.873 Y14.813 E54.47334
G1 X29.824 Y15.005 E54.70807
G1 X30.363 Y15.113 E54.7739
G1 X32.239 Y15.682 E55.00863
G1 X32.746 Y15.892 E55.07433
G1 X34.475 Y16.816 E55.30907
G1 X34.93 Y17.12 E55.37459
G1 X36.446 Y18.363 E55.60932
G1 X36.836 Y18.753 E55.67536
G1 X38.079 Y20.269 E55.9101
G1 X38.383 Y20.724 E55.97562
G1 X39.307 Y22.453 E56.21035
G1 X39.517 Y22.96 E56.27606
G0 F4800 X38.752 Y23.193
G1 F1080 X39.321 Y25.069 E56.51079
G1 X39.397 Y25.452 E56.55754
G1 X39.59 Y27.403 E56.79229
G1 X39.59 Y27.797 E56.83947
G1 X39.397 Y29.747 E57.07409
G1 X39.321 Y30.13 E57.12085
G1 X38.752 Y32.006 E57.35558
G1 X38.602 Y32.369 E57.40261
G1 X37.678 Y34.098 E57.63734
G1 X37.461 Y34.423 E57.68413
G1 X36.218 Y35.939 E57.91887
G1 X35.939 Y36.218 E57.96611
G1 X34.423 Y37.461 E58.20085
G1 X34.098 Y37.678 E58.24764
G1 X32.369 Y38.602 E58.48237
G1 X32.006 Y38.752 E58.5294
G1 X30.13 Y39.321 E58.76413
G1 X29.747 Y39.397 E58.81088
G1 X27.797 Y39.59 E59.04551
G1 X27.403 Y39.59 E59.09269
G1 X25.452 Y39.397 E59.32743
G1 X25.069 Y39.321 E59.37419
G1 X23.193 Y38.752 E59.60892
G1 X22.83 Y38.602 E59.65594
G1 X21.101 Y37.678 E59.89068
G1 X20.776 Y37.461 E59.93747
G1 X19.26 Y36.218 E60.1722
G1 X18.981 Y35.939 E60.21945
G1 X17.738 Y34.423 E60.45418
G1 X17.521 Y34.098 E60.50098
G1 X16.597 Y32.369 E60.73571
G1 X16.447 Y32.006 E60.78274
G1 X15.878 Y30.13 E61.01747
G1 X15.802 Y29.746 E61.06434
G1 X15.61 Y27.796 E61.29895
G1 X15.61 Y27.404 E61.34589
G1 X15.802 Y25.453 E61.58062
G1 X15.878 Y25.069 E61.6275
G1 X16.447 Y23.193 E61.86223
G1 X16.597 Y22.83 E61.90925
G1 X17.521 Y21.101 E62.14399
G1 X17.738 Y20.776 E62.19078
G1 X18.981 Y19.26 E62.42551
G1 X19.26 Y18.981 E62.47276
G1 X20.776 Y17.738 E62.70749
G1 X21.101 Y17.521 E62.75429
G1 X22.83 Y16.597 E62.98902
G1 X23.193 Y16.447 E63.03605
G1 X25.069 Y15.878 E63.27078
G1 X25.453 Y15.802 E63.31765
G1 X27.403 Y15.61 E63.55226
G1 X27.795 Y15.61 E63.5992
G1 X29.746 Y15.802 E63.83393
G1 X30.13 Y15.878 E63.88081
G1 X32.006 Y16.447 E64.11554
G1 X32.369 Y16.597 E64.16257
G1 X34.098 Y17.521 E64.3973
G1 X34.423 Y17.738 E64.44409
G1 X35.939 Y18.981 E64.67882
G1 X36.218 Y19.26 E64.72607
G1 X37.461 Y20.776 E64.9608
G1 X37.678 Y21.101 E65.0076
G1 X38.602 Y22.83 E65.24233
G1 X38.752 Y23.193 E65.28936
G0 F4800 X37.986 Y23.425
G1 F1080 X38.555 Y25.301 E65.52409
G1 X38.601 Y25.531 E65.55217
G1 X38.794 Y27.482 E65.78692
G1 X38.794 Y27.718 E65.81518
G1 X38.601 Y29.668 E66.0498
G1 X38.555 Y29.898 E66.07789
G1 X37.986 Y31.774 E66.31262
G1 X37.896 Y31.992 E66.34086
G1 X36.972 Y33.721 E66.57559
G1 X36.842 Y33.916 E66.60365
G1 X35.599 Y35.432 E66.83839
G1 X35.432 Y35.599 E66.86667
G1 X33.916 Y36.842 E67.1014
G1 X33.721 Y36.972 E67.12946
G1 X31.992 Y37.896 E67.3642
G1 X31.774 Y37.986 E67.39244
G1 X29.898 Y38.555 E67.62717
G1 X29.668 Y38.601 E67.65525
G1 X27.718 Y38.794 E67.88988
G1 X27.482 Y38.794 E67.91814
G1 X25.531 Y38.601 E68.15288
G1 X25.301 Y38.555 E68.18097
G1 X23.425 Y37.986 E68.4157
G1 X23.207 Y37.896 E68.44394
G1 X21.478 Y36.972 E68.67867
G1 X21.283 Y36.842 E68.70673
G1 X19.767 Y35.599 E68.94147
G1 X19.6 Y35.432 E68.96975
G1 X18.357 Y33.916 E69.20448
G1 X18.227 Y33.721 E69.23254
G1 X17.303 Y31.992 E69.46728
G1 X17.213 Y31.774 E69.49552
G1 X16.644 Y29.898 E69.73025
G1 X16.598 Y29.668 E69.75833
G1 X16.406 Y27.718 E69.99295
G1 X16.406 Y27.482 E70.0212
G1 X16.598 Y25.531 E70.25594
G1 X16.644 Y25.301 E70.28402
G1 X17.213 Y23.425 E70.51875
G1 X17.303 Y23.207 E70.54699
G1 X18.227 Y21.478 E70.78173
G1 X18.357 Y21.283 E70.80979
G1 X19.6 Y19.767 E71.04452
G1 X19.767 Y19.6 E71.0728
G1 X21.283 Y18.357 E71.30754
G1 X21.478 Y18.227 E71.3356
G1 X23.207 Y17.303 E71.57033
G1 X23.425 Y17.213 E71.59857
G1 X25.301 Y16.644 E71.8333
G1 X25.531 Y16.598 E71.86139
G1 X27.481 Y16.406 E72.096
G1 X27.717 Y16.406 E72.12426
G1 X29.668 Y16.598 E72.35899
G1 X29.898 Y16.644 E72.38708
G1 X31.774 Y17.213 E72.62181
G1 X31.992 Y17.303 E72.65005
G1 X33.721 Y18.227 E72.88478
G1 X33.916 Y18.357 E72.91284
G1 X35.432 Y19.6 E73.14758
G1 X35.599 Y19.767 E73.17586
G1 X36.842 Y21.283 E73.41059
G1 X36.972 Y21.478 E73.43865
G1 X37.896 Y23.207 E73.67339
G1 X37.986 Y23.425 E73.70163
G0 F4800 X37.221 Y23.657
G1 F1080 X37.79 Y25.533 E73.93636
G1 X37.805 Y25.61 E73.94575
G1 X37.998 Y27.561 E74.1805
G1 X37.998 Y27.639 E74.18984
G1 X37.805 Y29.589 E74.42446
G1 X37.79 Y29.666 E74.43386
G1 X37.221 Y31.542 E74.66859
G1 X37.191 Y31.615 E74.67804
G1 X36.267 Y33.344 E74.91277
G1 X36.223 Y33.409 E74.92217
G1 X34.98 Y34.925 E75.1569
G1 X34.925 Y34.98 E75.16622
G1 X33.409 Y36.223 E75.40095
G1 X33.344 Y36.267 E75.41035
G1 X31.615 Y37.191 E75.64508
G1 X31.542 Y37.221 E75.65453
G1 X29.666 Y37.79 E75.88926
G1 X29.589 Y37.805 E75.89866
G1 X27.639 Y37.998 E76.13328
G1 X27.561 Y37.998 E76.14262
G1 X25.61 Y37.805 E76.37737
G1 X25.533 Y37.79 E76.38676
G1 X23.657 Y37.221 E76.62149
G1 X23.584 Y37.191 E76.63094
G1 X21.855 Y36.267 E76.86568
G1 X21.79 Y36.223 E76.87507
G1 X20.274 Y34.98 E77.10981
G1 X20.219 Y34.925 E77.11912
G1 X18.976 Y33.409 E77.35386
G1 X18.932 Y33.344 E77.36326
G1 X18.008 Y31.615 E77.59799
G1 X17.978 Y31.542 E77.60744
G1 X17.409 Y29.666 E77.84217
G1 X17.394 Y29.589 E77.85156
G1 X17.202 Y27.639 E78.08618
G1 X17.202 Y27.561 E78.09552
G1 X17.394 Y25.61 E78.33025
G1 X17.409 Y25.533 E78.33965
G1 X17.978 Y23.657 E78.57438
G1 X18.008 Y23.584 E78.58383
G1 X18.932 Y21.855 E78.81856
G1 X18.976 Y21.79 E78.82796
G1 X20.219 Y20.274 E79.06269
G1 X20.274 Y20.219 E79.07201
G1 X21.79 Y18.976 E79.30674
G1 X21.855 Y18.932 E79.31614
G1 X23.584 Y18.008 E79.55087
G1 X23.657 Y17.978 E79.56032
G1 X25.533 Y17.409 E79.79505
G1 X25.61 Y17.394 E79.80445
G1 X27.56 Y17.202 E80.03906
G1 X27.638 Y17.202 E80.0484
G1 X29.589 Y17.394 E80.28314
G1 X29.666 Y17.409 E80.29253
G1 X31.542 Y17.978 E80.52726
G1 X31.615 Y18.008 E80.53671
G1 X33.344 Y18.932 E80.77144
G1 X33.409 Y18.976 E80.78084
G1 X34.925 Y20.219 E81.01558
G1 X34.98 Y20.274 E81.02489
G1 X36.223 Y21.79 E81.25963
G1 X36.267 Y21.855 E81.26902
G1 X37.191 Y23.584 E81.50376
G1 X37.221 Y23.657 E81.51321
;MESH:Extruder 0.stl
G0 F4800 X36.467 Y23.928
;TYPE:PRIME-TOWER
G1 F1080 X37.013 Y25.729 E81.81366
G1 X37.198 Y27.6 E82.11382
G1 X37.013 Y29.47 E82.41382
G1 X36.467 Y31.271 E82.71427
G1 X35.578 Y32.933 E83.01518
G1 X34.387 Y34.387 E83.31524
G1 X32.933 Y35.578 E83.6153
G1 X31.271 Y36.467 E83.91621
G1 X29.47 Y37.013 E84.21666
G1 X27.6 Y37.198 E84.51666
G1 X25.729 Y37.013 E84.81682
G1 X23.928 Y36.467 E85.11727
G1 X22.266 Y35.578 E85.41818
G1 X20.812 Y34.387 E85.71824
G1 X19.621 Y32.933 E86.01831
G1 X18.732 Y31.271 E86.31922
G1 X18.186 Y29.47 E86.61967
G1 X18.002 Y27.6 E86.91965
G1 X18.186 Y25.729 E87.21979
G1 X18.732 Y23.928 E87.52024
G1 X19.621 Y22.266 E87.82115
G1 X20.812 Y20.812 E88.12122
G1 X22.266 Y19.621 E88.42128
G1 X23.928 Y18.732 E88.72219
G1 X25.729 Y18.186 E89.02264
G1 X27.599 Y18.002 E89.32262
G1 X29.47 Y18.186 E89.62277
G1 X31.271 Y18.732 E89.92322
G1 X32.933 Y19.621 E90.22413
G1 X34.387 Y20.812 E90.52419
G1 X35.578 Y22.266 E90.82425
G1 X36.467 Y23.928 E91.12516
G0 F4800 X35.723 Y24.231
M104 T1 S220
G1 F1080 X36.225 Y25.888 E91.40157
G1 X36.394 Y27.6 E91.67622
G1 X36.225 Y29.311 E91.95071
G1 X35.723 Y30.968 E92.22712
G1 X34.912 Y32.484 E92.5016
G1 X33.818 Y33.818 E92.77703
G1 X32.484 Y34.912 E93.05246
G1 X30.968 Y35.723 E93.32695
G1 X29.311 Y36.225 E93.60336
G1 X27.6 Y36.394 E93.87785
G1 X25.888 Y36.225 E94.15249
G1 X24.231 Y35.723 E94.4289
G1 X22.715 Y34.912 E94.70339
G1 X21.381 Y33.818 E94.97882
G1 X20.287 Y32.484 E95.25425
G1 X19.476 Y30.968 E95.52873
G1 X18.974 Y29.311 E95.80514
G1 X18.806 Y27.6 E96.07961
G1 X18.974 Y25.888 E96.35424
G1 X19.476 Y24.231 E96.63066
G1 X20.287 Y22.715 E96.90514
G1 X21.381 Y21.381 E97.18057
G1 X22.715 Y20.287 E97.456
G1 X24.231 Y19.476 E97.73048
G1 X25.888 Y18.974 E98.00689
G1 X27.599 Y18.806 E98.28136
G1 X29.311 Y18.974 E98.556
G1 X30.968 Y19.476 E98.83241
G1 X32.484 Y20.287 E99.10689
G1 X33.818 Y21.381 E99.38232
G1 X34.912 Y22.715 E99.65775
G1 X35.723 Y24.231 E99.93223
G0 F4800 X34.979 Y24.534
G1 F1080 X35.437 Y26.047 E100.18461
G1 X35.59 Y27.6 E100.43374
G1 X35.437 Y29.152 E100.68272
G1 X34.979 Y30.665 E100.93509
G1 X34.246 Y32.035 E101.18315
G1 X33.249 Y33.249 E101.43394
G1 X32.035 Y34.246 E101.68474
G1 X30.665 Y34.979 E101.93279
G1 X29.152 Y35.437 E102.18517
G1 X27.6 Y35.59 E102.43414
G1 X26.047 Y35.437 E102.68328
G1 X24.534 Y34.979 E102.93565
G1 X23.164 Y34.246 E103.18371
G1 X21.95 Y33.249 E103.4345
G1 X20.953 Y32.035 E103.6853
G1 X20.22 Y30.665 E103.93336
G1 X19.762 Y29.152 E104.18573
G1 X19.61 Y27.6 E104.43469
G1 X19.762 Y26.047 E104.68381
G1 X20.22 Y24.534 E104.93618
G1 X20.953 Y23.164 E105.18424
G1 X21.95 Y21.95 E105.43503
G1 X23.164 Y20.953 E105.68583
G1 X24.534 Y20.22 E105.93389
G1 X26.047 Y19.762 E106.18626
G1 X27.599 Y19.61 E106.43522
G1 X29.152 Y19.762 E106.68434
G1 X30.665 Y20.22 E106.93671
G1 X32.035 Y20.953 E107.18477
G1 X33.249 Y21.95 E107.43556
G1 X34.246 Y23.164 E107.68636
G1 X34.979 Y24.534 E107.93442
G0 F4800 X34.235 Y24.837
G1 F1080 X34.649 Y26.206 E108.16275
G1 X34.786 Y27.6 E108.38637
G1 X34.649 Y28.993 E108.60984
G1 X34.235 Y30.362 E108.83817
G1 X33.579 Y31.586 E109.05988
G1 X32.681 Y32.681 E109.28596
G1 X31.586 Y33.579 E109.51204
G1 X30.362 Y34.235 E109.73375
G1 X28.993 Y34.649 E109.96208
G1 X27.6 Y34.786 E110.18555
G1 X26.206 Y34.649 E110.40917
G1 X24.837 Y34.235 E110.6375
