;FLAVOR:Marlin
;TIME:2367
;Filament used: 4.89638m, 0.669898m
;Layer height: 0.4
;MINX:12.402
;MINY:12.402
;MINZ:0.4
;MAXX:212.609
;MAXY:42.798
;MAXZ:8.5
;Generated with Cura_SteamEngine mb-master-20191116
T0
M140 S70
M105
M190 S70
M104 S220
M104 T1 S175
M105
M109 S220
M105
M109 T1 S175
M82 ;absolute extrusion mode
;Sliced at: Tue 01-09-2020 20:57:27
G21 ;metric values
M107
G28
M420 S1
G90 ;absolute positioning
G92 E0; reset extruder distance
G1 X0 Y0 Z5 F5000 ;move nozzle up 5mm for safe homing
G29;ABL
M500
M82 ;set extruder to absolute mode
M107 ;start with the fan off
G1 X0 Y0 Z15.0 F5000 ;move the platform down 15mm
G92 E0 ;zero the extruded length
G1 F200 E3 ;extrude 3mm of feed stock
G1 F200 E0 ;Retract
G4 S2 ;Wait for material to fall
G1 F200 E3
G92 E0 ;zero the extruded length again
M117 Printing...
G92 E0
T0;WIPE
G91
G1 Z-0.5
G1 X -20 F3000
G1 X40
G1 X-20
G1 Z0.5
G90

G92 E0
G1 F2400 E-1
;LAYER_COUNT:20
;LAYER:0
M107
G1 F600 Z0.9
G0 F4800 X49.519 Y25.099 Z0.9
;TYPE:SKIRT
G1 F600 Z0.4
G1 F2400 E0.02495
G1 F1080 X49.593 Y24.953 E0.04454
G1 X49.981 Y24.256 E0.14006
G1 X50.06 Y24.125 E0.15838
G1 X50.501 Y23.459 E0.25402
G1 X50.596 Y23.328 E0.27339
G1 X51.088 Y22.701 E0.36882
G1 X51.193 Y22.578 E0.38819
G1 X51.735 Y21.992 E0.48376
G1 X51.848 Y21.879 E0.5029
G1 X52.435 Y21.338 E0.59848
G1 X52.553 Y21.237 E0.61708
G1 X53.178 Y20.745 E0.71232
G1 X53.31 Y20.65 E0.73179
G1 X53.977 Y20.208 E0.8276
G1 X54.109 Y20.128 E0.84608
G1 X54.804 Y19.741 E0.94133
G1 X54.95 Y19.667 E0.96093
G1 X55.677 Y19.337 E1.05653
G1 X55.825 Y19.277 E1.07565
G1 X56.576 Y19.006 E1.17125
G1 X56.726 Y18.958 E1.1901
G1 X57.495 Y18.747 E1.28558
G1 X57.656 Y18.71 E1.30536
G1 X58.441 Y18.563 E1.40099
G1 X58.596 Y18.54 E1.41975
G1 X59.389 Y18.455 E1.51525
G1 X59.602 Y18.444 E1.54079
G1 X194.541 Y18.439 E17.69791
G1 X201.643 Y18.439 E18.54828
G1 X202.04 Y18.479 E18.59605
G1 X202.435 Y18.602 E18.64559
G1 X203.008 Y18.849 E18.7203
G1 X203.31 Y19.012 E18.76139
G1 X203.902 Y19.399 E18.84608
G1 X204.135 Y19.576 E18.88111
G1 X204.717 Y20.092 E18.97424
G1 X204.881 Y20.256 E19.00202
G1 X205.462 Y20.906 E19.1064
G1 X205.584 Y21.056 E19.12955
G1 X206.159 Y21.84 E19.24597
G1 X206.221 Y21.93 E19.25905
G1 X206.508 Y22.37 E19.32196
G1 X206.547 Y22.432 E19.33073
G1 X206.832 Y22.906 E19.39695
G1 X206.863 Y22.96 E19.40441
G1 X207.147 Y23.467 E19.47399
G1 X207.173 Y23.514 E19.48042
G1 X207.456 Y24.053 E19.55331
G1 X207.479 Y24.1 E19.55958
G1 X207.761 Y24.673 E19.63604
G1 X207.782 Y24.716 E19.64177
G1 X208.063 Y25.323 E19.72186
G1 X208.079 Y25.359 E19.72658
G1 X208.359 Y25.997 E19.81001
G1 X208.376 Y26.036 E19.8151
G1 X208.654 Y26.708 E19.90218
G1 X208.667 Y26.74 E19.90631
G1 X208.945 Y27.446 E19.99716
G1 X208.956 Y27.476 E20.00099
G1 X209.233 Y28.214 E20.09538
G1 X209.244 Y28.244 E20.0992
G1 X209.519 Y29.014 E20.1971
G1 X209.529 Y29.041 E20.20055
G1 X209.804 Y29.847 E20.30252
G1 X209.812 Y29.873 E20.30578
G1 X210.085 Y30.71 E20.41119
G1 X210.093 Y30.733 E20.41411
G1 X210.365 Y31.603 E20.52325
G1 X210.372 Y31.626 E20.52613
G1 X210.643 Y32.53 E20.63913
G1 X210.648 Y32.548 E20.64137
G1 X210.919 Y33.484 E20.75804
G1 X210.925 Y33.504 E20.76054
G1 X211.195 Y34.474 E20.8811
G1 X211.201 Y34.496 E20.88383
G1 X211.468 Y35.5 E21.00823
G1 X211.472 Y35.514 E21.00997
G1 X211.739 Y36.549 E21.13796
G1 X211.743 Y36.566 E21.14005
G1 X212.009 Y37.635 E21.27195
G1 X212.013 Y37.65 E21.27381
G1 X212.278 Y38.752 E21.40952
G1 X212.281 Y38.767 E21.41135
G1 X212.541 Y39.886 E21.5489
G1 X212.548 Y39.912 E21.55213
G1 X212.609 Y40.307 E21.59998
G1 X212.59 Y40.706 E21.64781
G1 X212.493 Y41.093 E21.69559
G1 X212.32 Y41.454 E21.74352
G1 X212.079 Y41.772 E21.79129
G1 X211.78 Y42.037 E21.83913
G1 X211.434 Y42.236 E21.88692
G1 X211.055 Y42.363 E21.93478
G1 X210.612 Y42.413 E21.98816
G1 X68.111 Y42.413 E39.05073
G1 X59.813 Y42.408 E40.04431
G1 X59.644 Y42.401 E40.06456
G1 X58.849 Y42.333 E40.1601
G1 X58.692 Y42.313 E40.17905
G1 X57.943 Y42.189 E40.26995
G1 X57.79 Y42.157 E40.28867
G1 X57.018 Y41.966 E40.38389
G1 X56.867 Y41.923 E40.40269
G1 X56.109 Y41.671 E40.49833
G1 X55.959 Y41.614 E40.51755
G1 X55.226 Y41.303 E40.61289
G1 X55.082 Y41.235 E40.63196
G1 X54.373 Y40.865 E40.72771
G1 X54.233 Y40.785 E40.74702
G1 X53.559 Y40.361 E40.84236
G1 X53.43 Y40.272 E40.86113
G1 X52.789 Y39.795 E40.9568
G1 X52.663 Y39.694 E40.97613
G1 X52.064 Y39.168 E41.07158
G1 X51.949 Y39.058 E41.09064
G1 X51.393 Y38.485 E41.18624
G1 X51.287 Y38.367 E41.20523
G1 X50.778 Y37.752 E41.30082
G1 X50.681 Y37.625 E41.31995
G1 X50.224 Y36.973 E41.41529
G1 X50.136 Y36.836 E41.43478
G1 X49.733 Y36.148 E41.53026
G1 X49.659 Y36.008 E41.54922
G1 X49.311 Y35.289 E41.64486
G1 X49.248 Y35.146 E41.66357
G1 X48.958 Y34.404 E41.75896
G1 X48.905 Y34.251 E41.77835
G1 X48.676 Y33.488 E41.87373
G1 X48.637 Y33.334 E41.89275
G1 X48.469 Y32.553 E41.98841
G1 X48.441 Y32.395 E42.00762
G1 X48.336 Y31.604 E42.10316
G1 X48.322 Y31.447 E42.12204
G1 X48.28 Y30.653 E42.21724
G1 X48.278 Y30.497 E42.23592
G1 X48.298 Y29.699 E42.3315
G1 X48.308 Y29.536 E42.35105
G1 X48.393 Y28.743 E42.44655
G1 X48.417 Y28.585 E42.46568
G1 X48.565 Y27.8 E42.56133
G1 X48.601 Y27.644 E42.5805
G1 X48.811 Y26.875 E42.67595
G1 X48.858 Y26.724 E42.69489
G1 X49.129 Y25.972 E42.7906
G1 X49.19 Y25.823 E42.80988
G1 X49.519 Y25.099 E42.9051
G0 F4800 X50.248 Y25.43
G1 F1080 X50.292 Y25.342 E42.91688
G1 X50.68 Y24.645 E43.01239
G1 X50.727 Y24.566 E43.0234
G1 X51.168 Y23.9 E43.11904
G1 X51.225 Y23.822 E43.13061
G1 X51.717 Y23.195 E43.22604
G1 X51.78 Y23.121 E43.23767
G1 X52.322 Y22.535 E43.33325
G1 X52.39 Y22.468 E43.34468
G1 X52.977 Y21.927 E43.44026
G1 X53.048 Y21.866 E43.45147
G1 X53.673 Y21.374 E43.54671
G1 X53.752 Y21.317 E43.55838
G1 X54.419 Y20.875 E43.65418
G1 X54.498 Y20.827 E43.66525
G1 X55.193 Y20.44 E43.7605
G1 X55.281 Y20.395 E43.77234
G1 X56.008 Y20.065 E43.86793
G1 X56.097 Y20.029 E43.87943
G1 X56.848 Y19.758 E43.97503
G1 X56.937 Y19.73 E43.9862
G1 X57.706 Y19.519 E44.08168
G1 X57.803 Y19.497 E44.09359
G1 X58.588 Y19.35 E44.18921
G1 X58.681 Y19.336 E44.20047
G1 X59.474 Y19.251 E44.29597
G1 X59.602 Y19.244 E44.31132
G1 X194.541 Y19.239 E60.46844
G1 X201.643 Y19.239 E61.31881
G1 X201.95 Y19.279 E61.35588
G1 X202.118 Y19.337 E61.37716
G1 X202.691 Y19.584 E61.45187
G1 X202.873 Y19.682 E61.47662
G1 X203.465 Y20.069 E61.56131
G1 X203.604 Y20.175 E61.58224
G1 X204.186 Y20.691 E61.67537
G1 X204.285 Y20.789 E61.69205
G1 X204.866 Y21.439 E61.79644
G1 X204.939 Y21.529 E61.81031
G1 X205.514 Y22.313 E61.92673
G1 X205.551 Y22.367 E61.93457
G1 X205.838 Y22.807 E61.99747
G1 X205.861 Y22.845 E62.00279
G1 X206.146 Y23.319 E62.06901
G1 X206.165 Y23.351 E62.07347
G1 X206.449 Y23.858 E62.14305
G1 X206.464 Y23.886 E62.14685
G1 X206.747 Y24.425 E62.21974
G1 X206.762 Y24.453 E62.22355
G1 X207.044 Y25.026 E62.30001
G1 X207.056 Y25.052 E62.30344
G1 X207.337 Y25.659 E62.38353
G1 X207.347 Y25.681 E62.38643
G1 X207.627 Y26.319 E62.46985
G1 X207.637 Y26.342 E62.47286
G1 X207.915 Y27.014 E62.55993
G1 X207.923 Y27.033 E62.5624
G1 X208.201 Y27.739 E62.65325
G1 X208.207 Y27.757 E62.65552
G1 X208.484 Y28.495 E62.74991
G1 X208.491 Y28.513 E62.75222
G1 X208.766 Y29.283 E62.85012
G1 X208.772 Y29.3 E62.85228
G1 X209.047 Y30.106 E62.95425
G1 X209.052 Y30.121 E62.95614
G1 X209.325 Y30.958 E63.06156
G1 X209.329 Y30.972 E63.0633
G1 X209.601 Y31.842 E63.17245
G1 X209.605 Y31.855 E63.17407
G1 X209.876 Y32.759 E63.28708
G1 X209.88 Y32.77 E63.28848
G1 X210.151 Y33.706 E63.40515
G1 X210.154 Y33.718 E63.40663
G1 X210.424 Y34.688 E63.52719
G1 X210.428 Y34.702 E63.52894
G1 X210.695 Y35.706 E63.65333
G1 X210.697 Y35.714 E63.65432
G1 X210.964 Y36.749 E63.7823
G1 X210.966 Y36.759 E63.78352
G1 X211.232 Y37.828 E63.91543
G1 X211.235 Y37.837 E63.91656
G1 X211.5 Y38.939 E64.05227
G1 X211.502 Y38.948 E64.05338
G1 X211.759 Y40.055 E64.18945
G1 X211.774 Y40.113 E64.19662
G1 X211.812 Y40.419 E64.23354
G1 X211.771 Y40.726 E64.27063
G1 X211.652 Y41.011 E64.30761
G1 X211.465 Y41.257 E64.34461
G1 X211.221 Y41.447 E64.38164
G1 X210.936 Y41.568 E64.41871
G1 X210.612 Y41.613 E64.45788
G1 X68.112 Y41.613 E81.52033
G1 X59.814 Y41.608 E82.5139
G1 X59.712 Y41.604 E82.52612
G1 X58.917 Y41.536 E82.62166
G1 X58.823 Y41.524 E82.63301
G1 X58.074 Y41.4 E82.72391
G1 X57.982 Y41.381 E82.73516
G1 X57.21 Y41.19 E82.83038
G1 X57.119 Y41.164 E82.84171
G1 X56.361 Y40.912 E82.93736
G1 X56.271 Y40.878 E82.94888
G1 X55.538 Y40.567 E83.04422
G1 X55.452 Y40.526 E83.05563
G1 X54.743 Y40.156 E83.15138
G1 X54.659 Y40.108 E83.16297
G1 X53.985 Y39.684 E83.25831
G1 X53.908 Y39.631 E83.2695
G1 X53.267 Y39.154 E83.36517
G1 X53.191 Y39.093 E83.37684
G1 X52.592 Y38.567 E83.47229
G1 X52.523 Y38.501 E83.48373
G1 X51.967 Y37.928 E83.57932
G1 X51.904 Y37.857 E83.59069
G1 X51.395 Y37.242 E83.68628
G1 X51.336 Y37.166 E83.6978
G1 X50.879 Y36.514 E83.79313
G1 X50.827 Y36.432 E83.80476
G1 X50.424 Y35.744 E83.90023
G1 X50.379 Y35.66 E83.91164
G1 X50.031 Y34.941 E84.00728
G1 X49.993 Y34.855 E84.01854
G1 X49.703 Y34.113 E84.11393
G1 X49.672 Y34.021 E84.12556
G1 X49.443 Y33.258 E84.22094
G1 X49.419 Y33.165 E84.23244
G1 X49.251 Y32.384 E84.32809
G1 X49.234 Y32.29 E84.33953
G1 X49.129 Y31.499 E84.43507
G1 X49.121 Y31.404 E84.44649
G1 X49.079 Y30.61 E84.54169
G1 X49.077 Y30.517 E84.55283
G1 X49.097 Y29.719 E84.64841
G1 X49.104 Y29.621 E84.66018
G1 X49.189 Y28.828 E84.75567
G1 X49.203 Y28.734 E84.76705
G1 X49.351 Y27.949 E84.8627
G1 X49.372 Y27.855 E84.87423
G1 X49.582 Y27.086 E84.96968
G1 X49.611 Y26.995 E84.98112
G1 X49.882 Y26.243 E85.07683
G1 X49.919 Y26.154 E85.08837
G1 X50.248 Y25.43 E85.18359
G0 F4800 X50.976 Y25.761
G1 F1080 X50.991 Y25.731 E85.1876
G1 X51.379 Y25.034 E85.28312
G1 X51.394 Y25.008 E85.28671
G1 X51.835 Y24.342 E85.38236
G1 X51.854 Y24.316 E85.38621
G1 X52.346 Y23.689 E85.48164
G1 X52.367 Y23.664 E85.48555
G1 X52.909 Y23.078 E85.58113
G1 X52.932 Y23.056 E85.58494
G1 X53.519 Y22.515 E85.68052
G1 X53.543 Y22.495 E85.68426
G1 X54.168 Y22.003 E85.7795
G1 X54.194 Y21.984 E85.78336
G1 X54.861 Y21.542 E85.87917
G1 X54.887 Y21.526 E85.88282
G1 X55.582 Y21.139 E85.97807
G1 X55.612 Y21.124 E85.98209
G1 X56.339 Y20.794 E86.07768
G1 X56.368 Y20.782 E86.08144
G1 X57.119 Y20.511 E86.17704
G1 X57.149 Y20.501 E86.18082
G1 X57.918 Y20.29 E86.2763
G1 X57.95 Y20.283 E86.28023
G1 X58.735 Y20.136 E86.37585
G1 X58.766 Y20.131 E86.37961
G1 X59.559 Y20.046 E86.47511
G1 X59.602 Y20.044 E86.48026
G1 X194.541 Y20.039 E102.63738
G1 X201.643 Y20.039 E103.48775
G1 X201.801 Y20.072 E103.50708
G1 X202.374 Y20.319 E103.58179
G1 X202.435 Y20.351 E103.59004
G1 X203.027 Y20.738 E103.67473
G1 X203.073 Y20.774 E103.68172
G1 X203.655 Y21.29 E103.77485
G1 X203.688 Y21.322 E103.78035
G1 X204.269 Y21.972 E103.88474
G1 X204.294 Y22.002 E103.88942
G1 X204.869 Y22.786 E104.00583
G1 X204.881 Y22.804 E104.00842
G1 X205.168 Y23.244 E104.07132
G1 X205.176 Y23.257 E104.07315
G1 X205.461 Y23.731 E104.13938
G1 X205.467 Y23.742 E104.14088
G1 X205.751 Y24.249 E104.21046
G1 X205.756 Y24.258 E104.21169
G1 X206.039 Y24.797 E104.28458
G1 X206.044 Y24.806 E104.28582
G1 X206.326 Y25.379 E104.36228
G1 X206.33 Y25.388 E104.36346
G1 X206.611 Y25.995 E104.44355
G1 X206.614 Y26.002 E104.44447
G1 X206.894 Y26.64 E104.52789
G1 X206.898 Y26.648 E104.52896
G1 X207.176 Y27.32 E104.61604
G1 X207.178 Y27.326 E104.6168
G1 X207.456 Y28.032 E104.70765
G1 X207.458 Y28.038 E104.7084
G1 X207.735 Y28.776 E104.80279
G1 X207.738 Y28.782 E104.80359
G1 X208.013 Y29.552 E104.90149
G1 X208.015 Y29.558 E104.90225
G1 X208.29 Y30.364 E105.00422
G1 X208.291 Y30.369 E105.00483
G1 X208.564 Y31.206 E105.11025
G1 X208.566 Y31.211 E105.11089
G1 X208.838 Y32.081 E105.22003
G1 X209.11 Y32.989 E105.33353
G1 X209.382 Y33.929 E105.4507
G1 X209.653 Y34.903 E105.57175
G1 X209.922 Y35.911 E105.69667
G1 X210.189 Y36.949 E105.825
G1 X210.456 Y38.021 E105.95728
G1 X210.722 Y39.126 E106.09337
G1 X210.987 Y40.264 E106.23328
G1 X210.999 Y40.313 E106.23932
G1 X211.004 Y40.491 E106.26064
G1 X210.932 Y40.653 E106.28186
G1 X210.797 Y40.768 E106.3031
G1 X210.612 Y40.813 E106.3259
G1 X68.112 Y40.813 E123.38834
G1 X59.814 Y40.808 E124.38192
G1 X59.78 Y40.807 E124.38599
G1 X58.985 Y40.739 E124.48153
G1 X58.954 Y40.735 E124.48527
G1 X58.205 Y40.611 E124.57617
G1 X58.174 Y40.604 E124.57998
G1 X57.402 Y40.413 E124.6752
G1 X57.372 Y40.405 E124.67892
G1 X56.614 Y40.153 E124.77457
G1 X56.584 Y40.141 E124.77843
G1 X55.851 Y39.83 E124.87377
G1 X55.822 Y39.817 E124.87758
G1 X55.113 Y39.447 E124.97334
G1 X55.085 Y39.431 E124.9772
G1 X54.411 Y39.007 E125.07254
G1 X54.385 Y38.989 E125.07633
G1 X53.744 Y38.512 E125.172
G1 X53.719 Y38.492 E125.17583
G1 X53.12 Y37.966 E125.27128
G1 X53.097 Y37.944 E125.27509
G1 X52.541 Y37.371 E125.37069
G1 X52.52 Y37.347 E125.37451
G1 X52.011 Y36.732 E125.4701
G1 X51.991 Y36.707 E125.47393
G1 X51.534 Y36.055 E125.56927
G1 X51.517 Y36.027 E125.57319
G1 X51.114 Y35.339 E125.66866
G1 X51.099 Y35.311 E125.67246
G1 X50.751 Y34.592 E125.76811
G1 X50.738 Y34.564 E125.7718
G1 X50.448 Y33.822 E125.86719
G1 X50.438 Y33.791 E125.87109
G1 X50.209 Y33.028 E125.96648
G1 X50.201 Y32.997 E125.97031
G1 X50.033 Y32.216 E126.06597
G1 X50.027 Y32.185 E126.06975
G1 X49.922 Y31.394 E126.16529
G1 X49.92 Y31.362 E126.16913
G1 X49.878 Y30.568 E126.26433
G1 X49.877 Y30.537 E126.26804
G1 X49.897 Y29.739 E126.36362
G1 X49.899 Y29.706 E126.36758
G1 X49.984 Y28.913 E126.46308
G1 X49.989 Y28.882 E126.46684
G1 X50.137 Y28.097 E126.56249
G1 X50.144 Y28.066 E126.56629
G1 X50.354 Y27.297 E126.66174
G1 X50.364 Y27.266 E126.66564
G1 X50.635 Y26.514 E126.76135
G1 X50.647 Y26.485 E126.76511
G1 X50.976 Y25.761 E126.86033
G1 F2400 E125.86033
G1 F600 Z0.9
G0 F4800 X40.193 Y25.373 Z0.9
G1 F600 Z0.4
G1 F2400 E126.88527
G1 F1080 X40.386 Y27.324 E127.12002
G1 X40.386 Y27.876 E127.18612
G1 X40.193 Y29.826 E127.42074
G1 X40.086 Y30.363 E127.4863
G1 X39.517 Y32.239 E127.72104
G1 X39.307 Y32.746 E127.78674
G1 X38.383 Y34.475 E128.02148
G1 X38.079 Y34.93 E128.087
G1 X36.836 Y36.446 E128.32173
G1 X36.446 Y36.836 E128.38777
G1 X34.93 Y38.079 E128.62251
G1 X34.475 Y38.383 E128.68803
G1 X32.746 Y39.307 E128.92276
G1 X32.239 Y39.517 E128.98847
G1 X30.363 Y40.086 E129.2232
G1 X29.826 Y40.193 E129.28876
G1 X27.876 Y40.386 E129.52339
G1 X27.324 Y40.386 E129.58948
G1 X25.373 Y40.193 E129.82423
G1 X24.836 Y40.086 E129.88979
G1 X22.96 Y39.517 E130.12452
G1 X22.453 Y39.307 E130.19023
G1 X20.724 Y38.383 E130.42496
G1 X20.269 Y38.079 E130.49049
G1 X18.753 Y36.836 E130.72522
G1 X18.363 Y36.446 E130.79126
G1 X17.12 Y34.93 E131.026
G1 X16.816 Y34.475 E131.09152
G1 X15.892 Y32.746 E131.32625
G1 X15.682 Y32.239 E131.39196
G1 X15.113 Y30.363 E131.62669
G1 X15.005 Y29.824 E131.69251
G1 X14.813 Y27.874 E131.92712
G1 X14.813 Y27.326 E131.99274
G1 X15.005 Y25.375 E132.22747
G1 X15.113 Y24.836 E132.2933
G1 X15.682 Y22.96 E132.52803
G1 X15.892 Y22.453 E132.59373
G1 X16.816 Y20.724 E132.82847
G1 X17.12 Y20.269 E132.89399
G1 X18.363 Y18.753 E133.12872
G1 X18.753 Y18.363 E133.19476
G1 X20.269 Y17.12 E133.4295
G1 X20.724 Y16.816 E133.49502
G1 X22.453 Y15.892 E133.72975
G1 X22.96 Y15.682 E133.79546
G1 X24.836 Y15.113 E134.03019
G1 X25.375 Y15.005 E134.09601
G1 X27.325 Y14.813 E134.33063
G1 X27.873 Y14.813 E134.39624
G1 X29.824 Y15.005 E134.63098
G1 X30.363 Y15.113 E134.6968
G1 X32.239 Y15.682 E134.93153
G1 X32.746 Y15.892 E134.99724
G1 X34.475 Y16.816 E135.23197
G1 X34.93 Y17.12 E135.29749
G1 X36.446 Y18.363 E135.53223
G1 X36.836 Y18.753 E135.59827
G1 X38.079 Y20.269 E135.833
G1 X38.383 Y20.724 E135.89852
G1 X39.307 Y22.453 E136.13326
G1 X39.517 Y22.96 E136.19896
G1 X40.086 Y24.836 E136.43369
G1 X40.193 Y25.373 E136.49926
G0 F4800 X39.397 Y25.452
G1 F1080 X39.59 Y27.403 E136.734
G1 X39.59 Y27.797 E136.78118
G1 X39.397 Y29.747 E137.01581
G1 X39.321 Y30.13 E137.06256
G1 X38.752 Y32.006 E137.29729
G1 X38.602 Y32.369 E137.34432
G1 X37.678 Y34.098 E137.57905
G1 X37.461 Y34.423 E137.62584
G1 X36.218 Y35.939 E137.86058
G1 X35.939 Y36.218 E137.90782
G1 X34.423 Y37.461 E138.14256
G1 X34.098 Y37.678 E138.18935
G1 X32.369 Y38.602 E138.42408
G1 X32.006 Y38.752 E138.47111
G1 X30.13 Y39.321 E138.70584
G1 X29.747 Y39.397 E138.7526
