;FLAVOR:Marlin
;TIME:2979
;Filament used: 6.33106m, 0m
;Layer height: 0.4
;MINX:3
;MINY:3
;MINZ:0.4
;MAXX:397
;MAXY:397
;MAXZ:1.3
;Generated with Cura_SteamEngine mb-master-20191116
T0
M140 S70
M105
M190 S70
M104 S220
M105
M109 S220
M82 ;absolute extrusion mode
;Sliced at: Tue 01-09-2020 21:07:27
G21 ;metric values
M107
G28
M420 S1
G90 ;absolute positioning
G92 E0; reset extruder distance
G1 X0 Y0 Z5 F5000 ;move nozzle up 5mm for safe homing
G29;ABL
M500
M82 ;set extruder to absolute mode
M107 ;start with the fan off
G1 X0 Y0 Z15.0 F5000 ;move the platform down 15mm
G92 E0 ;zero the extruded length
G1 F200 E3 ;extrude 3mm of feed stock
G1 F200 E0 ;Retract
G4 S2 ;Wait for material to fall
G1 F200 E3
G92 E0 ;zero the extruded length again
M117 Printing...
G92 E0
T0;WIPE
G91
G1 Z-0.5
G1 X -20 F3000
G1 X40
G1 X-20
G1 Z0.5
G90

G92 E0
G1 F2400 E-1
;LAYER_COUNT:2
;LAYER:0
M107
G1 F600 Z0.9
G0 F4800 X344.408 Y174.846 Z0.9
;TYPE:SKIRT
G1 F600 Z0.4
G1 F2400 E0.02495
G1 F1080 X344.6 Y174.495 E0.07285
G1 X344.857 Y174.19 E0.12061
G1 X345.17 Y173.942 E0.16842
G1 X345.526 Y173.761 E0.21624
G1 X345.911 Y173.654 E0.26409
G1 X346.25 Y173.625 E0.30482
G1 X395 Y173.625 E6.14198
G1 X395.398 Y173.665 E6.18987
G1 X395.779 Y173.783 E6.23763
G1 X396.13 Y173.975 E6.28554
G1 X396.435 Y174.232 E6.33329
G1 X396.683 Y174.545 E6.38111
G1 X396.864 Y174.901 E6.42893
G1 X396.971 Y175.286 E6.47677
G1 X397 Y175.625 E6.51751
G1 X397 Y224.375 E12.35466
G1 X396.96 Y224.773 E12.40256
G1 X396.842 Y225.154 E12.45032
G1 X396.65 Y225.505 E12.49822
G1 X396.393 Y225.81 E12.54598
G1 X396.08 Y226.058 E12.59379
G1 X395.724 Y226.239 E12.64161
G1 X395.339 Y226.346 E12.68946
G1 X395 Y226.375 E12.7302
G1 X346.25 Y226.375 E18.56735
G1 X345.852 Y226.335 E18.61525
G1 X345.471 Y226.217 E18.663
G1 X345.12 Y226.025 E18.71091
G1 X344.815 Y225.768 E18.75866
G1 X344.567 Y225.455 E18.80648
G1 X344.386 Y225.099 E18.8543
G1 X344.279 Y224.714 E18.90214
G1 X344.25 Y224.375 E18.94288
G1 X344.25 Y175.625 E24.78004
G1 X344.29 Y175.227 E24.82793
G1 X344.408 Y174.846 E24.87569
G0 F4800 X345.207 Y175.032
G1 F1080 X345.393 Y174.785 E24.91271
G1 X345.636 Y174.594 E24.94972
G1 X345.92 Y174.471 E24.98678
G1 X346.25 Y174.425 E25.02667
G1 X395 Y174.425 E30.86383
G1 X395.307 Y174.465 E30.9009
G1 X395.593 Y174.582 E30.9379
G1 X395.84 Y174.768 E30.97492
G1 X396.031 Y175.011 E31.01193
G1 X396.154 Y175.295 E31.04898
G1 X396.2 Y175.625 E31.08888
G1 X396.2 Y224.375 E36.92603
G1 X396.16 Y224.682 E36.9631
G1 X396.043 Y224.968 E37.0001
G1 X395.857 Y225.215 E37.03712
G1 X395.614 Y225.406 E37.07413
G1 X395.33 Y225.529 E37.11119
G1 X395 Y225.575 E37.15108
G1 X346.25 Y225.575 E42.98824
G1 X345.943 Y225.535 E43.02531
G1 X345.657 Y225.418 E43.06231
G1 X345.41 Y225.232 E43.09933
G1 X345.219 Y224.989 E43.13634
G1 X345.096 Y224.705 E43.1734
G1 X345.05 Y224.375 E43.21329
G1 X345.05 Y175.625 E49.05044
G1 X345.09 Y175.318 E49.08751
G1 X345.207 Y175.032 E49.12451
G0 F4800 X345.89 Y175.452
G1 F1080 X346 Y175.313 E49.14574
G1 X346.16 Y175.235 E49.16705
G1 X346.25 Y175.225 E49.17789
G1 X395 Y175.225 E55.01505
G1 X395.173 Y175.265 E55.03631
G1 X395.312 Y175.375 E55.05753
G1 X395.39 Y175.535 E55.07885
G1 X395.4 Y175.625 E55.08969
G1 X395.4 Y224.375 E60.92684
G1 X395.361 Y224.548 E60.94808
G1 X395.25 Y224.687 E60.96938
G1 X395.09 Y224.765 E60.99069
G1 X395 Y224.775 E61.00153
G1 X346.25 Y224.775 E66.83868
G1 X346.077 Y224.736 E66.85992
G1 X345.938 Y224.625 E66.88122
G1 X345.86 Y224.465 E66.90253
G1 X345.85 Y224.375 E66.91337
G1 X345.85 Y175.625 E72.75053
G1 X345.89 Y175.452 E72.77179
G1 F2400 E71.77179
G1 F600 Z0.9
G0 F4800 X347.869 Y177.244 Z0.9
G1 F600 Z0.4
G1 F2400 E72.79673
G1 F1080 X347.869 Y222.756 E78.24618
G1 X393.381 Y222.756 E83.69563
G1 X393.381 Y177.244 E89.14507
G1 X347.869 Y177.244 E94.59452
G0 F4800 X348.669 Y178.044
G1 F1080 X348.669 Y221.956 E99.85239
G1 X392.581 Y221.956 E105.11026
G1 X392.581 Y178.044 E110.36813
G1 X348.669 Y178.044 E115.626
G1 F2400 E114.626
G1 F600 Z0.9
G0 F4800 X350.268 Y179.66 Z0.9
G1 F600 Z0.4
G1 F2400 E115.65094
G1 F1080 X350.511 Y179.469 E115.68795
G1 X350.795 Y179.346 E115.72501
G1 X351.125 Y179.3 E115.7649
G1 X390.125 Y179.3 E120.43462
G1 X390.432 Y179.34 E120.47169
G1 X390.718 Y179.457 E120.50869
G1 X390.965 Y179.643 E120.54572
G1 X391.156 Y179.886 E120.58272
G1 X391.279 Y180.17 E120.61978
G1 X391.325 Y180.5 E120.65968
G1 X391.325 Y219.5 E125.3294
G1 X391.285 Y219.807 E125.36647
G1 X391.168 Y220.093 E125.40347
G1 X390.982 Y220.34 E125.44049
G1 X390.739 Y220.531 E125.4775
G1 X390.455 Y220.654 E125.51456
G1 X390.125 Y220.7 E125.55445
G1 X351.125 Y220.7 E130.22417
G1 X350.818 Y220.66 E130.26124
G1 X350.532 Y220.543 E130.29824
G1 X350.285 Y220.357 E130.33527
G1 X350.094 Y220.114 E130.37227
G1 X349.971 Y219.83 E130.40933
G1 X349.925 Y219.5 E130.44923
G1 X349.925 Y180.5 E135.11895
G1 X349.965 Y180.193 E135.15602
G1 X350.082 Y179.907 E135.19302
G1 X350.268 Y179.66 E135.23004
G0 F4800 X350.875 Y180.188
G1 F1080 X351.035 Y180.11 E135.25135
G1 X351.125 Y180.1 E135.2622
G1 X390.125 Y180.1 E139.93192
G1 X390.298 Y180.14 E139.95318
G1 X390.437 Y180.25 E139.97441
G1 X390.515 Y180.41 E139.99572
G1 X390.525 Y180.5 E140.00656
G1 X390.525 Y219.5 E144.67628
G1 X390.486 Y219.673 E144.69752
G1 X390.375 Y219.812 E144.71882
G1 X390.215 Y219.89 E144.74013
G1 X390.125 Y219.9 E144.75097
G1 X351.125 Y219.9 E149.4207
G1 X350.952 Y219.861 E149.44193
G1 X350.813 Y219.75 E149.46323
G1 X350.735 Y219.59 E149.48454
G1 X350.725 Y219.5 E149.49539
G1 X350.725 Y180.5 E154.16511
G1 X350.765 Y180.327 E154.18637
G1 X350.875 Y180.188 E154.20759
G1 F2400 E153.20759
G1 F600 Z0.9
G0 F4800 X346.25 Y55.75 Z0.9
G1 F600 Z0.4
G1 F2400 E154.23254
G1 F1080 X345.852 Y55.71 E154.28043
G1 X345.471 Y55.592 E154.32819
G1 X345.12 Y55.4 E154.3761
G1 X344.815 Y55.143 E154.42385
G1 X344.567 Y54.83 E154.47167
G1 X344.386 Y54.474 E154.51949
G1 X344.279 Y54.089 E154.56733
G1 X344.25 Y53.75 E154.60807
G1 X344.25 Y5 E160.44522
G1 X344.29 Y4.602 E160.49312
G1 X344.408 Y4.221 E160.54088
G1 X344.6 Y3.87 E160.58878
G1 X344.857 Y3.565 E160.63654
G1 X345.17 Y3.317 E160.68435
G1 X345.526 Y3.136 E160.73217
G1 X345.911 Y3.029 E160.78002
G1 X346.25 Y3 E160.82076
G1 X395 Y3 E166.65791
G1 X395.398 Y3.04 E166.70581
G1 X395.779 Y3.158 E166.75356
G1 X396.13 Y3.35 E166.80147
G1 X396.435 Y3.607 E166.84922
G1 X396.683 Y3.92 E166.89704
G1 X396.864 Y4.276 E166.94486
G1 X396.971 Y4.661 E166.9927
G1 X397 Y5 E167.03344
G1 X397 Y53.75 E172.8706
G1 X396.96 Y54.148 E172.91849
G1 X396.842 Y54.529 E172.96625
G1 X396.65 Y54.88 E173.01415
G1 X396.393 Y55.185 E173.06191
G1 X396.08 Y55.433 E173.10973
G1 X395.724 Y55.614 E173.15754
G1 X395.339 Y55.721 E173.20539
G1 X395 Y55.75 E173.24613
G1 X346.25 Y55.75 E179.08328
G0 F4800 X346.25 Y54.95
G1 F1080 X345.943 Y54.91 E179.12035
G1 X345.657 Y54.793 E179.15735
G1 X345.41 Y54.607 E179.19437
G1 X345.219 Y54.364 E179.23138
G1 X345.096 Y54.08 E179.26844
G1 X345.05 Y53.75 E179.30834
G1 X345.05 Y5 E185.14549
G1 X345.09 Y4.693 E185.18256
G1 X345.207 Y4.407 E185.21956
G1 X345.393 Y4.16 E185.25658
G1 X345.636 Y3.969 E185.29359
G1 X345.92 Y3.846 E185.33065
G1 X346.25 Y3.8 E185.37054
G1 X395 Y3.8 E191.20769
G1 X395.307 Y3.84 E191.24476
G1 X395.593 Y3.957 E191.28176
G1 X395.84 Y4.143 E191.31879
G1 X396.031 Y4.386 E191.35579
G1 X396.154 Y4.67 E191.39285
G1 X396.2 Y5 E191.43275
G1 X396.2 Y53.75 E197.2699
G1 X396.16 Y54.057 E197.30697
G1 X396.043 Y54.343 E197.34397
G1 X395.857 Y54.59 E197.38099
G1 X395.614 Y54.781 E197.418
G1 X395.33 Y54.904 E197.45506
G1 X395 Y54.95 E197.49495
G1 X346.25 Y54.95 E203.33211
G0 F4800 X346.25 Y54.15
G1 F1080 X346.077 Y54.111 E203.35334
G1 X345.938 Y54 E203.37464
G1 X345.86 Y53.84 E203.39595
G1 X345.85 Y53.75 E203.4068
G1 X345.85 Y5 E209.24395
G1 X345.89 Y4.827 E209.26521
G1 X346 Y4.688 E209.28643
G1 X346.16 Y4.61 E209.30775
G1 X346.25 Y4.6 E209.31859
G1 X395 Y4.6 E215.15574
G1 X395.173 Y4.64 E215.17701
G1 X395.312 Y4.75 E215.19823
G1 X395.39 Y4.91 E215.21954
G1 X395.4 Y5 E215.23039
G1 X395.4 Y53.75 E221.06754
G1 X395.361 Y53.923 E221.08877
G1 X395.25 Y54.062 E221.11007
G1 X395.09 Y54.14 E221.13139
G1 X395 Y54.15 E221.14223
G1 X346.25 Y54.15 E226.97938
G1 F2400 E225.97938
G1 F600 Z0.9
G0 F4800 X347.869 Y52.131 Z0.9
G1 F600 Z0.4
G1 F2400 E227.00433
G1 F1080 X393.381 Y52.131 E232.45377
G1 X393.381 Y6.619 E237.90322
G1 X347.869 Y6.619 E243.35267
G1 X347.869 Y52.131 E248.80211
G0 F4800 X348.669 Y51.331
G1 F1080 X392.581 Y51.331 E254.05998
G1 X392.581 Y7.419 E259.31785
G1 X348.669 Y7.419 E264.57572
G1 X348.669 Y51.331 E269.83359
G1 F2400 E268.83359
G1 F600 Z0.9
G0 F4800 X351.125 Y50.075 Z0.9
G1 F600 Z0.4
G1 F2400 E269.85853
G1 F1080 X350.818 Y50.035 E269.8956
G1 X350.532 Y49.918 E269.9326
G1 X350.285 Y49.732 E269.96963
G1 X350.094 Y49.489 E270.00663
G1 X349.971 Y49.205 E270.04369
G1 X349.925 Y48.875 E270.08359
G1 X349.925 Y9.875 E274.75331
G1 X349.965 Y9.568 E274.79038
G1 X350.082 Y9.282 E274.82738
G1 X350.268 Y9.035 E274.8644
G1 X350.511 Y8.844 E274.90141
G1 X350.795 Y8.721 E274.93847
G1 X351.125 Y8.675 E274.97836
G1 X390.125 Y8.675 E279.64808
G1 X390.432 Y8.715 E279.68515
G1 X390.718 Y8.832 E279.72215
G1 X390.965 Y9.018 E279.75918
G1 X391.156 Y9.261 E279.79618
G1 X391.279 Y9.545 E279.83324
G1 X391.325 Y9.875 E279.87314
G1 X391.325 Y48.875 E284.54286
G1 X391.285 Y49.182 E284.57993
G1 X391.168 Y49.468 E284.61693
G1 X390.982 Y49.715 E284.65395
G1 X390.739 Y49.906 E284.69096
G1 X390.455 Y50.029 E284.72802
G1 X390.125 Y50.075 E284.76791
G1 X351.125 Y50.075 E289.43763
G0 F4800 X351.125 Y49.275
G1 F1080 X350.952 Y49.236 E289.45887
G1 X350.813 Y49.125 E289.48017
G1 X350.735 Y48.965 E289.50148
G1 X350.725 Y48.875 E289.51232
G1 X350.725 Y9.875 E294.18205
G1 X350.765 Y9.702 E294.20331
G1 X350.875 Y9.563 E294.22453
G1 X351.035 Y9.485 E294.24585
G1 X351.125 Y9.475 E294.25669
G1 X390.125 Y9.475 E298.92641
G1 X390.298 Y9.515 E298.94767
G1 X390.437 Y9.625 E298.9689
G1 X390.515 Y9.785 E298.99021
G1 X390.525 Y9.875 E299.00105
G1 X390.525 Y48.875 E303.67077
G1 X390.486 Y49.048 E303.69201
G1 X390.375 Y49.187 E303.71331
G1 X390.215 Y49.265 E303.73462
G1 X390.125 Y49.275 E303.74546
G1 X351.125 Y49.275 E308.41519
G1 F2400 E307.41519
G1 F600 Z0.9
G0 F4800 X225.768 Y55.185 Z0.9
G1 F600 Z0.4
G1 F2400 E308.44013
G1 F1080 X225.455 Y55.433 E308.48795
G1 X225.099 Y55.614 E308.53577
G1 X224.714 Y55.721 E308.58361
G1 X224.375 Y55.75 E308.62435
G1 X175.625 Y55.75 E314.46151
G1 X175.227 Y55.71 E314.5094
G1 X174.846 Y55.592 E314.55716
G1 X174.495 Y55.4 E314.60506
G1 X174.19 Y55.143 E314.65282
G1 X173.942 Y54.83 E314.70063
G1 X173.761 Y54.474 E314.74845
G1 X173.654 Y54.089 E314.7963
G1 X173.625 Y53.75 E314.83704
G1 X173.625 Y5 E320.67419
G1 X173.665 Y4.602 E320.72209
G1 X173.783 Y4.221 E320.76984
G1 X173.975 Y3.87 E320.81775
G1 X174.232 Y3.565 E320.8655
G1 X174.545 Y3.317 E320.91332
G1 X174.901 Y3.136 E320.96114
G1 X175.286 Y3.029 E321.00898
G1 X175.625 Y3 E321.04972
G1 X224.375 Y3 E326.88688
G1 X224.773 Y3.04 E326.93477
G1 X225.154 Y3.158 E326.98253
G1 X225.505 Y3.35 E327.03043
G1 X225.81 Y3.607 E327.07819
G1 X226.058 Y3.92 E327.12601
G1 X226.239 Y4.276 E327.17382
G1 X226.346 Y4.661 E327.22167
G1 X226.375 Y5 E327.26241
G1 X226.375 Y53.75 E333.09956
G1 X226.335 Y54.148 E333.14746
G1 X226.217 Y54.529 E333.19522
G1 X226.025 Y54.88 E333.24312
G1 X225.768 Y55.185 E333.29088
G0 F4800 X225.232 Y54.59
G1 F1080 X224.989 Y54.781 E333.32788
G1 X224.705 Y54.904 E333.36494
G1 X224.375 Y54.95 E333.40484
G1 X175.625 Y54.95 E339.24199
G1 X175.318 Y54.91 E339.27906
G1 X175.032 Y54.793 E339.31606
G1 X174.785 Y54.607 E339.35308
G1 X174.594 Y54.364 E339.39009
G1 X174.471 Y54.08 E339.42715
G1 X174.425 Y53.75 E339.46704
G1 X174.425 Y5 E345.3042
G1 X174.465 Y4.693 E345.34127
G1 X174.582 Y4.407 E345.37827
G1 X174.768 Y4.16 E345.41529
G1 X175.011 Y3.969 E345.4523
G1 X175.295 Y3.846 E345.48935
G1 X175.625 Y3.8 E345.52925
G1 X224.375 Y3.8 E351.3664
G1 X224.682 Y3.84 E351.40347
G1 X224.968 Y3.957 E351.44047
G1 X225.215 Y4.143 E351.47749
G1 X225.406 Y4.386 E351.5145
G1 X225.529 Y4.67 E351.55156
G1 X225.575 Y5 E351.59145
G1 X225.575 Y53.75 E357.42861
G1 X225.535 Y54.057 E357.46568
G1 X225.418 Y54.343 E357.50268
G1 X225.232 Y54.59 E357.5397
G0 F4800 X224.625 Y54.062
G1 F1080 X224.465 Y54.14 E357.56101
G1 X224.375 Y54.15 E357.57186
G1 X175.625 Y54.15 E363.40901
G1 X175.452 Y54.111 E363.43024
G1 X175.313 Y54 E363.45154
G1 X175.235 Y53.84 E363.47286
G1 X175.225 Y53.75 E363.4837
G1 X175.225 Y5 E369.32085
G1 X175.265 Y4.827 E369.34211
G1 X175.375 Y4.688 E369.36334
G1 X175.535 Y4.61 E369.38465
G1 X175.625 Y4.6 E369.39549
G1 X224.375 Y4.6 E375.23265
G1 X224.548 Y4.64 E375.25391
G1 X224.687 Y4.75 E375.27513
G1 X224.765 Y4.91 E375.29645
G1 X224.775 Y5 E375.30729
G1 X224.775 Y53.75 E381.14444
G1 X224.736 Y53.923 E381.16568
G1 X224.625 Y54.062 E381.18697
G1 F2400 E380.18697
G1 F600 Z0.9
G0 F4800 X222.756 Y52.131 Z0.9
G1 F600 Z0.4
G1 F2400 E381.21192
G1 F1080 X222.756 Y6.619 E386.66137
G1 X177.244 Y6.619 E392.11081
G1 X177.244 Y52.131 E397.56026
G1 X222.756 Y52.131 E403.00971
G0 F4800 X221.956 Y51.331
G1 F1080 X221.956 Y7.419 E408.26758
G1 X178.044 Y7.419 E413.52544
G1 X178.044 Y51.331 E418.78331
G1 X221.956 Y51.331 E424.04118
G1 F2400 E423.04118
G1 F600 Z0.9
G0 F4800 X220.357 Y49.715 Z0.9
G1 F600 Z0.4
G1 F2400 E424.06613
G1 F1080 X220.114 Y49.906 E424.10314
G1 X219.83 Y50.029 E424.14019
G1 X219.5 Y50.075 E424.18009
G1 X180.5 Y50.075 E428.84981
G1 X180.193 Y50.035 E428.88688
G1 X179.907 Y49.918 E428.92388
G1 X179.66 Y49.732 E428.9609
G1 X179.469 Y49.489 E428.99791
G1 X179.346 Y49.205 E429.03497
G1 X179.3 Y48.875 E429.07486
G1 X179.3 Y9.875 E433.74459
G1 X179.34 Y9.568 E433.78166
G1 X179.457 Y9.282 E433.81866
G1 X179.643 Y9.035 E433.85568
G1 X179.886 Y8.844 E433.89269
G1 X180.17 Y8.721 E433.92974
G1 X180.5 Y8.675 E433.96964
G1 X219.5 Y8.675 E438.63936
G1 X219.807 Y8.715 E438.67643
G1 X220.093 Y8.832 E438.71343
G1 X220.34 Y9.018 E438.75045
G1 X220.531 Y9.261 E438.78746
G1 X220.654 Y9.545 E438.82452
G1 X220.7 Y9.875 E438.86441
G1 X220.7 Y48.875 E443.53414
G1 X220.66 Y49.182 E443.57121
G1 X220.543 Y49.468 E443.60821
G1 X220.357 Y49.715 E443.64523
G0 F4800 X219.75 Y49.187
G1 F1080 X219.59 Y49.265 E443.66654
G1 X219.5 Y49.275 E443.67738
G1 X180.5 Y49.275 E448.34711
G1 X180.327 Y49.236 E448.36834
G1 X180.188 Y49.125 E448.38964
G1 X180.11 Y48.965 E448.41095
G1 X180.1 Y48.875 E448.4218
G1 X180.1 Y9.875 E453.09152
G1 X180.14 Y9.702 E453.11278
G1 X180.25 Y9.563 E453.134
G1 X180.41 Y9.485 E453.15532
G1 X180.5 Y9.475 E453.16616
G1 X219.5 Y9.475 E457.83588
G1 X219.673 Y9.515 E457.85714
G1 X219.812 Y9.625 E457.87837
G1 X219.89 Y9.785 E457.89968
G1 X219.9 Y9.875 E457.91052
G1 X219.9 Y48.875 E462.58025
G1 X219.861 Y49.048 E462.60148
G1 X219.75 Y49.187 E462.62278
G1 F2400 E461.62278
G1 F600 Z0.9
G0 F4800 X224.775 Y175.625 Z0.9
G1 F600 Z0.4
G1 F2400 E462.64773
G1 F1080 X224.775 Y224.375 E468.48488
G1 X224.736 Y224.548 E468.50611
G1 X224.625 Y224.687 E468.52741
G1 X224.465 Y224.765 E468.54873
G1 X224.375 Y224.775 E468.55957
G1 X175.625 Y224.775 E474.39672
G1 X175.452 Y224.736 E474.41796
G1 X175.313 Y224.625 E474.43925
G1 X175.235 Y224.465 E474.46057
G1 X175.225 Y224.375 E474.47141
G1 X175.225 Y175.625 E480.30856
G1 X175.265 Y175.452 E480.32982
G1 X175.375 Y175.313 E480.35105
G1 X175.535 Y175.235 E480.37236
G1 X175.625 Y175.225 E480.38321
G1 X224.375 Y175.225 E486.22036
G1 X224.548 Y175.265 E486.24162
G1 X224.687 Y175.375 E486.26284
G1 X224.765 Y175.535 E486.28416
G1 X224.775 Y175.625 E486.295
G0 F4800 X225.575 Y175.625
G1 F1080 X225.575 Y224.375 E492.13215
G1 X225.535 Y224.682 E492.16922
G1 X225.418 Y224.968 E492.20622
G1 X225.232 Y225.215 E492.24325
G1 X224.989 Y225.406 E492.28025
G1 X224.705 Y225.529 E492.31731
G1 X224.375 Y225.575 E492.35721
G1 X175.625 Y225.575 E498.19436
G1 X175.318 Y225.535 E498.23143
G1 X175.032 Y225.418 E498.26843
G1 X174.785 Y225.232 E498.30545
G1 X174.594 Y224.989 E498.34246
G1 X174.471 Y224.705 E498.37952
G1 X174.425 Y224.375 E498.41941
G1 X174.425 Y175.625 E504.25657
G1 X174.465 Y175.318 E504.29364
G1 X174.582 Y175.032 E504.33063
